; G-Code generated by Simplify3D(R) Version 4.1.1
; May 29, 2020 at 9:43:00 AM
; Settings Summary
;   processName,Process1
;   applyToModels,Aileron L1
;   profileName,Generic GCode 3DAeroventures PLA (modified)
;   profileVersion,2020-05-20 12:25:51
;   baseProfile,Prusa Research Original Prusa i3 MK3 (modified)
;   printMaterial,PLA
;   printQuality,Medium
;   printExtruders,
;   extruderName,Primary Extruder
;   extruderToolheadNumber,0
;   extruderDiameter,0.4
;   extruderAutoWidth,0
;   extruderWidth,0.4
;   extrusionMultiplier,0.95
;   extruderUseRetract,1
;   extruderRetractionDistance,1
;   extruderExtraRestartDistance,0
;   extruderRetractionZLift,0
;   extruderRetractionSpeed,2400
;   extruderUseCoasting,1
;   extruderCoastingDistance,0.2
;   extruderUseWipe,1
;   extruderWipeDistance,2
;   primaryExtruder,0
;   layerHeight,0.25
;   topSolidLayers,4
;   bottomSolidLayers,6
;   perimeterOutlines,1
;   printPerimetersInsideOut,0
;   startPointOption,3
;   startPointOriginX,180
;   startPointOriginY,20
;   sequentialIslands,0
;   spiralVaseMode,0
;   firstLayerHeightPercentage,100
;   firstLayerWidthPercentage,100
;   firstLayerUnderspeed,0.3
;   useRaft,0
;   raftExtruder,0
;   raftTopLayers,3
;   raftBaseLayers,2
;   raftOffset,3
;   raftSeparationDistance,0.14
;   raftTopInfill,100
;   aboveRaftSpeedMultiplier,0.3
;   useSkirt,1
;   skirtExtruder,0
;   skirtLayers,1
;   skirtOutlines,1
;   skirtOffset,2
;   usePrimePillar,0
;   primePillarExtruder,999
;   primePillarWidth,12
;   primePillarLocation,7
;   primePillarSpeedMultiplier,1
;   useOozeShield,0
;   oozeShieldExtruder,999
;   oozeShieldOffset,2
;   oozeShieldOutlines,1
;   oozeShieldSidewallShape,1
;   oozeShieldSidewallAngle,30
;   oozeShieldSpeedMultiplier,1
;   infillExtruder,0
;   internalInfillPattern,Rectilinear
;   externalInfillPattern,Rectilinear
;   infillPercentage,0
;   outlineOverlapPercentage,10
;   infillExtrusionWidthPercentage,100
;   minInfillLength,5
;   infillLayerInterval,1
;   internalInfillAngles,45,-45
;   overlapInternalInfillAngles,0
;   externalInfillAngles,45,-45
;   generateSupport,0
;   supportExtruder,0
;   supportInfillPercentage,30
;   supportExtraInflation,0
;   supportBaseLayers,2
;   denseSupportExtruder,0
;   denseSupportLayers,3
;   denseSupportInfillPercentage,70
;   supportLayerInterval,1
;   supportHorizontalPartOffset,0.8
;   supportUpperSeparationLayers,1
;   supportLowerSeparationLayers,1
;   supportType,0
;   supportGridSpacing,4
;   maxOverhangAngle,45
;   supportAngles,0
;   temperatureName,Primary Extruder,Heated Bed
;   temperatureNumber,0,0
;   temperatureSetpointCount,1,1
;   temperatureSetpointLayers,1,1
;   temperatureSetpointTemperatures,220,70
;   temperatureStabilizeAtStartup,1,1
;   temperatureHeatedBed,0,1
;   fanLayers,1,2
;   fanSpeeds,0,30
;   blipFanToFullPower,1
;   adjustSpeedForCooling,1
;   minSpeedLayerTime,15
;   minCoolingSpeedSlowdown,10
;   increaseFanForCooling,0
;   minFanLayerTime,45
;   maxCoolingFanSpeed,100
;   increaseFanForBridging,0
;   bridgingFanSpeed,100
;   use5D,1
;   relativeEdistances,0
;   allowEaxisZeroing,1
;   independentExtruderAxes,0
;   includeM10123,0
;   stickySupport,1
;   applyToolheadOffsets,0
;   gcodeXoffset,0
;   gcodeYoffset,0
;   gcodeZoffset,0
;   overrideMachineDefinition,1
;   machineTypeOverride,0
;   strokeXoverride,180
;   strokeYoverride,180
;   strokeZoverride,180
;   originOffsetXoverride,0
;   originOffsetYoverride,0
;   originOffsetZoverride,0
;   homeXdirOverride,-1
;   homeYdirOverride,-1
;   homeZdirOverride,-1
;   flipXoverride,1
;   flipYoverride,-1
;   flipZoverride,1
;   toolheadOffsets,0,0|0,0|0,0|0,0|0,0|0,0
;   overrideFirmwareConfiguration,0
;   firmwareTypeOverride,RepRap (Marlin/Repetier/Sprinter)
;   GPXconfigOverride,r2
;   baudRateOverride,115200
;   overridePrinterModels,1
;   printerModelsOverride
;   startingGcode,G28
;   layerChangeGcode,
;   retractionGcode,
;   toolChangeGcode,
;   endingGcode,M104 S0 ; turn off extruder,M140 S0 ; turn off bed,G28 X0 ; home X axis,M84 ; disable motors,M107 ; turn off fan
;   exportFileFormat,gcode
;   celebration,0
;   celebrationSong,Funky Town
;   postProcessing,
;   defaultSpeed,2400
;   outlineUnderspeed,0.7
;   solidInfillUnderspeed,0.8
;   supportUnderspeed,0.8
;   rapidXYspeed,9000
;   rapidZspeed,1002
;   minBridgingArea,5
;   bridgingExtraInflation,0
;   bridgingExtrusionMultiplier,1
;   bridgingSpeedMultiplier,0.3
;   useFixedBridgingAngle,0
;   fixedBridgingAngle,0
;   applyBridgingToPerimeters,0
;   filamentDiameters,1.75|1.75|1.75|1.75|1.75|1.75
;   filamentPricesPerKg,26|46|46|46|46|46
;   filamentDensities,1.25|1.25|1.25|1.25|1.25|1.25
;   useMinPrintHeight,0
;   minPrintHeight,78
;   useMaxPrintHeight,0
;   maxPrintHeight,106
;   useDiaphragm,0
;   diaphragmLayerInterval,20
;   robustSlicing,1
;   mergeAllIntoSolid,0
;   onlyRetractWhenCrossingOutline,0
;   retractBetweenLayers,0
;   useRetractionMinTravel,0
;   retractionMinTravel,3
;   retractWhileWiping,1
;   onlyWipeOutlines,1
;   avoidCrossingOutline,0
;   maxMovementDetourFactor,3
;   toolChangeRetractionDistance,0
;   toolChangeExtraRestartDistance,0
;   toolChangeRetractionSpeed,360
;   externalThinWallType,0
;   internalThinWallType,1
;   thinWallAllowedOverlapPercentage,10
;   singleExtrusionMinLength,1
;   singleExtrusionMinPrintingWidthPercentage,50
;   singleExtrusionMaxPrintingWidthPercentage,100
;   singleExtrusionEndpointExtension,0
;   horizontalSizeCompensation,0
G90
M82
M106 S0
M140 S70
M190 S70
M104 S220 T0
M109 S220 T0
G28
; process Process1
; layer 1, Z = 0.250
T0
G92 E0.0000
G1 E-1.0000 F2400
; feature skirt
; tool H0.250 W0.400
G1 Z0.250 F1002
G1 X105.144 Y31.859 F9000
G1 E0.0000 F2400
G92 E0.0000
G1 X105.176 Y32.369 E0.0202 F720
G1 X105.050 Y33.108 E0.0498
G1 X104.851 Y33.578 E0.0700
G1 X104.364 Y34.244 E0.1026
G1 X103.945 Y34.593 E0.1241
G1 X103.336 Y34.884 E0.1507
G1 X103.092 Y34.968 E0.1609
G1 X82.134 Y39.479 E1.0077
G1 X82.068 Y39.491 E1.0103
G1 X81.602 Y39.562 E1.0289
G1 X81.441 Y39.575 E1.0353
G1 X80.742 Y39.578 E1.0629
G1 X80.557 Y39.563 E1.0702
G1 X79.915 Y39.457 E1.0960
G1 X79.766 Y39.421 E1.1020
G1 X79.281 Y39.270 E1.1221
G1 X79.137 Y39.214 E1.1282
G1 X78.547 Y38.934 E1.1540
G1 X78.387 Y38.841 E1.1613
G1 X77.804 Y38.432 E1.1894
G1 X77.662 Y38.313 E1.1967
G1 X77.197 Y37.853 E1.2225
G1 X77.096 Y37.738 E1.2286
G1 X76.794 Y37.342 E1.2483
G1 X76.717 Y37.226 E1.2538
G1 X76.440 Y36.748 E1.2756
G1 X76.373 Y36.611 E1.2816
G1 X76.156 Y36.077 E1.3044
G1 X76.111 Y35.941 E1.3100
G1 X75.984 Y35.455 E1.3299
G1 X75.955 Y35.304 E1.3360
G1 X75.880 Y34.651 E1.3619
G1 X75.874 Y34.455 E1.3697
G1 X75.955 Y33.166 E1.4206
G1 X75.995 Y32.935 E1.4299
G1 X76.214 Y32.162 E1.4616
G1 X76.271 Y32.007 E1.4682
G1 X76.464 Y31.581 E1.4866
G1 X76.544 Y31.436 E1.4932
G1 X76.979 Y30.769 E1.5246
G1 X77.118 Y30.597 E1.5334
G1 X77.677 Y30.031 E1.5648
G1 X77.802 Y29.922 E1.5713
G1 X78.106 Y29.695 E1.5863
G1 X78.013 Y29.590 E1.5919
G1 X77.889 Y29.421 E1.6001
G1 X77.580 Y28.902 E1.6240
G1 X77.489 Y28.706 E1.6325
G1 X77.276 Y28.107 E1.6576
G1 X77.218 Y27.843 E1.6683
G1 X77.142 Y27.042 E1.7001
G1 X77.139 Y26.876 E1.7066
G1 X77.336 Y23.330 E1.8469
G1 X77.358 Y23.165 E1.8535
G1 X77.437 Y22.790 E1.8686
G1 X77.484 Y22.627 E1.8754
G1 X77.696 Y22.064 E1.8991
G1 X77.768 Y21.911 E1.9058
G1 X77.958 Y21.575 E1.9210
G1 X78.053 Y21.434 E1.9277
G1 X78.426 Y20.963 E1.9515
G1 X78.542 Y20.838 E1.9582
G1 X78.825 Y20.576 E1.9734
G1 X78.958 Y20.470 E1.9801
G1 X79.456 Y20.135 E2.0039
G1 X79.604 Y20.051 E2.0106
G1 X79.950 Y19.889 E2.0257
G1 X80.101 Y19.831 E2.0320
G1 X80.643 Y19.669 E2.0544
G1 X80.855 Y19.627 E2.0629
G1 X81.538 Y19.562 E2.0900
G1 X81.727 Y19.560 E2.0975
G1 X82.121 Y19.590 E2.1131
G1 X82.289 Y19.616 E2.1198
G1 X82.902 Y19.759 E2.1447
G1 X83.116 Y19.833 E2.1536
G1 X83.686 Y20.099 E2.1785
G1 X83.834 Y20.183 E2.1852
G1 X84.155 Y20.397 E2.2004
G1 X84.288 Y20.502 E2.2071
G1 X84.751 Y20.929 E2.2320
G1 X84.901 Y21.099 E2.2409
G1 X85.283 Y21.634 E2.2669
G1 X85.395 Y21.831 E2.2759
G1 X85.649 Y22.407 E2.3007
G1 X85.705 Y22.567 E2.3074
G1 X85.799 Y22.918 E2.3218
G1 X85.824 Y23.039 E2.3267
G1 X85.949 Y23.882 E2.3603
G1 X86.033 Y24.262 E2.3757
G1 X86.219 Y24.882 E2.4012
G1 X86.376 Y25.280 E2.4181
G1 X86.581 Y25.707 E2.4369
G1 X86.823 Y26.128 E2.4560
G1 X87.096 Y26.528 E2.4752
G1 X87.398 Y26.907 E2.4943
G1 X87.728 Y27.261 E2.5134
G1 X88.084 Y27.590 E2.5326
G1 X88.464 Y27.891 E2.5517
G1 X88.865 Y28.162 E2.5708
G1 X89.286 Y28.402 E2.5900
G1 X89.725 Y28.610 E2.6091
G1 X90.151 Y28.774 E2.6272
G1 X90.643 Y28.923 E2.6475
G1 X91.113 Y29.026 E2.6665
G1 X91.563 Y29.089 E2.6844
G1 X102.663 Y29.497 E3.1231
G1 X102.950 Y29.546 E3.1346
G1 X103.561 Y29.736 E3.1599
G1 X104.001 Y29.995 E3.1801
G1 X104.605 Y30.574 E3.2131
G1 X104.902 Y31.058 E3.2356
G1 X105.144 Y31.859 E3.2686
G92 E0.0000
G1 E-1.0000 F2400
; feature outer perimeter
G1 X102.763 Y32.263 F9000
G1 E0.0000 F2400
G92 E0.0000
G1 X102.758 Y32.337 E0.0029 F504
G1 X102.739 Y32.408 E0.0058
G1 X102.674 Y32.518 E0.0109
G1 X102.622 Y32.570 E0.0138
G1 X102.559 Y32.611 E0.0167
G1 X102.448 Y32.651 E0.0214
G1 X81.667 Y37.124 E0.8610
G1 X81.330 Y37.176 E0.8744
G1 X81.095 Y37.188 E0.8837
G1 X80.844 Y37.178 E0.8936
G1 X80.396 Y37.104 E0.9116
G1 X80.084 Y37.006 E0.9245
G1 X79.671 Y36.810 E0.9426
G1 X79.485 Y36.693 E0.9513
G1 X79.275 Y36.532 E0.9617
G1 X78.950 Y36.211 E0.9797
G1 X78.752 Y35.952 E0.9926
G1 X78.562 Y35.624 E1.0076
G1 X78.412 Y35.253 E1.0234
G1 X78.329 Y34.936 E1.0363
G1 X78.277 Y34.487 E1.0542
G1 X78.305 Y33.737 E1.0838
G1 X78.341 Y33.456 E1.0950
G1 X78.404 Y33.182 E1.1061
G1 X78.494 Y32.916 E1.1172
G1 X78.610 Y32.660 E1.1283
G1 X78.752 Y32.417 E1.1394
G1 X78.917 Y32.189 E1.1506
G1 X79.104 Y31.979 E1.1617
G1 X79.312 Y31.789 E1.1728
G1 X79.537 Y31.621 E1.1839
G1 X79.779 Y31.476 E1.1950
G1 X80.033 Y31.356 E1.2061
G1 X80.298 Y31.263 E1.2172
G1 X80.572 Y31.196 E1.2284
G1 X80.881 Y31.149 E1.2407
G1 X81.069 Y31.079 E1.2486
G1 X81.232 Y30.954 E1.2567
G1 X81.321 Y30.839 E1.2625
G1 X81.384 Y30.714 E1.2680
G1 X81.422 Y30.573 E1.2738
G1 X81.424 Y30.378 E1.2815
G1 X81.378 Y30.140 E1.2911
G1 X81.241 Y29.751 E1.3073
G1 X81.135 Y29.549 E1.3164
G1 X80.885 Y29.209 E1.3330
G1 X79.889 Y28.088 E1.3923
G1 X79.708 Y27.784 E1.4062
G1 X79.590 Y27.452 E1.4201
G1 X79.539 Y27.098 E1.4343
G1 X79.540 Y26.922 E1.4412
G1 X79.727 Y23.562 E1.5741
G1 X79.766 Y23.375 E1.5817
G1 X79.825 Y23.189 E1.5894
G1 X79.904 Y23.010 E1.5971
G1 X80.000 Y22.840 E1.6048
G1 X80.113 Y22.681 E1.6125
G1 X80.242 Y22.534 E1.6202
G1 X80.385 Y22.402 E1.6280
G1 X80.542 Y22.284 E1.6357
G1 X80.709 Y22.184 E1.6434
G1 X80.882 Y22.103 E1.6509
G1 X81.216 Y22.002 E1.6647
G1 X81.456 Y21.966 E1.6743
G1 X81.649 Y21.961 E1.6819
G1 X81.844 Y21.976 E1.6896
G1 X82.036 Y22.010 E1.6974
G1 X82.224 Y22.065 E1.7051
G1 X82.405 Y22.138 E1.7128
G1 X82.578 Y22.229 E1.7205
G1 X82.740 Y22.338 E1.7282
G1 X82.890 Y22.463 E1.7359
G1 X83.027 Y22.602 E1.7436
G1 X83.148 Y22.755 E1.7514
G1 X83.254 Y22.920 E1.7591
G1 X83.341 Y23.094 E1.7668
G1 X83.411 Y23.277 E1.7745
G1 X83.461 Y23.465 E1.7822
G1 X83.588 Y24.318 E1.8162
G1 X83.709 Y24.867 E1.8384
G1 X83.949 Y25.668 E1.8715
G1 X84.174 Y26.240 E1.8958
G1 X84.456 Y26.827 E1.9215
G1 X84.789 Y27.404 E1.9478
G1 X85.164 Y27.955 E1.9741
G1 X85.580 Y28.475 E2.0004
G1 X86.034 Y28.963 E2.0267
G1 X86.523 Y29.415 E2.0530
G1 X87.045 Y29.828 E2.0794
G1 X87.597 Y30.201 E2.1057
G1 X88.176 Y30.531 E2.1320
G1 X88.778 Y30.817 E2.1583
G1 X89.371 Y31.045 E2.1834
G1 X90.038 Y31.247 E2.2109
G1 X90.689 Y31.390 E2.2372
G1 X91.348 Y31.482 E2.2635
G1 X91.924 Y31.522 E2.2863
G1 X102.413 Y31.890 E2.7009
G1 X102.494 Y31.906 E2.7041
G1 X102.562 Y31.935 E2.7070
G1 X102.662 Y32.013 E2.7121
G1 X102.707 Y32.072 E2.7150
G1 X102.739 Y32.138 F504
G1 X102.763 Y32.263
G92 E0.0000
G1 X102.758 Y32.337 E-0.3509 F504
G1 X102.739 Y32.408 E-0.7007
G1 X102.707 Y32.462 E-1.0000
G1 X102.674 Y32.518 F504
G1 X102.622 Y32.570
G1 X102.559 Y32.611
G1 X102.448 Y32.651
G1 X101.023 Y32.958
G1 X82.182 Y33.738 F9000
G1 E0.0000 F2400
G92 E0.0000
G1 X82.146 Y33.511 E0.0091 F504
G1 X82.063 Y33.296 E0.0182
G1 X81.935 Y33.098 E0.0275
G1 X81.686 Y32.875 E0.0407
G1 X81.477 Y32.768 E0.0500
G1 X81.257 Y32.709 E0.0590
G1 X81.079 Y32.695 E0.0660
G1 X80.856 Y32.718 E0.0749
G1 X80.685 Y32.769 E0.0819
G1 X80.482 Y32.872 E0.0909
G1 X80.304 Y33.017 E0.1000
G1 X80.159 Y33.196 E0.1091
G1 X80.054 Y33.401 E0.1182
G1 X79.993 Y33.629 E0.1275
G1 X79.993 Y33.963 E0.1407
G1 X80.054 Y34.190 E0.1500
G1 X80.159 Y34.396 E0.1591
G1 X80.304 Y34.574 E0.1682
G1 X80.482 Y34.719 E0.1773
G1 X80.690 Y34.825 E0.1865
G1 X80.964 Y34.891 E0.1976
G1 X81.195 Y34.891 E0.2067
G1 X81.370 Y34.858 E0.2137
G1 X81.582 Y34.777 E0.2227
G1 X81.780 Y34.649 E0.2320
G1 X82.003 Y34.400 E0.2452
G1 X82.110 Y34.190 E0.2545
G1 X82.170 Y33.968 E0.2636
G1 X82.171 Y33.938 E0.2648
G1 X82.182 Y33.738 F504
G92 E0.0000
G1 X82.149 Y33.531 E-1.0000 F504
G1 X82.146 Y33.511 F504
G1 X82.063 Y33.296
G1 X81.935 Y33.098
G1 X81.686 Y32.875
G1 X81.477 Y32.768
G1 X81.257 Y32.709
G1 X81.079 Y32.695
G1 X80.856 Y32.718
G1 X80.756 Y32.748
G1 X82.553 Y23.910 F9000
G1 E0.0000 F2400
G92 E0.0000
G1 X82.542 Y23.711 E0.0079 F504
G1 X82.491 Y23.519 E0.0157
G1 X82.400 Y23.342 E0.0236
G1 X82.275 Y23.187 E0.0314
G1 X82.121 Y23.062 E0.0393
G1 X81.939 Y22.970 E0.0473
G1 X81.658 Y22.910 E0.0587
G1 X81.454 Y22.921 E0.0667
G1 X81.256 Y22.974 E0.0748
G1 X81.000 Y23.124 E0.0866
G1 X80.863 Y23.262 E0.0942
G1 X80.755 Y23.428 E0.1021
G1 X80.684 Y23.614 E0.1099
G1 X80.652 Y23.815 E0.1180
G1 X80.682 Y24.101 E0.1293
G1 X80.755 Y24.292 E0.1374
G1 X80.864 Y24.459 E0.1452
G1 X81.004 Y24.599 E0.1531
G1 X81.176 Y24.711 E0.1612
G1 X81.465 Y24.802 E0.1731
G1 X81.747 Y24.801 E0.1843
G1 X81.950 Y24.746 E0.1926
G1 X82.206 Y24.596 E0.2043
G1 X82.342 Y24.458 E0.2120
G1 X82.450 Y24.292 E0.2198
G1 X82.521 Y24.106 E0.2277
G1 X82.553 Y23.910 F504
G92 E0.0000
G1 X82.542 Y23.711 E-0.9468 F504
G1 X82.539 Y23.700 E-1.0000
G1 X82.491 Y23.519 F504
G1 X82.400 Y23.342
G1 X82.275 Y23.187
G1 X82.121 Y23.062
G1 X81.939 Y22.970
G1 X81.658 Y22.910
G1 X81.454 Y22.921
G1 X81.256 Y22.974
G1 X81.165 Y23.027
; feature solid layer
G1 X81.126 Y22.405 F9000
G1 E0.0000 F2400
G92 E0.0000
G1 X81.308 Y22.587 E0.0102 F576
G1 X81.116 Y22.639 E0.0180
G1 X80.913 Y22.758 E0.0273
G1 X80.740 Y22.585 E0.0369
G1 X80.616 Y22.678 E0.0431
G1 X80.500 Y22.786 E0.0493
G1 X80.442 Y22.853 E0.0528
G1 X80.603 Y23.014 E0.0618
G1 X80.582 Y23.035 E0.0630
G1 X80.433 Y23.264 E0.0738
G1 X80.392 Y23.369 E0.0782
G1 X80.217 Y23.193 E0.0880
G1 X80.163 Y23.316 E0.0934
G1 X80.114 Y23.467 E0.0996
G1 X80.085 Y23.609 E0.1053
G1 X80.084 Y23.626 E0.1060
G1 X80.292 Y23.834 E0.1176
G1 X80.329 Y24.186 E0.1316
G1 X80.433 Y24.456 E0.1430
G1 X80.582 Y24.686 E0.1539
G1 X80.776 Y24.880 E0.1647
G1 X81.021 Y25.039 E0.1762
G1 X81.410 Y25.162 E0.1924
G1 X81.619 Y25.161 E0.2006
G1 X91.169 Y34.711 E0.7340
G1 X90.703 Y34.811 E0.7528
G1 X80.054 Y24.162 E1.3476
G1 X80.024 Y24.698 E1.3688
G1 X90.238 Y34.911 E1.9393
G1 X89.772 Y35.011 E1.9581
G1 X79.994 Y25.234 E2.5043
G1 X79.964 Y25.770 E2.5255
G1 X89.307 Y35.112 E3.0473
G1 X88.841 Y35.212 E3.0661
G1 X79.935 Y26.305 E3.5636
G1 X79.905 Y26.841 E3.5848
G1 X88.376 Y35.312 E4.0579
G1 X87.910 Y35.412 E4.0767
G1 X79.985 Y27.487 E4.5194
G1 X80.036 Y27.631 E4.5254
G1 X80.181 Y27.874 E4.5366
G1 X81.165 Y28.982 E4.5952
G1 X81.441 Y29.358 E4.6136
G1 X81.572 Y29.607 E4.6247
G1 X81.590 Y29.658 E4.6268
G1 X87.445 Y35.512 E4.9539
G1 X86.979 Y35.613 E4.9727
