; G-Code generated by Simplify3D(R) Version 4.1.1
; May 29, 2020 at 9:42:23 AM
; Settings Summary
;   processName,Process1
;   applyToModels,Aileron R1 - PLA
;   profileName,Generic GCode 3DAeroventures PLA (modified)
;   profileVersion,2020-05-20 12:25:51
;   baseProfile,Prusa Research Original Prusa i3 MK3 (modified)
;   printMaterial,PLA
;   printQuality,Medium
;   printExtruders,
;   extruderName,Primary Extruder
;   extruderToolheadNumber,0
;   extruderDiameter,0.4
;   extruderAutoWidth,0
;   extruderWidth,0.4
;   extrusionMultiplier,0.95
;   extruderUseRetract,1
;   extruderRetractionDistance,1
;   extruderExtraRestartDistance,0
;   extruderRetractionZLift,0
;   extruderRetractionSpeed,2400
;   extruderUseCoasting,1
;   extruderCoastingDistance,0.2
;   extruderUseWipe,1
;   extruderWipeDistance,2
;   primaryExtruder,0
;   layerHeight,0.25
;   topSolidLayers,4
;   bottomSolidLayers,6
;   perimeterOutlines,1
;   printPerimetersInsideOut,0
;   startPointOption,3
;   startPointOriginX,0
;   startPointOriginY,20
;   sequentialIslands,0
;   spiralVaseMode,0
;   firstLayerHeightPercentage,100
;   firstLayerWidthPercentage,100
;   firstLayerUnderspeed,0.3
;   useRaft,0
;   raftExtruder,0
;   raftTopLayers,3
;   raftBaseLayers,2
;   raftOffset,3
;   raftSeparationDistance,0.14
;   raftTopInfill,100
;   aboveRaftSpeedMultiplier,0.3
;   useSkirt,1
;   skirtExtruder,0
;   skirtLayers,1
;   skirtOutlines,1
;   skirtOffset,2
;   usePrimePillar,0
;   primePillarExtruder,999
;   primePillarWidth,12
;   primePillarLocation,7
;   primePillarSpeedMultiplier,1
;   useOozeShield,0
;   oozeShieldExtruder,999
;   oozeShieldOffset,2
;   oozeShieldOutlines,1
;   oozeShieldSidewallShape,1
;   oozeShieldSidewallAngle,30
;   oozeShieldSpeedMultiplier,1
;   infillExtruder,0
;   internalInfillPattern,Rectilinear
;   externalInfillPattern,Rectilinear
;   infillPercentage,0
;   outlineOverlapPercentage,10
;   infillExtrusionWidthPercentage,100
;   minInfillLength,5
;   infillLayerInterval,1
;   internalInfillAngles,45,-45
;   overlapInternalInfillAngles,0
;   externalInfillAngles,45,-45
;   generateSupport,0
;   supportExtruder,0
;   supportInfillPercentage,30
;   supportExtraInflation,0
;   supportBaseLayers,2
;   denseSupportExtruder,0
;   denseSupportLayers,3
;   denseSupportInfillPercentage,70
;   supportLayerInterval,1
;   supportHorizontalPartOffset,0.8
;   supportUpperSeparationLayers,1
;   supportLowerSeparationLayers,1
;   supportType,0
;   supportGridSpacing,4
;   maxOverhangAngle,45
;   supportAngles,0
;   temperatureName,Primary Extruder,Heated Bed
;   temperatureNumber,0,0
;   temperatureSetpointCount,1,1
;   temperatureSetpointLayers,1,1
;   temperatureSetpointTemperatures,220,70
;   temperatureStabilizeAtStartup,1,1
;   temperatureHeatedBed,0,1
;   fanLayers,1,2
;   fanSpeeds,0,30
;   blipFanToFullPower,1
;   adjustSpeedForCooling,1
;   minSpeedLayerTime,15
;   minCoolingSpeedSlowdown,10
;   increaseFanForCooling,0
;   minFanLayerTime,45
;   maxCoolingFanSpeed,100
;   increaseFanForBridging,0
;   bridgingFanSpeed,100
;   use5D,1
;   relativeEdistances,0
;   allowEaxisZeroing,1
;   independentExtruderAxes,0
;   includeM10123,0
;   stickySupport,1
;   applyToolheadOffsets,0
;   gcodeXoffset,0
;   gcodeYoffset,0
;   gcodeZoffset,0
;   overrideMachineDefinition,1
;   machineTypeOverride,0
;   strokeXoverride,180
;   strokeYoverride,180
;   strokeZoverride,180
;   originOffsetXoverride,0
;   originOffsetYoverride,0
;   originOffsetZoverride,0
;   homeXdirOverride,-1
;   homeYdirOverride,-1
;   homeZdirOverride,-1
;   flipXoverride,1
;   flipYoverride,-1
;   flipZoverride,1
;   toolheadOffsets,0,0|0,0|0,0|0,0|0,0|0,0
;   overrideFirmwareConfiguration,0
;   firmwareTypeOverride,RepRap (Marlin/Repetier/Sprinter)
;   GPXconfigOverride,r2
;   baudRateOverride,115200
;   overridePrinterModels,1
;   printerModelsOverride
;   startingGcode,G28
;   layerChangeGcode,
;   retractionGcode,
;   toolChangeGcode,
;   endingGcode,M104 S0 ; turn off extruder,M140 S0 ; turn off bed,G28 X0 ; home X axis,M84 ; disable motors,M107 ; turn off fan
;   exportFileFormat,gcode
;   celebration,0
;   celebrationSong,Funky Town
;   postProcessing,
;   defaultSpeed,2400
;   outlineUnderspeed,0.7
;   solidInfillUnderspeed,0.8
;   supportUnderspeed,0.8
;   rapidXYspeed,9000
;   rapidZspeed,1002
;   minBridgingArea,5
;   bridgingExtraInflation,0
;   bridgingExtrusionMultiplier,1
;   bridgingSpeedMultiplier,0.3
;   useFixedBridgingAngle,0
;   fixedBridgingAngle,0
;   applyBridgingToPerimeters,0
;   filamentDiameters,1.75|1.75|1.75|1.75|1.75|1.75
;   filamentPricesPerKg,26|46|46|46|46|46
;   filamentDensities,1.25|1.25|1.25|1.25|1.25|1.25
;   useMinPrintHeight,0
;   minPrintHeight,78
;   useMaxPrintHeight,0
;   maxPrintHeight,106
;   useDiaphragm,0
;   diaphragmLayerInterval,20
;   robustSlicing,1
;   mergeAllIntoSolid,0
;   onlyRetractWhenCrossingOutline,0
;   retractBetweenLayers,0
;   useRetractionMinTravel,0
;   retractionMinTravel,3
;   retractWhileWiping,1
;   onlyWipeOutlines,1
;   avoidCrossingOutline,0
;   maxMovementDetourFactor,3
;   toolChangeRetractionDistance,0
;   toolChangeExtraRestartDistance,0
;   toolChangeRetractionSpeed,360
;   externalThinWallType,0
;   internalThinWallType,1
;   thinWallAllowedOverlapPercentage,10
;   singleExtrusionMinLength,1
;   singleExtrusionMinPrintingWidthPercentage,50
;   singleExtrusionMaxPrintingWidthPercentage,100
;   singleExtrusionEndpointExtension,0
;   horizontalSizeCompensation,0
G90
M82
M106 S0
M140 S70
M190 S70
M104 S220 T0
M109 S220 T0
G28
; process Process1
; layer 1, Z = 0.250
T0
G92 E0.0000
G1 E-1.0000 F2400
; feature skirt
; tool H0.250 W0.400
G1 Z0.250 F1002
G1 X71.092 Y32.123 F9000
G1 E0.0000 F2400
G92 E0.0000
G1 X71.346 Y31.418 E0.0296 F720
G1 X71.624 Y30.989 E0.0498
G1 X72.208 Y30.430 E0.0817
G1 X72.649 Y30.171 E0.1019
G1 X73.259 Y29.982 E0.1272
G1 X73.546 Y29.933 E0.1387
G1 X84.645 Y29.526 E0.5773
G1 X85.095 Y29.462 E0.5953
G1 X85.568 Y29.359 E0.6144
G1 X86.032 Y29.220 E0.6335
G1 X86.485 Y29.046 E0.6527
G1 X86.919 Y28.840 E0.6716
G1 X87.378 Y28.576 E0.6926
G1 X87.745 Y28.328 E0.7101
G1 X88.103 Y28.045 E0.7281
G1 X88.482 Y27.696 E0.7484
G1 X88.810 Y27.344 E0.7675
G1 X89.113 Y26.965 E0.7866
G1 X89.384 Y26.567 E0.8056
G1 X89.638 Y26.124 E0.8258
G1 X89.868 Y25.632 E0.8472
G1 X90.013 Y25.257 E0.8631
G1 X90.125 Y24.893 E0.8782
G1 X90.262 Y24.306 E0.9020
G1 X90.385 Y23.477 E0.9351
G1 X90.410 Y23.355 E0.9400
G1 X90.504 Y23.004 E0.9543
G1 X90.560 Y22.844 E0.9610
G1 X90.802 Y22.294 E0.9848
G1 X90.883 Y22.144 E0.9915
G1 X91.091 Y21.819 E1.0067
G1 X91.193 Y21.684 E1.0134
G1 X91.610 Y21.212 E1.0383
G1 X91.776 Y21.058 E1.0472
G1 X92.280 Y20.682 E1.0721
G1 X92.424 Y20.591 E1.0788
G1 X92.761 Y20.412 E1.0939
G1 X92.909 Y20.347 E1.1003
G1 X93.444 Y20.158 E1.1227
G1 X93.653 Y20.106 E1.1312
G1 X94.332 Y20.008 E1.1583
G1 X94.520 Y19.997 E1.1657
G1 X94.915 Y20.007 E1.1813
G1 X95.084 Y20.025 E1.1880
G1 X95.675 Y20.133 E1.2118
G1 X95.840 Y20.177 E1.2185
G1 X96.204 Y20.304 E1.2337
G1 X96.359 Y20.372 E1.2404
G1 X96.915 Y20.668 E1.2653
G1 X97.103 Y20.795 E1.2742
G1 X97.586 Y21.198 E1.2991
G1 X97.707 Y21.317 E1.3058
G1 X97.943 Y21.585 E1.3199
G1 X98.013 Y21.674 E1.3244
G1 X98.218 Y21.962 E1.3383
G1 X98.302 Y22.100 E1.3447
G1 X98.546 Y22.579 E1.3659
G1 X98.606 Y22.722 E1.3721
G1 X98.749 Y23.141 E1.3896
G1 X98.796 Y23.327 E1.3972
G1 X98.886 Y23.904 E1.4202
G1 X98.897 Y24.017 E1.4247
G1 X99.069 Y27.293 E1.5543
G1 X99.069 Y27.401 E1.5585
G1 X99.044 Y27.954 E1.5804
G1 X99.013 Y28.168 E1.5889
G1 X98.867 Y28.759 E1.6130
G1 X98.795 Y28.962 E1.6215
G1 X98.548 Y29.489 E1.6445
G1 X98.468 Y29.630 E1.6509
G1 X98.272 Y29.926 E1.6649
G1 X98.177 Y30.048 E1.6710
G1 X98.103 Y30.132 E1.6754
G1 X98.122 Y30.145 E1.6763
G1 X98.735 Y30.653 E1.7078
G1 X98.890 Y30.810 E1.7165
G1 X99.389 Y31.430 E1.7479
G1 X99.483 Y31.567 E1.7545
G1 X99.718 Y31.970 E1.7729
G1 X99.791 Y32.120 E1.7795
G1 X100.084 Y32.859 E1.8109
G1 X100.144 Y33.072 E1.8196
G1 X100.283 Y33.858 E1.8512
G1 X100.300 Y34.030 E1.8580
G1 X100.322 Y35.178 E1.9034
G1 X100.305 Y35.392 E1.9118
G1 X100.186 Y36.060 E1.9386
G1 X100.139 Y36.239 E1.9459
G1 X99.897 Y36.914 E1.9742
G1 X99.820 Y37.083 E1.9816
G1 X99.495 Y37.660 E2.0077
G1 X99.393 Y37.810 E2.0149
G1 X98.957 Y38.351 E2.0423
G1 X98.829 Y38.486 E2.0497
G1 X98.303 Y38.950 E2.0774
G1 X98.131 Y39.075 E2.0858
G1 X97.391 Y39.509 E2.1197
G1 X97.223 Y39.589 E2.1270
G1 X96.724 Y39.778 E2.1481
G1 X96.552 Y39.828 E2.1552
G1 X95.739 Y39.991 E2.1879
G1 X95.513 Y40.013 E2.1969
G1 X94.705 Y40.007 E2.2288
G1 X94.538 Y39.993 E2.2354
G1 X94.125 Y39.926 E2.2520
G1 X94.069 Y39.916 E2.2542
G1 X73.144 Y35.409 E3.0996
G1 X72.951 Y35.349 E3.1076
G1 X72.488 Y35.155 E3.1274
G1 X72.172 Y34.955 E3.1422
G1 X71.774 Y34.596 E3.1633
G1 X71.560 Y34.333 E3.1768
G1 X71.270 Y33.835 E3.1995
G1 X71.126 Y33.405 E3.2174
G1 X71.034 Y32.631 E3.2482
G1 X71.092 Y32.123 E3.2684
G92 E0.0000
G1 E-1.0000 F2400
; feature outer perimeter
G1 X73.448 Y32.655 F9000
G1 E0.0000 F2400
G92 E0.0000
G1 X73.467 Y32.578 E0.0031 F504
G1 X73.501 Y32.507 E0.0062
G1 X73.545 Y32.449 E0.0091
G1 X73.647 Y32.370 E0.0142
G1 X73.714 Y32.342 E0.0171
G1 X73.796 Y32.325 E0.0204
G1 X84.236 Y31.961 E0.4330
G1 X84.860 Y31.919 E0.4577
G1 X85.519 Y31.826 E0.4840
G1 X86.170 Y31.684 E0.5103
G1 X86.808 Y31.493 E0.5366
G1 X87.430 Y31.254 E0.5629
G1 X88.033 Y30.968 E0.5892
G1 X88.651 Y30.613 E0.6174
G1 X89.163 Y30.266 E0.6418
G1 X89.661 Y29.873 E0.6669
G1 X90.175 Y29.400 E0.6944
G1 X90.629 Y28.913 E0.7208
G1 X91.045 Y28.392 E0.7471
G1 X91.420 Y27.842 E0.7734
G1 X91.770 Y27.230 E0.8012
G1 X92.077 Y26.574 E0.8298
G1 X92.282 Y26.043 E0.8523
G1 X92.443 Y25.519 E0.8740
G1 X92.621 Y24.757 E0.9049
G1 X92.748 Y23.902 E0.9390
G1 X92.798 Y23.714 E0.9467
G1 X92.868 Y23.532 E0.9544
G1 X92.956 Y23.357 E0.9621
G1 X93.061 Y23.193 E0.9698
G1 X93.182 Y23.040 E0.9775
G1 X93.319 Y22.901 E0.9853
G1 X93.469 Y22.776 E0.9930
G1 X93.632 Y22.667 E1.0007
G1 X93.800 Y22.578 E1.0082
G1 X94.130 Y22.461 E1.0220
G1 X94.367 Y22.413 E1.0316
G1 X94.560 Y22.399 E1.0392
G1 X94.755 Y22.404 E1.0469
G1 X94.949 Y22.429 E1.0547
G1 X95.139 Y22.474 E1.0624
G1 X95.323 Y22.539 E1.0701
G1 X95.500 Y22.622 E1.0778
G1 X95.668 Y22.722 E1.0855
G1 X95.824 Y22.839 E1.0932
G1 X95.967 Y22.972 E1.1009
G1 X96.096 Y23.119 E1.1087
G1 X96.207 Y23.274 E1.1162
G1 X96.365 Y23.586 E1.1300
G1 X96.444 Y23.815 E1.1396
G1 X96.483 Y24.004 E1.1472
G1 X96.504 Y24.204 E1.1551
G1 X96.669 Y27.354 E1.2797
G1 X96.652 Y27.717 E1.2941
G1 X96.567 Y28.059 E1.3080
G1 X96.416 Y28.383 E1.3221
G1 X96.323 Y28.522 E1.3287
G1 X95.327 Y29.643 E1.3879
G1 X95.191 Y29.810 E1.3965
G1 X95.067 Y29.998 E1.4053
G1 X94.887 Y30.387 E1.4223
G1 X94.824 Y30.604 E1.4312
G1 X94.778 Y30.942 E1.4447
G1 X94.822 Y31.147 E1.4530
G1 X94.887 Y31.277 E1.4587
G1 X94.976 Y31.392 E1.4644
G1 X95.139 Y31.517 E1.4726
G1 X95.327 Y31.587 E1.4805
G1 X95.636 Y31.634 E1.4928
G1 X95.910 Y31.700 E1.5040
G1 X96.175 Y31.794 E1.5151
G1 X96.430 Y31.914 E1.5262
G1 X96.671 Y32.059 E1.5373
G1 X96.896 Y32.227 E1.5484
G1 X97.104 Y32.417 E1.5595
G1 X97.291 Y32.627 E1.5706
G1 X97.456 Y32.855 E1.5817
G1 X97.598 Y33.098 E1.5928
G1 X97.714 Y33.353 E1.6039
G1 X97.804 Y33.620 E1.6151
G1 X97.867 Y33.894 E1.6262
G1 X97.903 Y34.175 E1.6373
G1 X97.933 Y34.759 E1.6604
G1 X97.921 Y35.092 E1.6736
G1 X97.842 Y35.536 E1.6914
G1 X97.758 Y35.801 E1.7024
G1 X97.677 Y35.996 E1.7107
G1 X97.454 Y36.393 E1.7287
G1 X97.345 Y36.543 E1.7361
G1 X97.157 Y36.761 E1.7474
G1 X96.949 Y36.958 E1.7587
G1 X96.808 Y37.069 E1.7658
G1 X96.531 Y37.252 E1.7789
G1 X96.277 Y37.381 E1.7902
G1 X95.969 Y37.498 E1.8032
G1 X95.679 Y37.572 E1.8150
G1 X95.398 Y37.613 E1.8262
G1 X95.113 Y37.625 E1.8375
G1 X94.828 Y37.609 E1.8488
G1 X94.541 Y37.562 E1.8602
G1 X73.766 Y33.088 E2.6996
G1 X73.616 Y33.026 E2.7060
G1 X73.531 Y32.949 E2.7105
G1 X73.472 Y32.848 E2.7152
G1 X73.445 Y32.728 F504
G1 X73.448 Y32.655
G92 E0.0000
G1 X73.467 Y32.578 E-0.3749 F504
G1 X73.501 Y32.507 E-0.7496
G1 X73.533 Y32.466 E-1.0000
G1 X73.545 Y32.449 F504
G1 X73.647 Y32.370
G1 X73.714 Y32.342
G1 X73.796 Y32.325
G1 X75.279 Y32.274
G1 X94.026 Y34.170 F9000
G1 E0.0000 F2400
G92 E0.0000
G1 X94.038 Y34.406 E0.0093 F504
G1 X94.098 Y34.628 E0.0184
G1 X94.202 Y34.833 E0.0275
G1 X94.347 Y35.012 E0.0366
G1 X94.526 Y35.157 E0.0457
G1 X94.731 Y35.261 E0.0548
G1 X94.953 Y35.321 E0.0639
G1 X95.183 Y35.333 E0.0729
G1 X95.411 Y35.297 E0.0820
G1 X95.631 Y35.213 E0.0913
G1 X95.901 Y35.016 E0.1045
G1 X96.049 Y34.833 E0.1138
G1 X96.154 Y34.628 E0.1229
G1 X96.213 Y34.406 E0.1320
G1 X96.226 Y34.171 E0.1413
G1 X96.156 Y33.844 E0.1545
G1 X96.049 Y33.634 E0.1638
G1 X95.901 Y33.451 E0.1731
G1 X95.626 Y33.251 E0.1865
G1 X95.304 Y33.146 E0.2000
G1 X95.068 Y33.134 E0.2093
G1 X94.841 Y33.170 E0.2183
G1 X94.621 Y33.254 E0.2276
G1 X94.351 Y33.451 E0.2409
G1 X94.202 Y33.634 E0.2502
G1 X94.096 Y33.844 E0.2595
G1 X94.068 Y33.975 E0.2648
G1 X94.026 Y34.170 F504
G92 E0.0000
G1 X94.037 Y34.380 E-1.0000 F504
G1 X94.038 Y34.406 F504
G1 X94.098 Y34.628
G1 X94.202 Y34.833
G1 X94.347 Y35.012
G1 X94.526 Y35.157
G1 X94.731 Y35.261
G1 X94.953 Y35.321
G1 X95.183 Y35.333
G1 X95.335 Y35.309
G1 X93.657 Y24.248 F9000
G1 E0.0000 F2400
G92 E0.0000
G1 X93.667 Y24.446 E0.0079 F504
G1 X93.718 Y24.639 E0.0157
G1 X93.811 Y24.820 E0.0238
G1 X94.003 Y25.034 E0.0351
G1 X94.174 Y25.145 E0.0432
G1 X94.365 Y25.218 E0.0512
G1 X94.651 Y25.248 E0.0626
G1 X94.852 Y25.216 E0.0707
G1 X95.038 Y25.145 E0.0785
G1 X95.205 Y25.037 E0.0864
G1 X95.345 Y24.896 E0.0942
G1 X95.454 Y24.730 E0.1021
G1 X95.527 Y24.539 E0.1101
G1 X95.557 Y24.253 E0.1215
G1 X95.525 Y24.052 E0.1295
G1 X95.454 Y23.866 E0.1374
G1 X95.346 Y23.699 E0.1452
G1 X95.201 Y23.555 E0.1533
G1 X94.952 Y23.411 E0.1647
G1 X94.755 Y23.358 E0.1727
G1 X94.557 Y23.348 E0.1806
G1 X94.360 Y23.379 E0.1884
G1 X94.169 Y23.452 E0.1965
G1 X93.926 Y23.632 E0.2085
G1 X93.761 Y23.861 E0.2196
G1 X93.688 Y24.051 E0.2277
G1 X93.657 Y24.248 F504
G92 E0.0000
G1 X93.667 Y24.446 E-0.9467 F504
G1 X93.670 Y24.457 E-1.0000
G1 X93.718 Y24.639 F504
G1 X93.811 Y24.820
G1 X94.003 Y25.034
G1 X94.174 Y25.145
G1 X94.365 Y25.218
G1 X94.651 Y25.248
G1 X94.852 Y25.216
G1 X95.038 Y25.145
G1 X95.048 Y25.139
; feature solid layer
G1 X94.775 Y25.593 F9000
G1 E0.0000 F2400
G92 E0.0000
G1 X96.296 Y27.114 E0.0849 F576
G1 X96.264 Y26.517 E0.1085
G1 X95.210 Y25.463 E0.1674
G1 X95.433 Y25.318 E0.1779
G1 X95.532 Y25.219 E0.1835
G1 X96.233 Y25.920 E0.2226
G1 X96.202 Y25.323 E0.2462
G1 X95.775 Y24.896 E0.2701
G1 X95.880 Y24.624 E0.2816
G1 X95.898 Y24.453 E0.2884
G1 X96.171 Y24.726 E0.3036
G1 X96.145 Y24.232 E0.3232
G1 X96.134 Y24.123 E0.3275
G1 X95.958 Y23.948 E0.3373
G1 X95.816 Y23.806 F576
G92 E0.0000
G1 E-1.0000 F2400
G1 X74.298 Y32.834 F9000
G1 E0.0000 F2400
G92 E0.0000
G1 X74.137 Y32.674 E0.0090 F576
G1 X74.683 Y32.655 E0.0306
G1 X75.018 Y32.990 E0.0493
G1 X75.739 Y33.145 E0.0784
G1 X75.230 Y32.635 E0.1069
G1 X75.777 Y32.616 E0.1285
G1 X76.460 Y33.300 E0.1667
G1 X77.181 Y33.455 E0.1958
G1 X76.323 Y32.597 E0.2437
G1 X76.870 Y32.578 E0.2653
G1 X77.902 Y33.611 E0.3230
G1 X78.623 Y33.766 E0.3521
G1 X77.416 Y32.559 E0.4195
G1 X77.963 Y32.540 E0.4411
G1 X79.344 Y33.921 E0.5183
G1 X80.065 Y34.076 E0.5474
G1 X78.510 Y32.521 E0.6343
G1 X79.056 Y32.502 E0.6559
G1 X80.786 Y34.232 E0.7525
G1 X81.507 Y34.387 E0.7816
G1 X79.603 Y32.483 E0.8880
G1 X80.149 Y32.464 E0.9096
G1 X82.228 Y34.542 E1.0257
G1 X82.949 Y34.697 E1.0548
G1 X80.696 Y32.445 E1.1807
G1 X81.243 Y32.425 E1.2023
G1 X83.670 Y34.853 E1.3378
