; G-Code generated by Simplify3D(R) Version 4.1.1
; Jun 7, 2020 at 8:02:29 AM
; Settings Summary
;   processName,Process1
;   applyToModels,Elev R
;   profileName,Generic GCode 3DAeroventures PLA (modified)
;   profileVersion,2020-05-20 12:25:51
;   baseProfile,Prusa Research Original Prusa i3 MK3 (modified)
;   printMaterial,PLA
;   printQuality,Medium
;   printExtruders,
;   extruderName,Primary Extruder
;   extruderToolheadNumber,0
;   extruderDiameter,0.4
;   extruderAutoWidth,0
;   extruderWidth,0.4
;   extrusionMultiplier,0.95
;   extruderUseRetract,1
;   extruderRetractionDistance,1
;   extruderExtraRestartDistance,0
;   extruderRetractionZLift,0
;   extruderRetractionSpeed,2400
;   extruderUseCoasting,1
;   extruderCoastingDistance,0.2
;   extruderUseWipe,1
;   extruderWipeDistance,2
;   primaryExtruder,0
;   layerHeight,0.25
;   topSolidLayers,5
;   bottomSolidLayers,4
;   perimeterOutlines,1
;   printPerimetersInsideOut,0
;   startPointOption,3
;   startPointOriginX,200
;   startPointOriginY,200
;   sequentialIslands,0
;   spiralVaseMode,0
;   firstLayerHeightPercentage,100
;   firstLayerWidthPercentage,100
;   firstLayerUnderspeed,0.3
;   useRaft,0
;   raftExtruder,0
;   raftTopLayers,3
;   raftBaseLayers,2
;   raftOffset,3
;   raftSeparationDistance,0.14
;   raftTopInfill,100
;   aboveRaftSpeedMultiplier,0.3
;   useSkirt,1
;   skirtExtruder,0
;   skirtLayers,1
;   skirtOutlines,1
;   skirtOffset,2
;   usePrimePillar,0
;   primePillarExtruder,999
;   primePillarWidth,12
;   primePillarLocation,7
;   primePillarSpeedMultiplier,1
;   useOozeShield,0
;   oozeShieldExtruder,999
;   oozeShieldOffset,2
;   oozeShieldOutlines,1
;   oozeShieldSidewallShape,1
;   oozeShieldSidewallAngle,30
;   oozeShieldSpeedMultiplier,1
;   infillExtruder,0
;   internalInfillPattern,Rectilinear
;   externalInfillPattern,Rectilinear
;   infillPercentage,0
;   outlineOverlapPercentage,10
;   infillExtrusionWidthPercentage,100
;   minInfillLength,5
;   infillLayerInterval,1
;   internalInfillAngles,45,-45
;   overlapInternalInfillAngles,0
;   externalInfillAngles,45,-45
;   generateSupport,0
;   supportExtruder,0
;   supportInfillPercentage,30
;   supportExtraInflation,0
;   supportBaseLayers,2
;   denseSupportExtruder,0
;   denseSupportLayers,3
;   denseSupportInfillPercentage,70
;   supportLayerInterval,1
;   supportHorizontalPartOffset,0.8
;   supportUpperSeparationLayers,1
;   supportLowerSeparationLayers,1
;   supportType,0
;   supportGridSpacing,4
;   maxOverhangAngle,45
;   supportAngles,0
;   temperatureName,Primary Extruder,Heated Bed
;   temperatureNumber,0,0
;   temperatureSetpointCount,1,1
;   temperatureSetpointLayers,1,1
;   temperatureSetpointTemperatures,220,70
;   temperatureStabilizeAtStartup,1,1
;   temperatureHeatedBed,0,1
;   fanLayers,1,2
;   fanSpeeds,0,30
;   blipFanToFullPower,1
;   adjustSpeedForCooling,1
;   minSpeedLayerTime,15
;   minCoolingSpeedSlowdown,10
;   increaseFanForCooling,0
;   minFanLayerTime,45
;   maxCoolingFanSpeed,100
;   increaseFanForBridging,0
;   bridgingFanSpeed,100
;   use5D,1
;   relativeEdistances,0
;   allowEaxisZeroing,1
;   independentExtruderAxes,0
;   includeM10123,0
;   stickySupport,1
;   applyToolheadOffsets,0
;   gcodeXoffset,0
;   gcodeYoffset,0
;   gcodeZoffset,0
;   overrideMachineDefinition,1
;   machineTypeOverride,0
;   strokeXoverride,180
;   strokeYoverride,180
;   strokeZoverride,180
;   originOffsetXoverride,0
;   originOffsetYoverride,0
;   originOffsetZoverride,0
;   homeXdirOverride,-1
;   homeYdirOverride,-1
;   homeZdirOverride,-1
;   flipXoverride,1
;   flipYoverride,-1
;   flipZoverride,1
;   toolheadOffsets,0,0|0,0|0,0|0,0|0,0|0,0
;   overrideFirmwareConfiguration,0
;   firmwareTypeOverride,RepRap (Marlin/Repetier/Sprinter)
;   GPXconfigOverride,r2
;   baudRateOverride,115200
;   overridePrinterModels,1
;   printerModelsOverride
;   startingGcode,G28
;   layerChangeGcode,
;   retractionGcode,
;   toolChangeGcode,
;   endingGcode,M104 S0 ; turn off extruder,M140 S0 ; turn off bed,G28 X0 ; home X axis,M84 ; disable motors,M107 ; turn off fan
;   exportFileFormat,gcode
;   celebration,0
;   celebrationSong,Funky Town
;   postProcessing,
;   defaultSpeed,3600
;   outlineUnderspeed,0.7
;   solidInfillUnderspeed,0.8
;   supportUnderspeed,0.8
;   rapidXYspeed,9000
;   rapidZspeed,1002
;   minBridgingArea,5
;   bridgingExtraInflation,0
;   bridgingExtrusionMultiplier,1
;   bridgingSpeedMultiplier,0.3
;   useFixedBridgingAngle,0
;   fixedBridgingAngle,0
;   applyBridgingToPerimeters,0
;   filamentDiameters,1.75|1.75|1.75|1.75|1.75|1.75
;   filamentPricesPerKg,26|46|46|46|46|46
;   filamentDensities,1.25|1.25|1.25|1.25|1.25|1.25
;   useMinPrintHeight,0
;   minPrintHeight,78
;   useMaxPrintHeight,0
;   maxPrintHeight,106
;   useDiaphragm,0
;   diaphragmLayerInterval,20
;   robustSlicing,1
;   mergeAllIntoSolid,0
;   onlyRetractWhenCrossingOutline,0
;   retractBetweenLayers,0
;   useRetractionMinTravel,0
;   retractionMinTravel,3
;   retractWhileWiping,1
;   onlyWipeOutlines,1
;   avoidCrossingOutline,0
;   maxMovementDetourFactor,3
;   toolChangeRetractionDistance,0
;   toolChangeExtraRestartDistance,0
;   toolChangeRetractionSpeed,360
;   externalThinWallType,0
;   internalThinWallType,1
;   thinWallAllowedOverlapPercentage,10
;   singleExtrusionMinLength,1
;   singleExtrusionMinPrintingWidthPercentage,50
;   singleExtrusionMaxPrintingWidthPercentage,100
;   singleExtrusionEndpointExtension,0
;   horizontalSizeCompensation,0
G90
M82
M106 S0
M140 S70
M190 S70
M104 S220 T0
M109 S220 T0
G28
; process Process1
; layer 1, Z = 0.250
T0
G92 E0.0000
G1 E-1.0000 F2400
; feature skirt
; tool H0.250 W0.400
G1 Z0.250 F1002
G1 X102.847 Y36.192 F9000
G1 E0.0000 F2400
G92 E0.0000
G1 X102.135 Y36.465 E0.0301 F1080
G1 X101.738 Y36.539 E0.0461
G1 X77.029 Y36.539 E1.0220
G1 X76.914 Y36.533 E1.0265
G1 X76.202 Y36.458 E1.0548
G1 X75.977 Y36.410 E1.0639
G1 X75.269 Y36.180 E1.0933
G1 X75.109 Y36.114 E1.1002
G1 X74.713 Y35.912 E1.1177
G1 X74.565 Y35.822 E1.1245
G1 X73.970 Y35.389 E1.1536
G1 X73.809 Y35.247 E1.1621
G1 X73.397 Y34.803 E1.1860
G1 X73.301 Y34.683 E1.1921
G1 X72.973 Y34.212 E1.2147
G1 X72.871 Y34.031 E1.2230
G1 X72.561 Y33.334 E1.2531
G1 X72.489 Y33.115 E1.2622
G1 X72.329 Y32.360 E1.2927
G1 X72.305 Y32.132 E1.3017
G1 X72.303 Y31.330 E1.3334
G1 X72.326 Y31.107 E1.3423
G1 X72.476 Y30.375 E1.3718
G1 X72.542 Y30.163 E1.3806
G1 X72.836 Y29.477 E1.4100
G1 X72.943 Y29.282 E1.4188
G1 X73.369 Y28.669 E1.4483
G1 X73.513 Y28.499 E1.4571
G1 X74.053 Y27.984 E1.4866
G1 X74.229 Y27.847 E1.4954
G1 X74.861 Y27.451 E1.5248
G1 X75.060 Y27.352 E1.5336
G1 X75.759 Y27.090 E1.5631
G1 X75.974 Y27.034 E1.5719
G1 X76.684 Y26.922 E1.6003
G1 X76.850 Y26.909 E1.6069
G1 X77.285 Y26.907 E1.6240
G1 X77.463 Y26.920 E1.6311
G1 X82.343 Y27.694 E1.8262
G1 X82.367 Y27.698 E1.8272
G1 X84.687 Y28.120 E1.9203
G1 X84.703 Y28.122 E1.9209
G1 X89.153 Y28.996 E2.1001
G1 X89.172 Y29.000 E2.1008
G1 X102.242 Y31.806 E2.6288
G1 X102.617 Y31.962 E2.6448
G1 X103.256 Y32.381 E2.6750
G1 X103.732 Y33.041 E2.7072
G1 X103.981 Y33.976 E2.7454
G1 X103.894 Y34.786 E2.7776
G1 X103.453 Y35.648 E2.8158
G1 X102.847 Y36.192 E2.8480
G92 E0.0000
G1 E-1.0000 F2400
; feature outer perimeter
G1 X101.543 Y34.132 F9000
G1 E0.0000 F2400
G92 E0.0000
G1 X101.535 Y34.137 E0.0004 F756
G1 X101.521 Y34.139 E0.0009
G1 X77.092 Y34.139 E0.9658
G1 X76.836 Y34.126 E0.9759
G1 X76.588 Y34.086 E0.9858
G1 X76.346 Y34.021 E0.9957
G1 X76.112 Y33.932 E1.0056
G1 X75.889 Y33.818 E1.0155
G1 X75.777 Y33.745 E1.0208
G1 X75.481 Y33.521 E1.0354
G1 X75.306 Y33.346 E1.0452
G1 X75.222 Y33.242 E1.0505
G1 X75.010 Y32.938 E1.0652
G1 X74.898 Y32.717 E1.0749
G1 X74.808 Y32.483 E1.0848
G1 X74.743 Y32.241 E1.0947
G1 X74.704 Y31.998 E1.1044
G1 X74.704 Y31.454 E1.1259
G1 X74.739 Y31.220 E1.1353
G1 X74.800 Y30.985 E1.1449
G1 X74.884 Y30.758 E1.1544
G1 X74.990 Y30.541 E1.1640
G1 X75.118 Y30.335 E1.1735
G1 X75.265 Y30.144 E1.1831
G1 X75.432 Y29.968 E1.1926
G1 X75.615 Y29.810 E1.2022
G1 X75.813 Y29.671 E1.2118
G1 X76.024 Y29.553 E1.2213
G1 X76.247 Y29.457 E1.2309
G1 X76.477 Y29.383 E1.2404
G1 X76.714 Y29.334 E1.2500
G1 X76.955 Y29.308 E1.2596
G1 X77.197 Y29.307 E1.2691
G1 X77.442 Y29.331 E1.2788
G1 X79.808 Y29.699 E1.3734
G1 X81.951 Y30.062 E1.4593
G1 X84.249 Y30.479 E1.5515
G1 X88.680 Y31.349 E1.7299
G1 X94.458 Y32.570 E1.9631
G1 X101.368 Y34.072 E2.2424
G1 X101.519 Y34.105 F756
G1 X101.546 Y34.118
G1 X101.547 Y34.127
G1 X101.543 Y34.132
G92 E0.0000
G1 X101.535 Y34.137 E-0.0309 F756
G1 X101.521 Y34.139 E-0.0763
G1 X101.230 Y34.139 E-1.0000
G1 X99.545 Y34.139 F756
G1 X77.614 Y32.622 F9000
G1 E0.0000 F2400
G92 E0.0000
G1 X77.789 Y32.465 E0.0093 F756
G1 X77.925 Y32.279 E0.0184
G1 X78.018 Y32.068 E0.0275
G1 X78.066 Y31.843 E0.0366
G1 X78.066 Y31.613 E0.0457
G1 X78.018 Y31.388 E0.0548
G1 X77.925 Y31.178 E0.0639
G1 X77.789 Y30.991 E0.0729
G1 X77.618 Y30.837 E0.0820
G1 X77.414 Y30.720 E0.0913
G1 X77.091 Y30.633 E0.1045
G1 X76.856 Y30.633 E0.1138
G1 X76.631 Y30.681 E0.1229
G1 X76.420 Y30.774 E0.1320
G1 X76.234 Y30.910 E0.1411
G1 X76.080 Y31.081 E0.1502
G1 X75.962 Y31.285 E0.1595
G1 X75.877 Y31.603 E0.1725
G1 X75.870 Y31.739 E0.1779
G1 X75.922 Y32.063 E0.1909
G1 X76.017 Y32.279 E0.2002
G1 X76.153 Y32.465 E0.2093
G1 X76.324 Y32.619 E0.2184
G1 X76.528 Y32.737 E0.2277
G1 X76.851 Y32.823 E0.2409
G1 X77.086 Y32.823 E0.2502
G1 X77.316 Y32.774 E0.2595
G1 X77.436 Y32.713 E0.2648
G1 X77.614 Y32.622 F756
G92 E0.0000
G1 X77.789 Y32.465 E-0.7477 F756
G1 X77.836 Y32.401 E-1.0000
G1 X77.925 Y32.279 F756
G1 X78.018 Y32.068
G1 X78.066 Y31.843
G1 X78.066 Y31.613
G1 X78.018 Y31.388
G1 X77.925 Y31.178
G1 X77.789 Y30.991
G1 X77.675 Y30.889
; feature solid layer
G1 X98.034 Y33.716 F9000
G1 E0.0000 F2400
G92 E0.0000
G1 X98.098 Y33.779 E0.0035 F864
G1 X97.532 Y33.779 E0.0259
G1 X97.311 Y33.559 E0.0382
G1 X96.589 Y33.401 E0.0674
G1 X96.966 Y33.779 E0.0885
G1 X96.401 Y33.779 E0.1108
G1 X95.866 Y33.244 E0.1407
G1 X95.143 Y33.087 E0.1699
G1 X95.835 Y33.779 E0.2086
G1 X95.269 Y33.779 E0.2309
G1 X94.420 Y32.930 E0.2784
G1 X94.384 Y32.922 E0.2798
G1 X93.702 Y32.778 E0.3073
G1 X94.703 Y33.779 E0.3633
G1 X94.138 Y33.779 E0.3856
G1 X92.985 Y32.626 E0.4500
G1 X92.268 Y32.475 E0.4789
G1 X93.572 Y33.779 E0.5518
G1 X93.006 Y33.779 E0.5741
G1 X91.551 Y32.323 E0.6554
G1 X90.834 Y32.172 E0.6844
G1 X92.441 Y33.779 E0.7742
G1 X91.875 Y33.779 E0.7965
G1 X90.116 Y32.020 E0.8947
G1 X89.399 Y31.869 E0.9237
G1 X91.309 Y33.779 E1.0304
G1 X90.744 Y33.779 E1.0527
G1 X88.682 Y31.717 E1.1679
G1 X88.608 Y31.702 E1.1709
G1 X87.977 Y31.578 E1.1963
G1 X90.178 Y33.779 E1.3192
G1 X89.612 Y33.779 E1.3416
G1 X87.273 Y31.440 E1.4722
G1 X86.569 Y31.302 E1.5005
G1 X89.047 Y33.779 E1.6389
G1 X88.481 Y33.779 E1.6613
G1 X85.865 Y31.163 E1.8074
G1 X85.161 Y31.025 E1.8357
G1 X87.915 Y33.779 E1.9895
G1 X87.350 Y33.779 E2.0119
G1 X84.458 Y30.887 E2.1734
G1 X84.183 Y30.833 E2.1844
G1 X83.762 Y30.757 E2.2014
G1 X86.784 Y33.779 E2.3702
G1 X86.218 Y33.779 E2.3925
G1 X83.070 Y30.631 E2.5683
G1 X82.379 Y30.506 E2.5961
G1 X85.652 Y33.779 E2.7789
G1 X85.087 Y33.779 E2.8012
G1 X81.691 Y30.383 E2.9909
G1 X81.010 Y30.268 E3.0182
G1 X84.521 Y33.779 E3.2143
G1 X83.955 Y33.779 E3.2366
G1 X80.329 Y30.153 E3.4392
G1 X79.750 Y30.055 E3.4624
G1 X79.650 Y30.039 E3.4664
G1 X83.390 Y33.779 E3.6753
G1 X82.824 Y33.779 E3.6976
G1 X78.980 Y29.935 E3.9123
G1 X78.310 Y29.830 E3.9391
G1 X82.258 Y33.779 E4.1597
G1 X81.693 Y33.779 E4.1820
G1 X77.640 Y29.726 E4.4084
G1 X77.397 Y29.688 E4.4181
G1 X77.180 Y29.667 E4.4267
G1 X77.016 Y29.668 E4.4332
G1 X81.127 Y33.779 E4.6628
G1 X80.561 Y33.779 E4.6851
G1 X78.426 Y31.644 E4.8044
G1 X78.426 Y31.575 E4.8071
G1 X78.362 Y31.276 E4.8192
G1 X78.238 Y30.997 E4.8313
G1 X78.058 Y30.749 E4.8434
G1 X77.831 Y30.544 E4.8554
G1 X77.553 Y30.384 E4.8681
G1 X77.139 Y30.273 E4.8850
G1 X77.055 Y30.273 E4.8883
G1 X76.528 Y29.745 E4.9178
G1 X76.373 Y29.794 E4.9242
G1 X76.184 Y29.876 E4.9324
G1 X76.126 Y29.909 E4.9350
G1 X76.547 Y30.331 E4.9586
G1 X76.519 Y30.337 E4.9597
G1 X76.239 Y30.461 E4.9718
G1 X76.166 Y30.515 E4.9754
G1 X75.787 Y30.136 E4.9965
G1 X75.681 Y30.229 E5.0021
G1 X75.539 Y30.378 E5.0102
G1 X75.506 Y30.421 E5.0124
G1 X75.866 Y30.781 E5.0324
G1 X75.787 Y30.868 E5.0371
G1 X75.641 Y31.121 E5.0486
G1 X75.282 Y30.763 E5.0687
G1 X75.215 Y30.900 E5.0747
G1 X75.144 Y31.093 E5.0829
G1 X75.124 Y31.170 E5.0860
G1 X75.519 Y31.565 E5.1080
G1 X75.509 Y31.758 E5.1157
G1 X75.573 Y32.167 E5.1320
G1 X75.588 Y32.200 E5.1335
G1 X75.064 Y31.676 E5.1628
G1 X75.064 Y31.969 E5.1744
G1 X75.096 Y32.166 E5.1822
G1 X75.135 Y32.312 E5.1882
G1 X76.517 Y33.694 E5.2654
G1 X76.663 Y33.734 E5.2714
G1 X76.874 Y33.767 E5.2798
G1 X77.101 Y33.779 E5.2888
G1 X77.167 Y33.779 E5.2914
G1 X76.487 Y33.098 E5.3294
G1 X76.803 Y33.183 E5.3424
G1 X77.124 Y33.183 E5.3551
G1 X77.135 Y33.181 E5.3555
G1 X77.733 Y33.779 E5.3889
G1 X78.299 Y33.779 E5.4112
G1 X77.569 Y33.049 E5.4520
G1 X77.820 Y32.922 E5.4631
G1 X77.918 Y32.833 E5.4683
G1 X78.864 Y33.779 E5.5212
G1 X79.430 Y33.779 E5.5435
G1 X78.184 Y32.533 E5.6131
G1 X78.238 Y32.460 E5.6167
G1 X78.362 Y32.180 E5.6288
G1 X78.369 Y32.152 E5.6299
G1 X79.854 Y33.638 E5.7129
G1 X79.996 Y33.779 F864
G92 E0.0000
G1 E-1.0000 F2400
; layer 2, Z = 0.500
M106 S255
G4 P500
M106 S77
; feature outer perimeter
G1 Z0.500 F1002
G1 X101.612 Y34.294 F9000
G1 E0.0000 F2400
G92 E0.0000
G1 X101.515 Y34.314 E0.0039 F852
G1 X77.092 Y34.314 E0.9685
G1 X76.819 Y34.300 E0.9793
G1 X76.552 Y34.257 E0.9900
G1 X76.292 Y34.188 E1.0006
G1 X76.041 Y34.091 E1.0112
G1 X75.801 Y33.969 E1.0219
G1 X75.575 Y33.823 E1.0325
G1 X75.366 Y33.653 E1.0431
G1 X75.176 Y33.463 E1.0538
G1 X75.007 Y33.254 E1.0644
G1 X74.860 Y33.028 E1.0750
G1 X74.738 Y32.788 E1.0857
G1 X74.641 Y32.537 E1.0963
G1 X74.572 Y32.277 E1.1069
G1 X74.530 Y32.012 E1.1175
G1 X74.516 Y31.701 E1.1298
G1 X74.529 Y31.441 E1.1401
G1 X74.568 Y31.185 E1.1503
G1 X74.633 Y30.933 E1.1606
G1 X74.723 Y30.690 E1.1708
G1 X74.837 Y30.456 E1.1811
G1 X74.974 Y30.236 E1.1914
G1 X75.132 Y30.030 E1.2016
G1 X75.311 Y29.841 E1.2119
G1 X75.508 Y29.672 E1.2221
G1 X75.720 Y29.523 E1.2324
G1 X75.947 Y29.396 E1.2426
G1 X76.185 Y29.293 E1.2529
G1 X76.433 Y29.214 E1.2632
G1 X76.687 Y29.161 E1.2734
G1 X76.945 Y29.134 E1.2837
G1 X77.205 Y29.132 E1.2939
G1 X77.468 Y29.158 E1.3044
G1 X79.725 Y29.509 E1.3946
G1 X81.981 Y29.890 E1.4850
G1 X84.070 Y30.268 E1.5688
G1 X86.197 Y30.674 E1.6543
G1 X89.908 Y31.423 E1.8039
G1 X94.010 Y32.294 E1.9695
G1 X101.561 Y33.935 E2.2747
G1 X101.630 Y33.962 E2.2776
G1 X101.676 Y33.999 E2.2799
G1 X101.705 Y34.044 E2.2820
G1 X101.722 Y34.125 E2.2853
G1 X101.719 Y34.137 E2.2858
G1 X101.704 Y34.205 F852
G1 X101.678 Y34.245
G1 X101.612 Y34.294
G92 E0.0000
G1 X101.515 Y34.314 E-0.2772 F852
G1 X101.259 Y34.314 E-1.0000
G1 X99.614 Y34.314 F852
G1 X77.618 Y32.619 F9000
G1 E0.0000 F2400
G92 E0.0000
G1 X77.793 Y32.461 E0.0093 F852
G1 X77.975 Y32.181 E0.0225
G1 X78.048 Y31.957 E0.0318
G1 X78.072 Y31.728 E0.0409
G1 X78.048 Y31.499 E0.0500
G1 X77.975 Y31.275 E0.0593
G1 X77.793 Y30.995 E0.0725
G1 X77.618 Y30.837 E0.0818
G1 X77.419 Y30.722 E0.0909
G1 X77.200 Y30.651 E0.1000
G1 X76.966 Y30.626 E0.1093
G1 X76.636 Y30.679 E0.1225
G1 X76.420 Y30.774 E0.1318
G1 X76.234 Y30.910 E0.1409
G1 X76.080 Y31.081 E0.1500
G1 X75.965 Y31.280 E0.1591
G1 X75.896 Y31.494 E0.1679
G1 X75.875 Y31.625 E0.1732
G1 X75.892 Y31.952 E0.1861
G1 X75.965 Y32.176 E0.1954
G1 X76.080 Y32.375 E0.2045
G1 X76.234 Y32.546 E0.2136
G1 X76.420 Y32.682 E0.2227
G1 X76.636 Y32.777 E0.2320
