; G-Code generated by Simplify3D(R) Version 4.1.1
; May 29, 2020 at 9:14:36 AM
; Settings Summary
;   processName,Process1
;   applyToModels,Bush Tire - TPE
;   profileName,3DAeroventures 95A TPE Profile
;   profileVersion,2020-05-29 09:08:16
;   baseProfile,Prusa Research Original Prusa i3 MK3(2)
;   printMaterial,PolyFlex
;   printQuality,Medium
;   printExtruders,
;   extruderName,Primary Extruder
;   extruderToolheadNumber,0
;   extruderDiameter,0.4
;   extruderAutoWidth,0
;   extruderWidth,0.4
;   extrusionMultiplier,1
;   extruderUseRetract,0
;   extruderRetractionDistance,3.9
;   extruderExtraRestartDistance,0
;   extruderRetractionZLift,0.04
;   extruderRetractionSpeed,2400
;   extruderUseCoasting,0
;   extruderCoastingDistance,2
;   extruderUseWipe,0
;   extruderWipeDistance,2
;   primaryExtruder,0
;   layerHeight,0.2
;   topSolidLayers,4
;   bottomSolidLayers,3
;   perimeterOutlines,2
;   printPerimetersInsideOut,1
;   startPointOption,2
;   startPointOriginX,0
;   startPointOriginY,0
;   sequentialIslands,0
;   spiralVaseMode,0
;   firstLayerHeightPercentage,150
;   firstLayerWidthPercentage,100
;   firstLayerUnderspeed,0.5
;   useRaft,0
;   raftExtruder,0
;   raftTopLayers,3
;   raftBaseLayers,2
;   raftOffset,3
;   raftSeparationDistance,0.14
;   raftTopInfill,100
;   aboveRaftSpeedMultiplier,0.3
;   useSkirt,1
;   skirtExtruder,0
;   skirtLayers,1
;   skirtOutlines,2
;   skirtOffset,4
;   usePrimePillar,0
;   primePillarExtruder,999
;   primePillarWidth,12
;   primePillarLocation,7
;   primePillarSpeedMultiplier,1
;   useOozeShield,0
;   oozeShieldExtruder,999
;   oozeShieldOffset,2
;   oozeShieldOutlines,1
;   oozeShieldSidewallShape,1
;   oozeShieldSidewallAngle,30
;   oozeShieldSpeedMultiplier,1
;   infillExtruder,0
;   internalInfillPattern,Rectilinear
;   externalInfillPattern,Rectilinear
;   infillPercentage,10
;   outlineOverlapPercentage,50
;   infillExtrusionWidthPercentage,100
;   minInfillLength,1
;   infillLayerInterval,1
;   internalInfillAngles,45,-45
;   overlapInternalInfillAngles,0
;   externalInfillAngles,45,-45
;   generateSupport,0
;   supportExtruder,0
;   supportInfillPercentage,30
;   supportExtraInflation,0
;   supportBaseLayers,1
;   denseSupportExtruder,0
;   denseSupportLayers,0
;   denseSupportInfillPercentage,70
;   supportLayerInterval,1
;   supportHorizontalPartOffset,0.3
;   supportUpperSeparationLayers,1
;   supportLowerSeparationLayers,1
;   supportType,0
;   supportGridSpacing,4
;   maxOverhangAngle,45
;   supportAngles,0
;   temperatureName,Primary Extruder,Heated Bed
;   temperatureNumber,0,0
;   temperatureSetpointCount,1,1
;   temperatureSetpointLayers,1,1
;   temperatureSetpointTemperatures,230,40
;   temperatureStabilizeAtStartup,1,1
;   temperatureHeatedBed,0,1
;   fanLayers,1
;   fanSpeeds,50
;   blipFanToFullPower,0
;   adjustSpeedForCooling,1
;   minSpeedLayerTime,10
;   minCoolingSpeedSlowdown,10
;   increaseFanForCooling,0
;   minFanLayerTime,45
;   maxCoolingFanSpeed,100
;   increaseFanForBridging,0
;   bridgingFanSpeed,100
;   use5D,1
;   relativeEdistances,0
;   allowEaxisZeroing,1
;   independentExtruderAxes,0
;   includeM10123,0
;   stickySupport,1
;   applyToolheadOffsets,0
;   gcodeXoffset,0
;   gcodeYoffset,0
;   gcodeZoffset,0
;   overrideMachineDefinition,1
;   machineTypeOverride,0
;   strokeXoverride,180
;   strokeYoverride,180
;   strokeZoverride,180
;   originOffsetXoverride,0
;   originOffsetYoverride,0
;   originOffsetZoverride,0
;   homeXdirOverride,-1
;   homeYdirOverride,-1
;   homeZdirOverride,-1
;   flipXoverride,1
;   flipYoverride,-1
;   flipZoverride,1
;   toolheadOffsets,0,0|0,0|0,0|0,0|0,0|0,0
;   overrideFirmwareConfiguration,0
;   firmwareTypeOverride,RepRap (Marlin/Repetier/Sprinter)
;   GPXconfigOverride,r2
;   baudRateOverride,115200
;   overridePrinterModels,1
;   printerModelsOverride
;   startingGcode,G28
;   layerChangeGcode,
;   retractionGcode,
;   toolChangeGcode,
;   endingGcode,M104 S0 ; turn off extruder,M140 S0 ; turn off bed,G28 X0 ; home X axis,M84 ; disable motors,M107 ; turn off fan
;   exportFileFormat,gcode
;   celebration,0
;   celebrationSong,Funky Town
;   postProcessing,
;   defaultSpeed,1500
;   outlineUnderspeed,1
;   solidInfillUnderspeed,1
;   supportUnderspeed,1
;   rapidXYspeed,7200
;   rapidZspeed,1002
;   minBridgingArea,50
;   bridgingExtraInflation,0
;   bridgingExtrusionMultiplier,0.95
;   bridgingSpeedMultiplier,0.4
;   useFixedBridgingAngle,0
;   fixedBridgingAngle,0
;   applyBridgingToPerimeters,0
;   filamentDiameters,1.75|1.75|1.75|1.75|1.75|1.75
;   filamentPricesPerKg,40|46|46|46|46|46
;   filamentDensities,1.12|1.25|1.25|1.25|1.25|1.25
;   useMinPrintHeight,0
;   minPrintHeight,0
;   useMaxPrintHeight,0
;   maxPrintHeight,0
;   useDiaphragm,0
;   diaphragmLayerInterval,20
;   robustSlicing,1
;   mergeAllIntoSolid,0
;   onlyRetractWhenCrossingOutline,0
;   retractBetweenLayers,0
;   useRetractionMinTravel,0
;   retractionMinTravel,3
;   retractWhileWiping,0
;   onlyWipeOutlines,0
;   avoidCrossingOutline,1
;   maxMovementDetourFactor,999
;   toolChangeRetractionDistance,12
;   toolChangeExtraRestartDistance,-0.5
;   toolChangeRetractionSpeed,600
;   externalThinWallType,0
;   internalThinWallType,1
;   thinWallAllowedOverlapPercentage,20
;   singleExtrusionMinLength,1
;   singleExtrusionMinPrintingWidthPercentage,50
;   singleExtrusionMaxPrintingWidthPercentage,190
;   singleExtrusionEndpointExtension,0.2
;   horizontalSizeCompensation,0
G90
M82
M106 S128
M140 S40
M190 S40
M104 S230 T0
M109 S230 T0
G28
; process Process1
; layer 1, Z = 0.300
T0
; feature skirt
; tool H0.300 W0.400
G1 Z0.300 F1002
G1 X69.803 Y30.812 F7200
G92 E0.0000
G1 X69.858 Y30.697 E0.0063 F750
G1 X70.234 Y29.968 E0.0472
G1 X70.301 Y29.847 E0.0542
G1 X71.055 Y28.576 E0.1279
G1 X71.148 Y28.432 E0.1365
G1 X71.920 Y27.328 E0.2037
G1 X71.995 Y27.227 E0.2099
G1 X72.496 Y26.588 E0.2504
G1 X72.559 Y26.512 E0.2554
G1 X73.079 Y25.904 E0.2953
G1 X73.164 Y25.810 E0.3016
G1 X74.095 Y24.836 E0.3688
G1 X74.218 Y24.717 E0.3773
G1 X75.325 Y23.719 E0.4517
G1 X75.430 Y23.630 E0.4586
G1 X76.062 Y23.126 E0.4989
G1 X76.165 Y23.048 E0.5054
G1 X77.306 Y22.238 E0.5752
G1 X77.454 Y22.142 E0.5840
G1 X78.753 Y21.363 E0.6595
G1 X78.904 Y21.280 E0.6681
G1 X80.108 Y20.675 E0.7353
G1 X80.221 Y20.622 E0.7416
G1 X80.956 Y20.302 E0.7816
G1 X81.084 Y20.250 E0.7885
G1 X82.490 Y19.736 E0.8631
G1 X82.657 Y19.682 E0.8719
G1 X84.002 Y19.303 E0.9417
G1 X84.128 Y19.271 E0.9481
G1 X84.882 Y19.104 E0.9867
G1 X84.973 Y19.086 E0.9913
G1 X85.749 Y18.946 E1.0306
G1 X85.875 Y18.927 E1.0370
G1 X87.214 Y18.762 E1.1043
G1 X87.388 Y18.747 E1.1130
G1 X88.927 Y18.675 E1.1899
G1 X89.061 Y18.672 E1.1966
G1 X89.795 Y18.681 E1.2332
G1 X89.925 Y18.686 E1.2396
G1 X91.341 Y18.782 E1.3105
G1 X91.472 Y18.795 E1.3170
G1 X92.241 Y18.892 E1.3557
G1 X92.371 Y18.912 E1.3623
G1 X93.789 Y19.173 E1.4342
G1 X93.960 Y19.211 E1.4429
G1 X95.354 Y19.580 E1.5149
G1 X95.480 Y19.617 E1.5214
G1 X96.217 Y19.858 E1.5601
G1 X96.341 Y19.902 E1.5667
G1 X97.684 Y20.427 E1.6386
G1 X97.845 Y20.497 E1.6474
G1 X99.145 Y21.123 E1.7193
G1 X99.263 Y21.184 E1.7260
G1 X99.964 Y21.574 E1.7660
G1 X100.076 Y21.640 E1.7725
G1 X101.258 Y22.386 E1.8422
G1 X101.404 Y22.486 E1.8510
G1 X102.619 Y23.390 E1.9266
G1 X102.754 Y23.499 E1.9353
G1 X103.771 Y24.382 E2.0025
G1 X103.864 Y24.467 E2.0087
G1 X104.447 Y25.033 E2.0493
G1 X104.516 Y25.102 E2.0542
G1 X105.066 Y25.683 E2.0941
G1 X105.151 Y25.778 E2.1004
G1 X106.023 Y26.807 E2.1677
G1 X106.132 Y26.945 E2.1765
G1 X107.049 Y28.211 E2.2545
G1 X107.146 Y28.357 E2.2632
G1 X107.852 Y29.506 E2.3305
G1 X107.915 Y29.616 E2.3368
G1 X108.297 Y30.322 E2.3769
G1 X108.359 Y30.445 E2.3838
G1 X108.990 Y31.801 E2.4584
G1 X109.057 Y31.960 E2.4670
G1 X109.532 Y33.221 E2.5342
G1 X109.573 Y33.340 E2.5405
G1 X109.816 Y34.109 E2.5807
G1 X109.842 Y34.198 E2.5853
G1 X110.040 Y34.928 E2.6231
G1 X110.071 Y35.056 E2.6297
G1 X110.369 Y36.467 E2.7016
G1 X110.399 Y36.639 E2.7103
G1 X110.588 Y38.069 E2.7823
G1 X110.602 Y38.199 E2.7888
G1 X110.660 Y38.973 E2.8275
G1 X110.666 Y39.104 E2.8341
G1 X110.692 Y40.546 E2.9060
G1 X110.688 Y40.721 E2.9147
G1 X110.604 Y42.160 E2.9867
G1 X110.592 Y42.291 E2.9932
G1 X110.503 Y43.062 E3.0319
G1 X110.484 Y43.192 E3.0385
G1 X110.236 Y44.612 E3.1104
G1 X110.200 Y44.784 E3.1192
G1 X109.844 Y46.181 E3.1911
G1 X109.808 Y46.307 E3.1977
G1 X109.575 Y47.047 E3.2364
G1 X109.532 Y47.171 E3.2429
G1 X109.020 Y48.519 E3.3149
G1 X108.951 Y48.680 E3.3236
G1 X108.337 Y49.987 E3.3956
G1 X108.276 Y50.108 E3.4024
G1 X107.884 Y50.828 E3.4433
G1 X107.820 Y50.938 E3.4496
G1 X107.111 Y52.085 E3.5169
G1 X107.013 Y52.231 E3.5257
G1 X106.092 Y53.494 E3.6037
G1 X105.984 Y53.632 E3.6124
G1 X105.109 Y54.658 E3.6797
G1 X105.024 Y54.753 E3.6860
G1 X104.477 Y55.327 E3.7256
G1 X104.412 Y55.392 E3.7302
G1 X103.860 Y55.927 E3.7686
G1 X103.764 Y56.015 E3.7750
G1 X102.707 Y56.929 E3.8448
G1 X102.570 Y57.038 E3.8535
G1 X101.366 Y57.928 E3.9282
G1 X101.252 Y58.007 E3.9351
G1 X100.580 Y58.445 E3.9751
G1 X100.473 Y58.510 E3.9814
G1 X99.306 Y59.182 E4.0485
G1 X99.154 Y59.262 E4.0571
G1 X97.788 Y59.917 E4.1327
G1 X97.626 Y59.988 E4.1415
G1 X96.322 Y60.494 E4.2113
G1 X96.200 Y60.537 E4.2178
G1 X95.449 Y60.781 E4.2572
G1 X95.361 Y60.808 E4.2618
G1 X94.617 Y61.017 E4.3003
G1 X94.492 Y61.049 E4.3068
G1 X93.128 Y61.351 E4.3765
G1 X92.957 Y61.382 E4.3851
G1 X91.504 Y61.590 E4.4584
G1 X91.371 Y61.605 E4.4650
G1 X90.592 Y61.671 E4.5040
G1 X90.461 Y61.678 E4.5106
G1 X89.024 Y61.717 E4.5823
G1 X88.849 Y61.715 E4.5910
G1 X87.409 Y61.644 E4.6629
G1 X87.279 Y61.634 E4.6695
G1 X86.507 Y61.552 E4.7082
G1 X86.377 Y61.534 E4.7147
G1 X84.954 Y61.300 E4.7867
G1 X84.783 Y61.265 E4.7954
G1 X83.382 Y60.923 E4.8673
G1 X83.255 Y60.888 E4.8739
G1 X82.532 Y60.667 E4.9116
G1 X82.443 Y60.638 E4.9163
G1 X81.682 Y60.372 E4.9565
G1 X81.565 Y60.327 E4.9628
G1 X80.320 Y59.812 E5.0300
G1 X80.163 Y59.741 E5.0386
G1 X78.810 Y59.059 E5.1142
G1 X78.655 Y58.973 E5.1230
G1 X77.459 Y58.250 E5.1928
G1 X77.350 Y58.180 E5.1992
G1 X76.683 Y57.723 E5.2396
G1 X76.571 Y57.642 E5.2465
G1 X75.393 Y56.728 E5.3208
G1 X75.262 Y56.618 E5.3293
G1 X74.262 Y55.715 E5.3966
G1 X74.170 Y55.628 E5.4029
G1 X73.607 Y55.060 E5.4428
G1 X73.539 Y54.988 E5.4477
G1 X72.993 Y54.388 E5.4882
G1 X72.911 Y54.293 E5.4945
G1 X72.060 Y53.248 E5.5617
G1 X71.955 Y53.110 E5.5704
G1 X71.089 Y51.867 E5.6459
G1 X70.994 Y51.719 E5.6547
G1 X70.285 Y50.513 E5.7245
G1 X70.222 Y50.400 E5.7309
G1 X69.855 Y49.687 E5.7709
G1 X69.798 Y49.567 E5.7776
G1 X69.212 Y48.248 E5.8496
G1 X69.148 Y48.085 E5.8583
G1 X68.664 Y46.725 E5.9304
G1 X68.623 Y46.597 E5.9371
G1 X68.397 Y45.819 E5.9775
G1 X68.365 Y45.696 E5.9838
G1 X68.061 Y44.383 E6.0511
G1 X68.029 Y44.215 E6.0596
G1 X67.800 Y42.735 E6.1343
G1 X67.784 Y42.600 E6.1411
G1 X67.711 Y41.825 E6.1799
G1 X67.702 Y41.694 E6.1865
G1 X67.649 Y40.253 E6.2584
G1 X67.649 Y40.078 E6.2672
G1 X67.706 Y38.634 E6.3392
G1 X67.716 Y38.497 E6.3461
G1 X67.798 Y37.669 E6.3876
G1 X67.814 Y37.544 E6.3939
G1 X68.017 Y36.235 E6.4600
G1 X68.040 Y36.110 E6.4663
G1 X68.208 Y35.319 E6.5067
G1 X68.240 Y35.190 E6.5133
G1 X68.607 Y33.848 E6.5827
G1 X68.660 Y33.679 E6.5916
G1 X69.187 Y32.207 E6.6695
G1 X69.253 Y32.044 E6.6783
G1 X69.803 Y30.812 E6.7457
G1 X70.166 Y30.980 F7200
G92 E0.0000
G1 X70.216 Y30.875 E0.0058 F750
G1 X70.586 Y30.157 E0.0461
G1 X70.648 Y30.046 E0.0524
G1 X71.395 Y28.787 E0.1255
G1 X71.480 Y28.655 E0.1333
G1 X72.245 Y27.562 E0.1999
G1 X72.313 Y27.469 E0.2056
G1 X72.808 Y26.838 E0.2456
G1 X72.865 Y26.768 E0.2501
G1 X73.379 Y26.168 E0.2895
G1 X73.457 Y26.082 E0.2953
G1 X74.379 Y25.118 E0.3619
G1 X74.491 Y25.009 E0.3697
G1 X75.588 Y24.020 E0.4433
G1 X75.684 Y23.939 E0.4496
G1 X76.307 Y23.442 E0.4894
G1 X76.401 Y23.371 E0.4953
G1 X77.531 Y22.569 E0.5644
G1 X77.666 Y22.481 E0.5725
G1 X78.952 Y21.710 E0.6473
G1 X79.090 Y21.634 E0.6551
G1 X80.282 Y21.035 E0.7217
G1 X80.385 Y20.987 E0.7274
G1 X81.110 Y20.671 E0.7668
G1 X81.227 Y20.624 E0.7731
G1 X82.620 Y20.114 E0.8471
G1 X82.772 Y20.065 E0.8551
G1 X84.105 Y19.689 E0.9242
G1 X84.220 Y19.661 E0.9301
G1 X84.965 Y19.495 E0.9681
G1 X85.048 Y19.479 E0.9723
G1 X85.814 Y19.341 E1.0112
G1 X85.929 Y19.323 E1.0170
G1 X87.255 Y19.160 E1.0837
G1 X87.414 Y19.146 E1.0916
G1 X88.940 Y19.075 E1.1678
G1 X89.063 Y19.073 E1.1739
G1 X89.784 Y19.081 E1.2100
G1 X89.903 Y19.085 E1.2159
G1 X91.308 Y19.181 E1.2861
G1 X91.427 Y19.193 E1.2921
G1 X92.186 Y19.288 E1.3302
G1 X92.304 Y19.306 E1.3362
G1 X93.709 Y19.565 E1.4075
G1 X93.865 Y19.600 E1.4155
G1 X95.246 Y19.965 E1.4867
G1 X95.361 Y19.999 E1.4927
G1 X96.088 Y20.236 E1.5309
G1 X96.201 Y20.277 E1.5368
G1 X97.531 Y20.797 E1.6081
G1 X97.678 Y20.860 E1.6161
G1 X98.966 Y21.481 E1.6874
G1 X99.074 Y21.537 E1.6935
G1 X99.765 Y21.921 E1.7329
G1 X99.867 Y21.981 E1.7388
G1 X101.038 Y22.720 E1.8079
G1 X101.171 Y22.811 E1.8160
G1 X102.374 Y23.707 E1.8908
G1 X102.497 Y23.806 E1.8987
G1 X103.505 Y24.681 E1.9652
G1 X103.589 Y24.758 E1.9710
G1 X104.165 Y25.317 E2.0110
G1 X104.229 Y25.381 E2.0155
G1 X104.772 Y25.954 E2.0549
G1 X104.849 Y26.041 E2.0607
G1 X105.713 Y27.060 E2.1274
G1 X105.812 Y27.186 E2.1354
G1 X106.720 Y28.440 E2.2126
G1 X106.809 Y28.573 E2.2206
G1 X107.508 Y29.711 E2.2872
G1 X107.566 Y29.811 E2.2929
G1 X107.942 Y30.507 E2.3324
G1 X107.999 Y30.619 E2.3387
G1 X108.624 Y31.963 E2.4127
G1 X108.685 Y32.109 E2.4205
G1 X109.156 Y33.357 E2.4871
G1 X109.193 Y33.466 E2.4928
G1 X109.433 Y34.225 E2.5326
G1 X109.457 Y34.307 E2.5368
G1 X109.653 Y35.027 E2.5741
G1 X109.681 Y35.144 E2.5801
G1 X109.976 Y36.542 E2.6513
G1 X110.003 Y36.700 E2.6593
G1 X110.191 Y38.116 E2.7306
G1 X110.204 Y38.235 E2.7366
G1 X110.261 Y38.997 E2.7747
G1 X110.266 Y39.117 E2.7807
G1 X110.292 Y40.545 E2.8519
G1 X110.288 Y40.705 E2.8599
G1 X110.205 Y42.131 E2.9312
G1 X110.194 Y42.251 E2.9372
G1 X110.106 Y43.010 E2.9753
G1 X110.089 Y43.129 E2.9813
G1 X109.844 Y44.536 E3.0526
G1 X109.810 Y44.692 E3.0605
G1 X109.458 Y46.077 E3.1318
G1 X109.425 Y46.192 E3.1378
G1 X109.195 Y46.921 E3.1759
G1 X109.156 Y47.034 E3.1819
G1 X108.648 Y48.370 E3.2532
G1 X108.586 Y48.517 E3.2612
G1 X107.977 Y49.812 E3.3325
G1 X107.921 Y49.922 E3.3387
G1 X107.535 Y50.632 E3.3790
G1 X107.477 Y50.732 E3.3848
G1 X106.775 Y51.868 E3.4514
G1 X106.686 Y52.002 E3.4594
G1 X105.774 Y53.253 E3.5367
G1 X105.675 Y53.378 E3.5447
G1 X104.808 Y54.395 E3.6113
G1 X104.730 Y54.481 E3.6171
G1 X104.190 Y55.048 E3.6562
G1 X104.130 Y55.108 E3.6604
G1 X103.585 Y55.636 E3.6982
G1 X103.498 Y55.716 E3.7041
G1 X102.451 Y56.621 E3.7732
G1 X102.326 Y56.721 E3.7812
G1 X101.133 Y57.603 E3.8552
G1 X101.029 Y57.675 E3.8615
G1 X100.366 Y58.106 E3.9010
G1 X100.269 Y58.166 E3.9067
G1 X99.113 Y58.831 E3.9732
G1 X98.974 Y58.904 E3.9810
G1 X97.622 Y59.553 E4.0558
G1 X97.474 Y59.618 E4.0639
G1 X96.183 Y60.119 E4.1330
G1 X96.071 Y60.159 E4.1389
G1 X95.329 Y60.400 E4.1778
G1 X95.249 Y60.424 E4.1820
G1 X94.514 Y60.631 E4.2201
G1 X94.400 Y60.660 E4.2260
G1 X93.048 Y60.958 E4.2950
G1 X92.893 Y60.987 E4.3029
G1 X91.453 Y61.193 E4.3755
G1 X91.331 Y61.207 E4.3816
G1 X90.564 Y61.272 E4.4200
G1 X90.445 Y61.278 E4.4260
G1 X89.021 Y61.317 E4.4970
G1 X88.861 Y61.315 E4.5050
G1 X87.435 Y61.245 E4.5763
G1 X87.315 Y61.236 E4.5822
G1 X86.555 Y61.155 E4.6204
G1 X86.436 Y61.139 E4.6264
G1 X85.027 Y60.907 E4.6976
G1 X84.870 Y60.875 E4.7056
G1 X83.482 Y60.536 E4.7769
G1 X83.367 Y60.504 E4.7829
G1 X82.652 Y60.286 E4.8201
G1 X82.571 Y60.259 E4.8244
G1 X81.820 Y59.996 E4.8641
G1 X81.712 Y59.955 E4.8698
G1 X80.479 Y59.446 E4.9364
G1 X80.336 Y59.380 E4.9443
