; G-Code generated by Simplify3D(R) Version 4.1.1
; May 29, 2020 at 9:23:25 AM
; Settings Summary
;   processName,Process1
;   applyToModels,Main Gear Tire Hub 1 - PLA,Main Gear Tire Hub 2 - PLA,Main Gear Tire Hub 1 - PLA(2),Main Gear Tire Hub 2 - PLA(2)
;   profileName,Generic GCode 3DAeroventures PLA .2 layers
;   profileVersion,2020-05-20 12:25:51
;   baseProfile,Prusa Research Original Prusa i3 MK3 (modified)
;   printMaterial,PLA
;   printQuality,Medium
;   printExtruders,
;   extruderName,Primary Extruder
;   extruderToolheadNumber,0
;   extruderDiameter,0.4
;   extruderAutoWidth,0
;   extruderWidth,0.4
;   extrusionMultiplier,0.95
;   extruderUseRetract,1
;   extruderRetractionDistance,1
;   extruderExtraRestartDistance,0
;   extruderRetractionZLift,0
;   extruderRetractionSpeed,2400
;   extruderUseCoasting,1
;   extruderCoastingDistance,0.2
;   extruderUseWipe,1
;   extruderWipeDistance,2
;   primaryExtruder,0
;   layerHeight,0.2
;   topSolidLayers,4
;   bottomSolidLayers,4
;   perimeterOutlines,3
;   printPerimetersInsideOut,1
;   startPointOption,3
;   startPointOriginX,200
;   startPointOriginY,200
;   sequentialIslands,0
;   spiralVaseMode,0
;   firstLayerHeightPercentage,100
;   firstLayerWidthPercentage,100
;   firstLayerUnderspeed,0.3
;   useRaft,0
;   raftExtruder,0
;   raftTopLayers,3
;   raftBaseLayers,2
;   raftOffset,3
;   raftSeparationDistance,0.14
;   raftTopInfill,100
;   aboveRaftSpeedMultiplier,0.3
;   useSkirt,1
;   skirtExtruder,0
;   skirtLayers,1
;   skirtOutlines,1
;   skirtOffset,2
;   usePrimePillar,0
;   primePillarExtruder,999
;   primePillarWidth,12
;   primePillarLocation,7
;   primePillarSpeedMultiplier,1
;   useOozeShield,0
;   oozeShieldExtruder,999
;   oozeShieldOffset,2
;   oozeShieldOutlines,1
;   oozeShieldSidewallShape,1
;   oozeShieldSidewallAngle,30
;   oozeShieldSpeedMultiplier,1
;   infillExtruder,0
;   internalInfillPattern,Rectilinear
;   externalInfillPattern,Rectilinear
;   infillPercentage,20
;   outlineOverlapPercentage,10
;   infillExtrusionWidthPercentage,100
;   minInfillLength,5
;   infillLayerInterval,1
;   internalInfillAngles,45,-45
;   overlapInternalInfillAngles,0
;   externalInfillAngles,45,-45
;   generateSupport,0
;   supportExtruder,0
;   supportInfillPercentage,30
;   supportExtraInflation,0
;   supportBaseLayers,2
;   denseSupportExtruder,0
;   denseSupportLayers,3
;   denseSupportInfillPercentage,70
;   supportLayerInterval,1
;   supportHorizontalPartOffset,0.8
;   supportUpperSeparationLayers,1
;   supportLowerSeparationLayers,1
;   supportType,0
;   supportGridSpacing,4
;   maxOverhangAngle,45
;   supportAngles,0
;   temperatureName,Primary Extruder,Heated Bed
;   temperatureNumber,0,0
;   temperatureSetpointCount,1,1
;   temperatureSetpointLayers,1,1
;   temperatureSetpointTemperatures,220,70
;   temperatureStabilizeAtStartup,1,1
;   temperatureHeatedBed,0,1
;   fanLayers,1,2
;   fanSpeeds,0,30
;   blipFanToFullPower,1
;   adjustSpeedForCooling,1
;   minSpeedLayerTime,15
;   minCoolingSpeedSlowdown,10
;   increaseFanForCooling,0
;   minFanLayerTime,45
;   maxCoolingFanSpeed,100
;   increaseFanForBridging,0
;   bridgingFanSpeed,100
;   use5D,1
;   relativeEdistances,0
;   allowEaxisZeroing,1
;   independentExtruderAxes,0
;   includeM10123,0
;   stickySupport,1
;   applyToolheadOffsets,0
;   gcodeXoffset,0
;   gcodeYoffset,0
;   gcodeZoffset,0
;   overrideMachineDefinition,1
;   machineTypeOverride,0
;   strokeXoverride,180
;   strokeYoverride,180
;   strokeZoverride,180
;   originOffsetXoverride,0
;   originOffsetYoverride,0
;   originOffsetZoverride,0
;   homeXdirOverride,-1
;   homeYdirOverride,-1
;   homeZdirOverride,-1
;   flipXoverride,1
;   flipYoverride,-1
;   flipZoverride,1
;   toolheadOffsets,0,0|0,0|0,0|0,0|0,0|0,0
;   overrideFirmwareConfiguration,0
;   firmwareTypeOverride,RepRap (Marlin/Repetier/Sprinter)
;   GPXconfigOverride,r2
;   baudRateOverride,115200
;   overridePrinterModels,1
;   printerModelsOverride
;   startingGcode,G28
;   layerChangeGcode,
;   retractionGcode,
;   toolChangeGcode,
;   endingGcode,M104 S0 ; turn off extruder,M140 S0 ; turn off bed,G28 X0 ; home X axis,M84 ; disable motors,M107 ; turn off fan
;   exportFileFormat,gcode
;   celebration,0
;   celebrationSong,Funky Town
;   postProcessing,
;   defaultSpeed,3600
;   outlineUnderspeed,0.7
;   solidInfillUnderspeed,0.8
;   supportUnderspeed,0.8
;   rapidXYspeed,9000
;   rapidZspeed,1002
;   minBridgingArea,5
;   bridgingExtraInflation,0
;   bridgingExtrusionMultiplier,1
;   bridgingSpeedMultiplier,0.3
;   useFixedBridgingAngle,0
;   fixedBridgingAngle,0
;   applyBridgingToPerimeters,0
;   filamentDiameters,1.75|1.75|1.75|1.75|1.75|1.75
;   filamentPricesPerKg,26|46|46|46|46|46
;   filamentDensities,1.25|1.25|1.25|1.25|1.25|1.25
;   useMinPrintHeight,0
;   minPrintHeight,78
;   useMaxPrintHeight,0
;   maxPrintHeight,106
;   useDiaphragm,0
;   diaphragmLayerInterval,20
;   robustSlicing,1
;   mergeAllIntoSolid,0
;   onlyRetractWhenCrossingOutline,0
;   retractBetweenLayers,0
;   useRetractionMinTravel,0
;   retractionMinTravel,3
;   retractWhileWiping,1
;   onlyWipeOutlines,1
;   avoidCrossingOutline,0
;   maxMovementDetourFactor,3
;   toolChangeRetractionDistance,0
;   toolChangeExtraRestartDistance,0
;   toolChangeRetractionSpeed,360
;   externalThinWallType,0
;   internalThinWallType,1
;   thinWallAllowedOverlapPercentage,10
;   singleExtrusionMinLength,1
;   singleExtrusionMinPrintingWidthPercentage,50
;   singleExtrusionMaxPrintingWidthPercentage,100
;   singleExtrusionEndpointExtension,0
;   horizontalSizeCompensation,0
G90
M82
M106 S0
M140 S70
M190 S70
M104 S220 T0
M109 S220 T0
G28
; process Process1
; layer 1, Z = 0.200
T0
G92 E0.0000
G1 E-1.0000 F2400
; feature skirt
; tool H0.200 W0.400
G1 Z0.200 F1002
G1 X106.464 Y105.327 F9000
G1 E0.0000 F2400
G92 E0.0000
G1 X105.844 Y105.963 E0.0281 F1080
G1 X105.776 Y106.026 E0.0310
G1 X105.250 Y106.481 E0.0530
G1 X105.172 Y106.542 E0.0561
G1 X104.411 Y107.089 E0.0857
G1 X104.315 Y107.150 E0.0893
G1 X103.495 Y107.619 E0.1192
G1 X103.393 Y107.670 E0.1228
G1 X102.528 Y108.051 E0.1526
G1 X102.422 Y108.092 E0.1562
G1 X101.523 Y108.382 E0.1861
G1 X101.413 Y108.411 E0.1897
G1 X100.488 Y108.606 E0.2195
G1 X100.376 Y108.624 E0.2231
G1 X99.436 Y108.723 E0.2530
G1 X99.322 Y108.729 E0.2566
G1 X98.387 Y108.730 E0.2861
G1 X98.292 Y108.726 E0.2891
G1 X97.646 Y108.670 E0.3096
G1 X97.552 Y108.658 E0.3126
G1 X96.630 Y108.499 E0.3422
G1 X96.519 Y108.473 E0.3458
G1 X95.610 Y108.217 E0.3756
G1 X95.502 Y108.180 E0.3792
G1 X94.633 Y107.834 E0.4088
G1 X94.546 Y107.796 E0.4118
G1 X93.966 Y107.505 E0.4323
G1 X93.883 Y107.458 E0.4353
G1 X93.087 Y106.968 E0.4648
G1 X92.993 Y106.904 E0.4684
G1 X92.243 Y106.328 E0.4983
G1 X92.157 Y106.254 E0.5019
G1 X91.471 Y105.605 E0.5317
G1 X91.392 Y105.522 E0.5353
G1 X90.778 Y104.805 E0.5652
G1 X90.708 Y104.715 E0.5688
G1 X90.170 Y103.938 E0.5986
G1 X90.111 Y103.841 E0.6022
G1 X89.656 Y103.013 E0.6321
G1 X89.607 Y102.910 E0.6357
G1 X89.594 Y102.881 E0.6367
G1 X89.345 Y103.450 E0.6563
G1 X89.304 Y103.533 E0.6593
G1 X88.975 Y104.141 E0.6811
G1 X88.924 Y104.225 E0.6842
G1 X88.408 Y105.001 E0.7137
G1 X88.340 Y105.092 E0.7172
G1 X87.743 Y105.817 E0.7469
G1 X87.666 Y105.901 E0.7505
G1 X86.997 Y106.561 E0.7802
G1 X86.912 Y106.636 E0.7838
G1 X86.179 Y107.223 E0.8135
G1 X86.087 Y107.289 E0.8171
G1 X85.297 Y107.798 E0.8467
G1 X85.198 Y107.854 E0.8503
G1 X84.360 Y108.279 E0.8800
G1 X84.257 Y108.325 E0.8836
G1 X83.380 Y108.662 E0.9133
G1 X83.272 Y108.697 E0.9169
G1 X82.365 Y108.941 E0.9465
G1 X82.254 Y108.965 E0.9501
G1 X81.336 Y109.113 E0.9795
G1 X81.242 Y109.124 E0.9825
G1 X80.598 Y109.172 E1.0029
G1 X80.504 Y109.175 E1.0059
G1 X79.574 Y109.164 E1.0353
G1 X79.461 Y109.157 E1.0388
G1 X78.527 Y109.050 E1.0685
G1 X78.415 Y109.031 E1.0721
G1 X77.498 Y108.828 E1.1018
G1 X77.389 Y108.798 E1.1054
G1 X76.497 Y108.502 E1.1351
G1 X76.391 Y108.461 E1.1386
G1 X75.535 Y108.075 E1.1683
G1 X75.434 Y108.023 E1.1719
G1 X74.622 Y107.551 E1.2016
G1 X74.527 Y107.489 E1.2052
G1 X73.775 Y106.941 E1.2346
G1 X73.701 Y106.882 E1.2376
G1 X73.214 Y106.459 E1.2579
G1 X73.146 Y106.394 E1.2609
G1 X72.498 Y105.726 E1.2903
G1 X72.424 Y105.641 E1.2939
G1 X71.843 Y104.902 E1.3236
G1 X71.777 Y104.810 E1.3272
G1 X71.276 Y104.016 E1.3569
G1 X71.220 Y103.917 E1.3604
G1 X70.802 Y103.075 E1.3901
G1 X70.757 Y102.971 E1.3937
G1 X70.429 Y102.092 E1.4234
G1 X70.395 Y101.986 E1.4269
G1 X70.171 Y101.131 E1.4548
G1 X70.151 Y101.041 E1.4577
G1 X70.033 Y100.361 E1.4795
G1 X70.020 Y100.263 E1.4827
G1 X69.943 Y99.334 E1.5121
G1 X69.939 Y99.220 E1.5157
G1 X69.958 Y98.281 E1.5454
G1 X69.966 Y98.168 E1.5490
G1 X70.082 Y97.236 E1.5786
G1 X70.101 Y97.124 E1.5822
G1 X70.310 Y96.218 E1.6116
G1 X70.335 Y96.126 E1.6146
G1 X70.533 Y95.512 E1.6350
G1 X70.566 Y95.424 E1.6380
G1 X70.926 Y94.566 E1.6674
G1 X70.976 Y94.464 E1.6710
G1 X71.427 Y93.640 E1.7006
G1 X71.486 Y93.543 E1.7042
G1 X72.020 Y92.770 E1.7339
G1 X72.089 Y92.680 E1.7375
G1 X72.699 Y91.966 E1.7672
G1 X72.777 Y91.883 E1.7708
G1 X73.457 Y91.235 E1.8004
G1 X73.543 Y91.162 E1.8040
G1 X74.279 Y90.593 E1.8334
G1 X74.356 Y90.538 E1.8364
G1 X74.899 Y90.189 E1.8568
G1 X74.980 Y90.141 E1.8598
G1 X75.635 Y89.795 E1.8832
G1 X74.890 Y89.363 E1.9104
G1 X74.795 Y89.301 E1.9139
G1 X74.043 Y88.753 E1.9433
G1 X73.970 Y88.694 E1.9463
G1 X73.482 Y88.271 E1.9667
G1 X73.414 Y88.206 E1.9697
G1 X72.767 Y87.538 E1.9991
G1 X72.692 Y87.453 E2.0027
G1 X72.111 Y86.714 E2.0324
G1 X72.046 Y86.622 E2.0359
G1 X71.544 Y85.827 E2.0656
G1 X71.488 Y85.728 E2.0692
G1 X71.071 Y84.887 E2.0989
G1 X71.026 Y84.783 E2.1025
G1 X70.697 Y83.904 E2.1321
G1 X70.663 Y83.798 E2.1356
G1 X70.439 Y82.943 E2.1636
G1 X70.420 Y82.853 E2.1665
G1 X70.301 Y82.172 E2.1883
G1 X70.288 Y82.074 E2.1914
G1 X70.211 Y81.145 E2.2209
G1 X70.208 Y81.032 E2.2245
G1 X70.227 Y80.093 E2.2541
G1 X70.235 Y79.980 E2.2577
G1 X70.350 Y79.047 E2.2874
G1 X70.370 Y78.936 E2.2910
G1 X70.578 Y78.029 E2.3204
G1 X70.603 Y77.938 E2.3234
G1 X70.801 Y77.324 E2.3438
G1 X70.834 Y77.235 E2.3467
G1 X71.195 Y76.378 E2.3761
G1 X71.244 Y76.276 E2.3797
G1 X71.695 Y75.452 E2.4094
G1 X71.754 Y75.355 E2.4130
G1 X72.288 Y74.582 E2.4427
G1 X72.357 Y74.492 E2.4462
G1 X72.967 Y73.777 E2.4759
G1 X73.045 Y73.695 E2.4795
G1 X73.725 Y73.047 E2.5092
G1 X73.811 Y72.973 E2.5128
G1 X74.547 Y72.404 E2.5422
G1 X74.624 Y72.350 E2.5452
G1 X75.167 Y72.001 E2.5656
G1 X75.248 Y71.953 E2.5685
G1 X76.071 Y71.518 E2.5979
G1 X76.174 Y71.470 E2.6015
G1 X77.045 Y71.119 E2.6312
G1 X77.152 Y71.082 E2.6348
G1 X78.055 Y70.822 E2.6645
G1 X78.165 Y70.796 E2.6680
G1 X79.090 Y70.631 E2.6977
G1 X79.203 Y70.616 E2.7013
G1 X80.138 Y70.547 E2.7310
G1 X80.250 Y70.544 E2.7345
G1 X81.133 Y70.568 E2.7624
G1 X81.225 Y70.574 E2.7653
G1 X81.912 Y70.650 E2.7871
G1 X82.009 Y70.666 E2.7903
G1 X82.923 Y70.851 E2.8197
G1 X83.032 Y70.879 E2.8233
G1 X83.929 Y71.160 E2.8530
G1 X84.035 Y71.200 E2.8566
G1 X84.898 Y71.571 E2.8863
G1 X85.000 Y71.621 E2.8898
G1 X85.819 Y72.079 E2.9195
G1 X85.914 Y72.138 E2.9230
G1 X86.638 Y72.644 E2.9509
G1 X86.711 Y72.700 E2.9538
G1 X87.242 Y73.142 E2.9757
G1 X87.315 Y73.209 E2.9788
G1 X87.975 Y73.867 E3.0082
G1 X88.051 Y73.951 E3.0118
G1 X88.644 Y74.680 E3.0415
G1 X88.711 Y74.771 E3.0451
G1 X89.227 Y75.556 E3.0748
G1 X89.284 Y75.654 E3.0784
G1 X89.675 Y76.408 E3.1052
G1 X89.865 Y75.951 E3.1208
G1 X89.915 Y75.849 E3.1244
G1 X90.367 Y75.019 E3.1543
G1 X90.427 Y74.922 E3.1579
G1 X90.963 Y74.144 E3.1877
G1 X91.032 Y74.054 E3.1913
G1 X91.646 Y73.335 E3.2212
G1 X91.724 Y73.253 E3.2248
G1 X92.402 Y72.608 E3.2543
G1 X92.473 Y72.546 E3.2573
G1 X92.980 Y72.140 E3.2778
G1 X93.057 Y72.084 E3.2808
G1 X93.835 Y71.566 E3.3104
G1 X93.933 Y71.507 E3.3140
G1 X94.769 Y71.067 E3.3438
G1 X94.872 Y71.020 E3.3474
G1 X95.748 Y70.669 E3.3773
G1 X95.854 Y70.633 E3.3808
G1 X96.708 Y70.388 E3.4089
G1 X96.798 Y70.366 E3.4118
G1 X97.480 Y70.232 E3.4337
G1 X97.578 Y70.217 E3.4369
G1 X98.510 Y70.119 E3.4665
G1 X98.624 Y70.113 E3.4701
G1 X99.569 Y70.112 E3.4999
G1 X99.683 Y70.118 E3.5035
G1 X100.622 Y70.214 E3.5334
G1 X100.735 Y70.232 E3.5370
G1 X101.660 Y70.425 E3.5669
G1 X101.770 Y70.454 E3.5705
G1 X102.670 Y70.742 E3.6003
G1 X102.776 Y70.782 E3.6039
G1 X103.641 Y71.162 E3.6338
G1 X103.743 Y71.213 E3.6374
G1 X104.556 Y71.675 E3.6669
G1 X104.637 Y71.725 E3.6699
G1 X105.171 Y72.093 E3.6904
G1 X105.247 Y72.150 E3.6934
G1 X105.969 Y72.745 E3.7230
G1 X106.053 Y72.822 E3.7266
G1 X106.716 Y73.495 E3.7564
G1 X106.791 Y73.580 E3.7600
G1 X107.381 Y74.318 E3.7898
G1 X107.446 Y74.408 E3.7934
G1 X107.927 Y75.155 E3.8214
G1 X107.974 Y75.235 E3.8244
G1 X108.300 Y75.849 E3.8463
G1 X108.343 Y75.938 E3.8495
G1 X108.706 Y76.802 E3.8791
G1 X108.745 Y76.910 E3.8827
G1 X109.019 Y77.814 E3.9125
G1 X109.046 Y77.924 E3.9161
G1 X109.225 Y78.851 E3.9459
G1 X109.241 Y78.961 E3.9495
G1 X109.320 Y79.846 E3.9775
G1 X109.325 Y79.939 E3.9805
G1 X109.328 Y80.634 E4.0024
G1 X109.324 Y80.733 E4.0056
G1 X109.244 Y81.667 E4.0352
G1 X109.229 Y81.780 E4.0388
G1 X109.051 Y82.708 E4.0686
G1 X109.024 Y82.818 E4.0722
G1 X108.752 Y83.723 E4.1021
G1 X108.714 Y83.830 E4.1057
G1 X108.350 Y84.701 E4.1355
G1 X108.301 Y84.802 E4.1390
G1 X107.877 Y85.582 E4.1671
G1 X107.830 Y85.662 E4.1700
G1 X107.448 Y86.242 E4.1920
G1 X107.390 Y86.323 E4.1951
G1 X106.807 Y87.055 E4.2247
G1 X106.733 Y87.139 E4.2282
G1 X106.112 Y87.774 E4.2563
G1 X106.044 Y87.838 E4.2592
G1 X105.519 Y88.292 E4.2812
G1 X105.441 Y88.354 E4.2843
G1 X104.679 Y88.900 E4.3139
G1 X104.583 Y88.962 E4.3175
G1 X103.763 Y89.430 E4.3474
G1 X103.661 Y89.482 E4.3510
G1 X103.636 Y89.493 E4.3518
G1 X104.288 Y89.863 E4.3755
G1 X104.369 Y89.914 E4.3785
G1 X104.903 Y90.282 E4.3990
G1 X104.979 Y90.339 E4.4020
G1 X105.700 Y90.934 E4.4316
G1 X105.785 Y91.011 E4.4352
G1 X106.447 Y91.684 E4.4650
G1 X106.523 Y91.769 E4.4686
G1 X107.112 Y92.506 E4.4985
G1 X107.178 Y92.597 E4.5020
G1 X107.659 Y93.343 E4.5301
G1 X107.706 Y93.423 E4.5330
G1 X108.032 Y94.037 E4.5549
G1 X108.074 Y94.127 E4.5581
G1 X108.438 Y94.991 E4.5877
G1 X108.476 Y95.098 E4.5913
G1 X108.751 Y96.002 E4.6211
G1 X108.778 Y96.113 E4.6247
G1 X108.957 Y97.039 E4.6546
G1 X108.973 Y97.150 E4.6581
G1 X109.052 Y98.034 E4.6862
G1 X109.056 Y98.127 E4.6891
G1 X109.060 Y98.822 E4.7111
G1 X109.056 Y98.921 E4.7142
G1 X108.976 Y99.855 E4.7438
G1 X108.960 Y99.968 E4.7474
G1 X108.783 Y100.896 E4.7773
G1 X108.756 Y101.007 E4.7809
G1 X108.484 Y101.911 E4.8107
G1 X108.445 Y102.018 E4.8143
G1 X108.081 Y102.889 E4.8441
G1 X108.033 Y102.990 E4.8477
G1 X107.609 Y103.770 E4.8757
G1 X107.561 Y103.850 E4.8787
G1 X107.179 Y104.431 E4.9006
G1 X107.121 Y104.511 E4.9037
G1 X106.538 Y105.244 E4.9333
G1 X106.464 Y105.327 E4.9369
G92 E0.0000
G1 E-1.0000 F2400
; feature inner perimeter
G1 X85.611 Y85.509 F9000
G1 E0.0000 F2400
G92 E0.0000
G1 X85.096 Y86.017 E0.0229 F918
G1 X84.531 Y86.469 E0.0457
G1 X83.923 Y86.861 E0.0686
G1 X83.278 Y87.188 E0.0914
G1 X82.603 Y87.447 E0.1142
G1 X81.905 Y87.635 E0.1371
G1 X81.183 Y87.751 E0.1602
G1 X80.719 Y87.786 E0.1749
G1 X79.987 Y87.778 E0.1980
G1 X79.269 Y87.695 E0.2209
G1 X78.563 Y87.539 E0.2437
G1 X77.876 Y87.311 E0.2666
G1 X77.217 Y87.014 E0.2894
G1 X76.592 Y86.650 E0.3123
G1 X76.000 Y86.220 E0.3354
G1 X75.649 Y85.915 E0.3501
G1 X75.140 Y85.389 E0.3732
G1 X74.693 Y84.821 E0.3961
G1 X74.307 Y84.209 E0.4189
G1 X73.985 Y83.562 E0.4418
G1 X73.732 Y82.883 E0.4646
G1 X73.557 Y82.216 E0.4864
G1 X73.470 Y81.716 E0.5025
G1 X73.409 Y80.988 E0.5256
G1 X73.424 Y80.265 E0.5484
G1 X73.513 Y79.548 E0.5712
G1 X73.677 Y78.834 E0.5944
