; G-Code generated by Simplify3D(R) Version 4.1.1
; May 29, 2020 at 9:35:42 AM
; Settings Summary
;   processName,Process1
;   applyToModels,Motor Pod - ABS, ASA, or PETG,Motor Pod Lid - ABS, ASA, or PETG
;   profileName,Generic GCode 3DAeroventures PETG (modified)
;   profileVersion,2020-03-14 04:51:42
;   baseProfile,Prusa Research Original Prusa i3 MK3 (modified)
;   printMaterial,eSun PETG
;   printQuality,Medium
;   printExtruders,
;   extruderName,Primary Extruder
;   extruderToolheadNumber,0
;   extruderDiameter,0.4
;   extruderAutoWidth,0
;   extruderWidth,0.42
;   extrusionMultiplier,0.95
;   extruderUseRetract,1
;   extruderRetractionDistance,1
;   extruderExtraRestartDistance,0
;   extruderRetractionZLift,0.5
;   extruderRetractionSpeed,1800
;   extruderUseCoasting,1
;   extruderCoastingDistance,0.5
;   extruderUseWipe,1
;   extruderWipeDistance,2
;   primaryExtruder,0
;   layerHeight,0.2
;   topSolidLayers,4
;   bottomSolidLayers,4
;   perimeterOutlines,4
;   printPerimetersInsideOut,1
;   startPointOption,2
;   startPointOriginX,0
;   startPointOriginY,0
;   sequentialIslands,0
;   spiralVaseMode,0
;   firstLayerHeightPercentage,105
;   firstLayerWidthPercentage,105
;   firstLayerUnderspeed,0.2
;   useRaft,0
;   raftExtruder,0
;   raftTopLayers,3
;   raftBaseLayers,2
;   raftOffset,3
;   raftSeparationDistance,0.1
;   raftTopInfill,100
;   aboveRaftSpeedMultiplier,0.3
;   useSkirt,0
;   skirtExtruder,0
;   skirtLayers,1
;   skirtOutlines,1
;   skirtOffset,4
;   usePrimePillar,0
;   primePillarExtruder,999
;   primePillarWidth,12
;   primePillarLocation,7
;   primePillarSpeedMultiplier,1
;   useOozeShield,0
;   oozeShieldExtruder,999
;   oozeShieldOffset,2
;   oozeShieldOutlines,1
;   oozeShieldSidewallShape,1
;   oozeShieldSidewallAngle,30
;   oozeShieldSpeedMultiplier,1
;   infillExtruder,0
;   internalInfillPattern,Rectilinear
;   externalInfillPattern,Rectilinear
;   infillPercentage,50
;   outlineOverlapPercentage,20
;   infillExtrusionWidthPercentage,110
;   minInfillLength,5
;   infillLayerInterval,1
;   internalInfillAngles,45,-45
;   overlapInternalInfillAngles,0
;   externalInfillAngles,45,-45
;   generateSupport,0
;   supportExtruder,0
;   supportInfillPercentage,30
;   supportExtraInflation,0
;   supportBaseLayers,0
;   denseSupportExtruder,0
;   denseSupportLayers,2
;   denseSupportInfillPercentage,70
;   supportLayerInterval,1
;   supportHorizontalPartOffset,0.5
;   supportUpperSeparationLayers,1
;   supportLowerSeparationLayers,1
;   supportType,0
;   supportGridSpacing,3
;   maxOverhangAngle,46
;   supportAngles,0
;   temperatureName,Primary Extruder,Heated Bed
;   temperatureNumber,0,0
;   temperatureSetpointCount,2,1
;   temperatureSetpointLayers,1,2,1
;   temperatureSetpointTemperatures,245,240,80
;   temperatureStabilizeAtStartup,1,1
;   temperatureHeatedBed,0,1
;   fanLayers,1,3,6
;   fanSpeeds,0,30,60
;   blipFanToFullPower,0
;   adjustSpeedForCooling,1
;   minSpeedLayerTime,15
;   minCoolingSpeedSlowdown,20
;   increaseFanForCooling,0
;   minFanLayerTime,45
;   maxCoolingFanSpeed,100
;   increaseFanForBridging,0
;   bridgingFanSpeed,100
;   use5D,1
;   relativeEdistances,1
;   allowEaxisZeroing,1
;   independentExtruderAxes,0
;   includeM10123,0
;   stickySupport,1
;   applyToolheadOffsets,0
;   gcodeXoffset,0
;   gcodeYoffset,0
;   gcodeZoffset,0
;   overrideMachineDefinition,1
;   machineTypeOverride,0
;   strokeXoverride,180
;   strokeYoverride,180
;   strokeZoverride,180
;   originOffsetXoverride,0
;   originOffsetYoverride,0
;   originOffsetZoverride,0
;   homeXdirOverride,-1
;   homeYdirOverride,-1
;   homeZdirOverride,-1
;   flipXoverride,1
;   flipYoverride,-1
;   flipZoverride,1
;   toolheadOffsets,0,0|0,0|0,0|0,0|0,0|0,0
;   overrideFirmwareConfiguration,0
;   firmwareTypeOverride,RepRap (Marlin/Repetier/Sprinter)
;   GPXconfigOverride,r2
;   baudRateOverride,115200
;   overridePrinterModels,1
;   printerModelsOverride
;   startingGcode,G28
;   layerChangeGcode,
;   retractionGcode,
;   toolChangeGcode,
;   endingGcode,M104 S0 ; turn off extruder,M140 S0 ; turn off bed,G28 X0 ; home X axis,M84 ; disable motors,M107 ; turn off fan
;   exportFileFormat,gcode
;   celebration,0
;   celebrationSong,Funky Town
;   postProcessing,
;   defaultSpeed,3000
;   outlineUnderspeed,0.4
;   solidInfillUnderspeed,0.8
;   supportUnderspeed,0.7
;   rapidXYspeed,9600
;   rapidZspeed,2400
;   minBridgingArea,50
;   bridgingExtraInflation,0.5
;   bridgingExtrusionMultiplier,0.95
;   bridgingSpeedMultiplier,0.4
;   useFixedBridgingAngle,1
;   fixedBridgingAngle,0
;   applyBridgingToPerimeters,0
;   filamentDiameters,1.75|1.75|1.75|1.75|1.75|1.75
;   filamentPricesPerKg,24|46|46|46|46|46
;   filamentDensities,1.25|1.25|1.25|1.25|1.25|1.25
;   useMinPrintHeight,0
;   minPrintHeight,0
;   useMaxPrintHeight,0
;   maxPrintHeight,174.6
;   useDiaphragm,0
;   diaphragmLayerInterval,20
;   robustSlicing,1
;   mergeAllIntoSolid,0
;   onlyRetractWhenCrossingOutline,0
;   retractBetweenLayers,1
;   useRetractionMinTravel,0
;   retractionMinTravel,3
;   retractWhileWiping,1
;   onlyWipeOutlines,1
;   avoidCrossingOutline,0
;   maxMovementDetourFactor,3
;   toolChangeRetractionDistance,12
;   toolChangeExtraRestartDistance,-0.5
;   toolChangeRetractionSpeed,600
;   externalThinWallType,0
;   internalThinWallType,1
;   thinWallAllowedOverlapPercentage,20
;   singleExtrusionMinLength,0
;   singleExtrusionMinPrintingWidthPercentage,50
;   singleExtrusionMaxPrintingWidthPercentage,200
;   singleExtrusionEndpointExtension,0.2
;   horizontalSizeCompensation,0
G90
M83
M106 S0
M140 S80
M190 S80
M104 S245 T0
M109 S245 T0
G28
; process Process1
; layer 1, Z = 0.210
T0
G1 E-1.0000 F1800
; feature inner perimeter
; tool H0.210 W0.441
G1 Z0.500 F2400
G1 X53.318 Y90.405 F9600
G1 Z0.210 F2400
G1 E1.0000 F1800
G1 X54.796 Y90.405 E0.0541 F420
G1 X54.713 Y90.893 E0.0181
G1 X54.707 Y91.204 E0.0114
G1 X54.762 Y91.579 E0.0139
G1 X54.873 Y91.907 E0.0127
G1 X55.034 Y92.217 E0.0127
G1 X55.287 Y92.539 E0.0150
G1 X55.561 Y92.780 E0.0133
G1 X56.102 Y93.100 E0.0230
G1 X56.603 Y93.297 E0.0197
G1 X56.912 Y93.380 E0.0117
G1 X57.421 Y93.457 E0.0188
G1 X57.701 Y93.467 E0.0102
G1 X72.493 Y93.467 E0.5411
G1 X73.064 Y93.419 E0.0210
G1 X73.587 Y93.289 E0.0197
G1 X73.888 Y93.178 E0.0117
G1 X74.345 Y92.947 E0.0187
G1 X74.602 Y92.781 E0.0112
G1 X74.893 Y92.526 E0.0142
G1 X75.131 Y92.219 E0.0142
G1 X75.278 Y91.946 E0.0114
G1 X75.399 Y91.607 E0.0131
G1 X75.463 Y91.192 E0.0153
G1 X75.445 Y90.806 E0.0142
G1 X75.364 Y90.405 E0.0150
G1 X76.860 Y90.405 E0.0547
G1 X76.770 Y90.734 E0.0125
G1 X76.579 Y91.262 E0.0205
G1 X76.458 Y91.522 E0.0105
G1 X76.324 Y91.773 E0.0104
G1 X76.175 Y92.015 E0.0104
G1 X76.008 Y92.253 E0.0106
G1 X75.644 Y92.687 E0.0207
G1 X75.444 Y92.889 E0.0104
G1 X75.231 Y93.080 E0.0105
G1 X75.002 Y93.261 E0.0107
G1 X74.528 Y93.574 E0.0208
G1 X74.296 Y93.699 E0.0096
G1 X74.020 Y93.830 E0.0112
G1 X73.757 Y93.935 E0.0104
G1 X73.488 Y94.024 E0.0104
G1 X73.219 Y94.096 E0.0102
G1 X72.636 Y94.199 E0.0217
G1 X72.368 Y94.223 E0.0098
G1 X72.068 Y94.231 E0.0110
G1 X58.100 Y94.231 E0.5109
G1 X57.799 Y94.223 E0.0110
G1 X57.515 Y94.198 E0.0104
G1 X57.234 Y94.156 E0.0104
G1 X56.957 Y94.099 E0.0104
G1 X56.676 Y94.022 E0.0107
G1 X56.141 Y93.827 E0.0208
G1 X55.886 Y93.708 E0.0103
G1 X55.637 Y93.573 E0.0104
G1 X55.403 Y93.428 E0.0101
G1 X54.932 Y93.076 E0.0215
G1 X54.725 Y92.891 E0.0101
G1 X54.523 Y92.687 E0.0105
G1 X54.160 Y92.253 E0.0207
G1 X53.993 Y92.015 E0.0106
G1 X53.848 Y91.779 E0.0101
G1 X53.586 Y91.255 E0.0214
G1 X53.483 Y90.996 E0.0102
G1 X53.447 Y90.887 E0.0042
G1 X53.392 Y90.717 F420
G1 X53.318 Y90.405
G1 E-1.0000 F1800
G1 Z0.710 F2400
G1 X52.830 Y90.257 F9600
G1 Z0.210 F2400
G1 E1.0000 F1800
G1 X52.786 Y89.964 E0.0108 F420
G1 X55.526 Y89.964 E0.1002
G1 X55.285 Y90.418 E0.0188
G1 X55.200 Y90.662 E0.0095
G1 X55.153 Y90.934 E0.0101
G1 X55.148 Y91.175 E0.0088
G1 X55.193 Y91.475 E0.0111
G1 X55.280 Y91.734 E0.0100
G1 X55.406 Y91.977 E0.0100
G1 X55.609 Y92.235 E0.0120
G1 X55.821 Y92.421 E0.0103
G1 X56.296 Y92.702 E0.0202
G1 X56.741 Y92.877 E0.0175
G1 X57.003 Y92.948 E0.0099
G1 X57.462 Y93.017 E0.0170
G1 X57.709 Y93.026 E0.0090
G1 X72.474 Y93.026 E0.5401
G1 X72.992 Y92.983 E0.0190
G1 X73.457 Y92.867 E0.0175
G1 X73.711 Y92.773 E0.0099
G1 X74.125 Y92.564 E0.0170
G1 X74.335 Y92.428 E0.0092
G1 X74.571 Y92.222 E0.0114
G1 X74.760 Y91.978 E0.0113
G1 X74.874 Y91.766 E0.0088
G1 X74.969 Y91.498 E0.0104
G1 X75.020 Y91.169 E0.0122
G1 X75.006 Y90.859 E0.0113
G1 X74.966 Y90.658 E0.0075
G1 X74.898 Y90.454 E0.0079
G1 X74.651 Y89.964 E0.0201
G1 X77.381 Y89.964 E0.0999
G1 X77.341 Y90.242 E0.0103
G1 X77.278 Y90.547 E0.0114
G1 X77.191 Y90.867 E0.0122
G1 X76.987 Y91.430 E0.0219
G1 X76.853 Y91.719 E0.0117
G1 X76.706 Y91.992 E0.0113
G1 X76.543 Y92.257 E0.0114
G1 X76.358 Y92.522 E0.0118
G1 X75.971 Y92.985 E0.0221
G1 X75.748 Y93.209 E0.0116
G1 X75.515 Y93.418 E0.0115
G1 X75.260 Y93.618 E0.0118
G1 X74.755 Y93.952 E0.0222
G1 X74.496 Y94.093 E0.0108
G1 X74.196 Y94.234 E0.0121
G1 X73.909 Y94.349 E0.0113
G1 X73.614 Y94.447 E0.0113
G1 X73.315 Y94.527 E0.0113
G1 X72.694 Y94.637 E0.0231
G1 X72.394 Y94.663 E0.0110
G1 X72.074 Y94.672 E0.0117
G1 X58.093 Y94.672 E0.5114
G1 X57.773 Y94.663 E0.0117
G1 X57.464 Y94.636 E0.0114
G1 X57.157 Y94.591 E0.0113
G1 X56.854 Y94.528 E0.0113
G1 X56.542 Y94.443 E0.0118
G1 X55.972 Y94.234 E0.0222
G1 X55.688 Y94.102 E0.0115
G1 X55.416 Y93.954 E0.0113
G1 X55.154 Y93.792 E0.0113
G1 X54.653 Y93.418 E0.0229
G1 X54.422 Y93.212 E0.0113
G1 X54.196 Y92.984 E0.0117
G1 X53.810 Y92.522 E0.0221
G1 X53.624 Y92.257 E0.0118
G1 X53.462 Y91.993 E0.0113
G1 X53.183 Y91.435 E0.0228
G1 X53.068 Y91.146 E0.0114
G1 X52.967 Y90.836 E0.0119
G1 X52.945 Y90.743 E0.0035
G1 X52.830 Y90.257 F420
G1 E-1.0000 F1800
G1 Z0.710 F2400
G1 X55.045 Y87.114 F9600
G1 Z0.210 F2400
G1 E1.0000 F1800
G1 X54.944 Y87.029 E0.0049 F420
G1 X54.852 Y86.911 E0.0055
G1 X54.788 Y86.777 E0.0054
G1 X54.751 Y86.619 E0.0059
G1 X54.748 Y86.543 E0.0028
G1 X54.772 Y86.367 E0.0065
G1 X54.797 Y86.294 E0.0028
G1 X54.885 Y86.138 E0.0065
G1 X54.936 Y86.077 E0.0029
G1 X55.068 Y85.969 E0.0062
G1 X55.142 Y85.929 E0.0031
G1 X55.293 Y85.879 E0.0058
G1 X55.447 Y85.862 E0.0057
G1 X55.672 Y85.861 E0.0082
G1 X55.672 Y87.258 E0.0511
G1 X55.521 Y87.244 E0.0055
G1 X55.315 Y87.225 F420
G1 X55.174 Y87.184
G1 X55.045 Y87.114
G1 E-1.0000 F1800
G1 Z0.710 F2400
G1 X74.495 Y87.251 F9600
G1 Z0.210 F2400
G1 E1.0000 F1800
G1 X74.495 Y85.863 E0.0508 F420
G1 X74.773 Y85.864 E0.0102
G1 X74.932 Y85.893 E0.0059
G1 X75.005 Y85.920 E0.0028
G1 X75.143 Y86.001 E0.0059
G1 X75.257 Y86.109 E0.0057
G1 X75.342 Y86.237 E0.0056
G1 X75.397 Y86.380 E0.0056
G1 X75.418 Y86.530 E0.0056
G1 X75.405 Y86.681 E0.0055
G1 X75.361 Y86.824 E0.0055
G1 X75.288 Y86.952 E0.0054
G1 X75.180 Y87.071 E0.0059
G1 X75.123 Y87.116 E0.0027
G1 X75.048 Y87.160 E0.0032
G1 X74.987 Y87.183 E0.0024
G1 X74.892 Y87.218 F420
G1 X74.807 Y87.234
G1 X74.495 Y87.251
G1 E-1.0000 F1800
; feature outer perimeter
G1 Z0.710 F2400
G1 X74.513 Y87.692 F9600
G1 Z0.210 F2400
G1 E1.0000 F1800
G1 X74.513 Y89.523 E0.0670 F240
G1 X77.857 Y89.523 E0.1223
G1 X77.853 Y89.648 E0.0046
G1 X77.824 Y89.985 E0.0123
G1 X77.775 Y90.319 E0.0123
G1 X77.707 Y90.649 E0.0123
G1 X77.612 Y91.001 E0.0133
G1 X77.395 Y91.598 E0.0232
G1 X77.248 Y91.916 E0.0128
G1 X77.089 Y92.212 E0.0123
G1 X76.912 Y92.500 E0.0123
G1 X76.708 Y92.790 E0.0130
G1 X76.297 Y93.282 E0.0234
G1 X76.052 Y93.529 E0.0127
G1 X75.798 Y93.756 E0.0125
G1 X75.519 Y93.976 E0.0130
G1 X74.982 Y94.331 E0.0235
G1 X74.696 Y94.486 E0.0119
G1 X74.372 Y94.639 E0.0131
G1 X74.060 Y94.763 E0.0123
G1 X73.741 Y94.870 E0.0123
G1 X73.410 Y94.958 E0.0125
G1 X72.751 Y95.074 E0.0245
G1 X72.420 Y95.103 E0.0122
G1 X72.080 Y95.113 E0.0124
G1 X58.087 Y95.113 E0.5118
G1 X57.748 Y95.103 E0.0124
G1 X57.413 Y95.074 E0.0123
G1 X57.080 Y95.025 E0.0123
G1 X56.751 Y94.957 E0.0123
G1 X56.408 Y94.863 E0.0130
G1 X55.803 Y94.642 E0.0235
G1 X55.489 Y94.496 E0.0127
G1 X55.194 Y94.336 E0.0123
G1 X54.906 Y94.157 E0.0124
G1 X54.374 Y93.760 E0.0243
G1 X54.118 Y93.532 E0.0125
G1 X53.870 Y93.282 E0.0129
G1 X53.459 Y92.790 E0.0234
G1 X53.255 Y92.499 E0.0130
G1 X53.076 Y92.208 E0.0125
G1 X52.780 Y91.616 E0.0242
G1 X52.653 Y91.296 E0.0126
G1 X52.542 Y90.956 E0.0131
G1 X52.396 Y90.340 E0.0231
G1 X52.344 Y89.992 E0.0129
G1 X52.314 Y89.648 E0.0126
G1 X52.310 Y89.523 E0.0046
G1 X55.654 Y89.523 E0.1223
G1 X55.654 Y87.699 E0.0667
G1 X55.232 Y87.660 E0.0155
G1 X55.006 Y87.594 E0.0086
G1 X54.796 Y87.481 E0.0087
G1 X54.625 Y87.337 E0.0082
G1 X54.475 Y87.145 E0.0089
G1 X54.369 Y86.924 E0.0089
G1 X54.312 Y86.680 E0.0092
G1 X54.305 Y86.521 E0.0058
G1 X54.341 Y86.265 E0.0095
G1 X54.393 Y86.114 E0.0058
G1 X54.521 Y85.886 E0.0096
G1 X54.625 Y85.762 E0.0059
G1 X54.820 Y85.602 E0.0092
G1 X54.965 Y85.523 E0.0061
G1 X55.198 Y85.446 E0.0090
G1 X55.422 Y85.421 E0.0082
G1 X56.113 Y85.420 E0.0253
G1 X56.113 Y90.085 E0.1706
G1 X56.050 Y90.126 E0.0027
G1 X55.929 Y90.236 E0.0060
G1 X55.784 Y90.419 E0.0085
G1 X55.690 Y90.595 E0.0073
G1 X55.628 Y90.773 E0.0069
G1 X55.593 Y90.976 E0.0075
G1 X55.590 Y91.147 E0.0063
G1 X55.623 Y91.372 E0.0083
G1 X55.687 Y91.561 E0.0073
G1 X55.778 Y91.737 E0.0072
G1 X55.930 Y91.930 E0.0090
G1 X56.081 Y92.063 E0.0074
G1 X56.490 Y92.305 E0.0174
G1 X56.880 Y92.458 E0.0153
G1 X57.093 Y92.515 E0.0081
G1 X57.504 Y92.577 E0.0152
G1 X57.717 Y92.585 E0.0078
G1 X72.456 Y92.585 E0.5391
G1 X72.920 Y92.546 E0.0170
G1 X73.327 Y92.445 E0.0153
G1 X73.535 Y92.368 E0.0081
G1 X73.906 Y92.181 E0.0152
G1 X74.069 Y92.075 E0.0071
G1 X74.248 Y91.919 E0.0087
G1 X74.388 Y91.737 E0.0084
G1 X74.470 Y91.586 E0.0063
G1 X74.540 Y91.390 E0.0076
G1 X74.578 Y91.145 E0.0091
G1 X74.567 Y90.913 E0.0085
G1 X74.539 Y90.772 E0.0053
G1 X74.489 Y90.623 E0.0057
G1 X74.398 Y90.442 E0.0075
G1 X74.215 Y90.211 E0.0108
G1 X74.054 Y90.092 E0.0073
G1 X74.054 Y85.420 E0.1709
G1 X74.813 Y85.424 E0.0278
G1 X75.048 Y85.466 E0.0087
G1 X75.195 Y85.520 E0.0057
G1 X75.410 Y85.647 E0.0091
G1 X75.596 Y85.823 E0.0094
G1 X75.737 Y86.034 E0.0093
G1 X75.826 Y86.269 E0.0092
G1 X75.861 Y86.517 E0.0092
G1 X75.841 Y86.765 E0.0091
G1 X75.768 Y87.001 E0.0090
G1 X75.647 Y87.212 E0.0089
G1 X75.482 Y87.395 E0.0090
G1 X75.372 Y87.482 E0.0051
G1 X75.237 Y87.560 E0.0057
G1 X75.009 Y87.645 E0.0089
G1 X74.859 Y87.672 F240
G1 X74.513 Y87.692
G1 X74.513 Y87.825 E-1.0000 F240
G1 X74.513 Y89.523 F240
G1 X74.682 Y89.523
; feature internal single extrusion
; tool H0.210 W0.712
G1 Z0.710 F2400
G1 X76.078 Y90.843 F9600
G1 Z0.210 F2400
G1 E1.0000 F1800
G1 X76.029 Y91.092 E0.0153 F240
; tool H0.210 W0.683
G1 X76.015 Y91.161 E0.0040
; tool H0.210 W0.651
G1 X76.001 Y91.229 E0.0038
; tool H0.210 W0.627
G1 X75.984 Y91.285 E0.0031
; tool H0.210 W0.608
G1 X75.965 Y91.342 E0.0031
; tool H0.210 W0.575
G1 X75.922 Y91.472 E0.0067
; tool H0.210 W0.541
G1 X75.902 Y91.530 E0.0028
; tool H0.210 W0.519
G1 X75.881 Y91.588 E0.0027
; tool H0.210 W0.493
G1 X75.857 Y91.653 E0.0029
; tool H0.210 W0.466
G1 X75.833 Y91.717 E0.0027
; tool H0.210 W0.446
G1 X75.807 Y91.773 E0.0023
; tool H0.210 W0.431
G1 X75.778 Y91.829 E0.0023
; tool H0.210 W0.404
G1 X75.714 Y91.952 E0.0047
; tool H0.210 W0.377
G1 X75.686 Y92.006 E0.0020
; tool H0.210 W0.356
G1 X75.651 Y92.069 E0.0022
; tool H0.210 W0.333
G1 X75.609 Y92.136 E0.0022
; tool H0.210 W0.298
G1 X75.476 Y92.331 E0.0059
; tool H0.210 W0.266
G1 X75.432 Y92.396 E0.0018
; tool H0.210 W0.256
G1 X75.388 Y92.454 E0.0016
; tool H0.210 W0.249
G1 X75.347 Y92.500 E0.0013
; tool H0.210 W0.237
