; G-Code generated by Simplify3D(R) Version 4.1.1
; May 29, 2020 at 9:21:50 AM
; Settings Summary
;   processName,Process1
;   applyToModels,Nose Gear Tire Hub 1 - PLA,Nose Gear Tire Hub 2 - PLA
;   profileName,Generic GCode 3DAeroventures PLA .2 layers
;   profileVersion,2020-05-20 12:25:51
;   baseProfile,Prusa Research Original Prusa i3 MK3 (modified)
;   printMaterial,PLA
;   printQuality,Medium
;   printExtruders,
;   extruderName,Primary Extruder
;   extruderToolheadNumber,0
;   extruderDiameter,0.4
;   extruderAutoWidth,0
;   extruderWidth,0.4
;   extrusionMultiplier,0.95
;   extruderUseRetract,1
;   extruderRetractionDistance,1
;   extruderExtraRestartDistance,0
;   extruderRetractionZLift,0
;   extruderRetractionSpeed,2400
;   extruderUseCoasting,1
;   extruderCoastingDistance,0.2
;   extruderUseWipe,1
;   extruderWipeDistance,2
;   primaryExtruder,0
;   layerHeight,0.2
;   topSolidLayers,4
;   bottomSolidLayers,4
;   perimeterOutlines,3
;   printPerimetersInsideOut,1
;   startPointOption,3
;   startPointOriginX,200
;   startPointOriginY,200
;   sequentialIslands,0
;   spiralVaseMode,0
;   firstLayerHeightPercentage,100
;   firstLayerWidthPercentage,100
;   firstLayerUnderspeed,0.3
;   useRaft,0
;   raftExtruder,0
;   raftTopLayers,3
;   raftBaseLayers,2
;   raftOffset,3
;   raftSeparationDistance,0.14
;   raftTopInfill,100
;   aboveRaftSpeedMultiplier,0.3
;   useSkirt,1
;   skirtExtruder,0
;   skirtLayers,1
;   skirtOutlines,1
;   skirtOffset,2
;   usePrimePillar,0
;   primePillarExtruder,999
;   primePillarWidth,12
;   primePillarLocation,7
;   primePillarSpeedMultiplier,1
;   useOozeShield,0
;   oozeShieldExtruder,999
;   oozeShieldOffset,2
;   oozeShieldOutlines,1
;   oozeShieldSidewallShape,1
;   oozeShieldSidewallAngle,30
;   oozeShieldSpeedMultiplier,1
;   infillExtruder,0
;   internalInfillPattern,Rectilinear
;   externalInfillPattern,Rectilinear
;   infillPercentage,20
;   outlineOverlapPercentage,10
;   infillExtrusionWidthPercentage,100
;   minInfillLength,5
;   infillLayerInterval,1
;   internalInfillAngles,45,-45
;   overlapInternalInfillAngles,0
;   externalInfillAngles,45,-45
;   generateSupport,0
;   supportExtruder,0
;   supportInfillPercentage,30
;   supportExtraInflation,0
;   supportBaseLayers,2
;   denseSupportExtruder,0
;   denseSupportLayers,3
;   denseSupportInfillPercentage,70
;   supportLayerInterval,1
;   supportHorizontalPartOffset,0.8
;   supportUpperSeparationLayers,1
;   supportLowerSeparationLayers,1
;   supportType,0
;   supportGridSpacing,4
;   maxOverhangAngle,45
;   supportAngles,0
;   temperatureName,Primary Extruder,Heated Bed
;   temperatureNumber,0,0
;   temperatureSetpointCount,1,1
;   temperatureSetpointLayers,1,1
;   temperatureSetpointTemperatures,220,70
;   temperatureStabilizeAtStartup,1,1
;   temperatureHeatedBed,0,1
;   fanLayers,1,2
;   fanSpeeds,0,30
;   blipFanToFullPower,1
;   adjustSpeedForCooling,1
;   minSpeedLayerTime,15
;   minCoolingSpeedSlowdown,10
;   increaseFanForCooling,0
;   minFanLayerTime,45
;   maxCoolingFanSpeed,100
;   increaseFanForBridging,0
;   bridgingFanSpeed,100
;   use5D,1
;   relativeEdistances,0
;   allowEaxisZeroing,1
;   independentExtruderAxes,0
;   includeM10123,0
;   stickySupport,1
;   applyToolheadOffsets,0
;   gcodeXoffset,0
;   gcodeYoffset,0
;   gcodeZoffset,0
;   overrideMachineDefinition,1
;   machineTypeOverride,0
;   strokeXoverride,180
;   strokeYoverride,180
;   strokeZoverride,180
;   originOffsetXoverride,0
;   originOffsetYoverride,0
;   originOffsetZoverride,0
;   homeXdirOverride,-1
;   homeYdirOverride,-1
;   homeZdirOverride,-1
;   flipXoverride,1
;   flipYoverride,-1
;   flipZoverride,1
;   toolheadOffsets,0,0|0,0|0,0|0,0|0,0|0,0
;   overrideFirmwareConfiguration,0
;   firmwareTypeOverride,RepRap (Marlin/Repetier/Sprinter)
;   GPXconfigOverride,r2
;   baudRateOverride,115200
;   overridePrinterModels,1
;   printerModelsOverride
;   startingGcode,G28
;   layerChangeGcode,
;   retractionGcode,
;   toolChangeGcode,
;   endingGcode,M104 S0 ; turn off extruder,M140 S0 ; turn off bed,G28 X0 ; home X axis,M84 ; disable motors,M107 ; turn off fan
;   exportFileFormat,gcode
;   celebration,0
;   celebrationSong,Funky Town
;   postProcessing,
;   defaultSpeed,3600
;   outlineUnderspeed,0.7
;   solidInfillUnderspeed,0.8
;   supportUnderspeed,0.8
;   rapidXYspeed,9000
;   rapidZspeed,1002
;   minBridgingArea,5
;   bridgingExtraInflation,0
;   bridgingExtrusionMultiplier,1
;   bridgingSpeedMultiplier,0.3
;   useFixedBridgingAngle,0
;   fixedBridgingAngle,0
;   applyBridgingToPerimeters,0
;   filamentDiameters,1.75|1.75|1.75|1.75|1.75|1.75
;   filamentPricesPerKg,26|46|46|46|46|46
;   filamentDensities,1.25|1.25|1.25|1.25|1.25|1.25
;   useMinPrintHeight,0
;   minPrintHeight,78
;   useMaxPrintHeight,0
;   maxPrintHeight,106
;   useDiaphragm,0
;   diaphragmLayerInterval,20
;   robustSlicing,1
;   mergeAllIntoSolid,0
;   onlyRetractWhenCrossingOutline,0
;   retractBetweenLayers,0
;   useRetractionMinTravel,0
;   retractionMinTravel,3
;   retractWhileWiping,1
;   onlyWipeOutlines,1
;   avoidCrossingOutline,0
;   maxMovementDetourFactor,3
;   toolChangeRetractionDistance,0
;   toolChangeExtraRestartDistance,0
;   toolChangeRetractionSpeed,360
;   externalThinWallType,0
;   internalThinWallType,1
;   thinWallAllowedOverlapPercentage,10
;   singleExtrusionMinLength,1
;   singleExtrusionMinPrintingWidthPercentage,50
;   singleExtrusionMaxPrintingWidthPercentage,100
;   singleExtrusionEndpointExtension,0
;   horizontalSizeCompensation,0
G90
M82
M106 S0
M140 S70
M190 S70
M104 S220 T0
M109 S220 T0
G28
; process Process1
; layer 1, Z = 0.200
T0
G92 E0.0000
G1 E-1.0000 F2400
; feature skirt
; tool H0.200 W0.400
G1 Z0.200 F1002
G1 X105.803 Y96.364 F9000
G1 E0.0000 F2400
G92 E0.0000
G1 X105.092 Y96.978 E0.0297 F1080
G1 X105.003 Y97.048 E0.0333
G1 X104.240 Y97.580 E0.0627
G1 X104.160 Y97.631 E0.0656
G1 X103.601 Y97.954 E0.0860
G1 X103.518 Y97.997 E0.0890
G1 X102.675 Y98.391 E0.1184
G1 X102.570 Y98.434 E0.1220
G1 X101.683 Y98.743 E0.1517
G1 X101.574 Y98.775 E0.1553
G1 X100.660 Y98.990 E0.1849
G1 X100.548 Y99.011 E0.1885
G1 X99.616 Y99.131 E0.2182
G1 X99.503 Y99.140 E0.2218
G1 X98.573 Y99.164 E0.2512
G1 X98.479 Y99.162 E0.2542
G1 X97.835 Y99.124 E0.2746
G1 X97.741 Y99.114 E0.2775
G1 X96.821 Y98.979 E0.3069
G1 X96.710 Y98.956 E0.3105
G1 X95.799 Y98.725 E0.3402
G1 X95.691 Y98.691 E0.3438
G1 X94.809 Y98.368 E0.3735
G1 X94.704 Y98.323 E0.3770
G1 X93.860 Y97.910 E0.4067
G1 X93.761 Y97.855 E0.4103
G1 X92.964 Y97.358 E0.4400
G1 X92.871 Y97.293 E0.4436
G1 X92.130 Y96.716 E0.4733
G1 X92.044 Y96.642 E0.4769
G1 X91.365 Y95.992 E0.5065
G1 X91.288 Y95.910 E0.5101
G1 X90.680 Y95.193 E0.5398
G1 X90.611 Y95.103 E0.5434
G1 X90.080 Y94.328 E0.5731
G1 X90.039 Y94.261 E0.5756
G1 X89.687 Y94.798 E0.5958
G1 X89.632 Y94.874 E0.5988
G1 X89.061 Y95.602 E0.6280
G1 X88.986 Y95.687 E0.6316
G1 X88.337 Y96.359 E0.6611
G1 X88.255 Y96.436 E0.6647
G1 X87.547 Y97.031 E0.6939
G1 X87.473 Y97.089 E0.6969
G1 X86.948 Y97.459 E0.7172
G1 X86.869 Y97.510 E0.7201
G1 X86.071 Y97.977 E0.7494
G1 X85.971 Y98.029 E0.7529
G1 X85.120 Y98.416 E0.7824
G1 X85.015 Y98.457 E0.7860
G1 X84.130 Y98.755 E0.8155
G1 X84.021 Y98.785 E0.8191
G1 X83.110 Y98.991 E0.8486
G1 X82.999 Y99.010 E0.8522
G1 X82.071 Y99.122 E0.8817
G1 X81.958 Y99.129 E0.8853
G1 X81.024 Y99.145 E0.9148
G1 X80.911 Y99.141 E0.9184
G1 X79.980 Y99.062 E0.9479
G1 X79.869 Y99.046 E0.9514
G1 X78.951 Y98.872 E0.9810
G1 X78.841 Y98.845 E0.9845
G1 X77.946 Y98.578 E1.0141
G1 X77.840 Y98.540 E1.0176
G1 X76.976 Y98.182 E1.0471
G1 X76.874 Y98.134 E1.0507
G1 X76.052 Y97.690 E1.0802
G1 X75.956 Y97.631 E1.0838
G1 X75.191 Y97.111 E1.1130
G1 X75.116 Y97.055 E1.1160
G1 X74.618 Y96.650 E1.1363
G1 X74.548 Y96.587 E1.1392
G1 X73.882 Y95.945 E1.1685
G1 X73.806 Y95.862 E1.1720
G1 X73.204 Y95.147 E1.2016
G1 X73.135 Y95.058 E1.2051
G1 X72.610 Y94.285 E1.2346
G1 X72.551 Y94.189 E1.2382
G1 X72.107 Y93.367 E1.2677
G1 X72.059 Y93.265 E1.2713
G1 X71.705 Y92.410 E1.3005
G1 X71.672 Y92.322 E1.3035
G1 X71.478 Y91.710 E1.3238
G1 X71.454 Y91.620 E1.3267
G1 X71.250 Y90.717 E1.3560
G1 X71.231 Y90.606 E1.3595
G1 X71.119 Y89.678 E1.3891
G1 X71.112 Y89.566 E1.3926
G1 X71.096 Y88.632 E1.4221
G1 X71.100 Y88.519 E1.4257
G1 X71.179 Y87.588 E1.4552
G1 X71.195 Y87.476 E1.4588
G1 X71.369 Y86.558 E1.4883
G1 X71.396 Y86.449 E1.4919
G1 X71.663 Y85.553 E1.5214
G1 X71.701 Y85.447 E1.5250
G1 X72.055 Y84.592 E1.5542
G1 X72.095 Y84.507 E1.5572
G1 X72.390 Y83.937 E1.5774
G1 X72.437 Y83.856 E1.5804
G1 X72.931 Y83.074 E1.6096
G1 X72.996 Y82.982 E1.6132
G1 X73.573 Y82.247 E1.6427
G1 X73.647 Y82.162 E1.6463
G1 X74.297 Y81.490 E1.6758
G1 X74.379 Y81.413 E1.6794
G1 X75.094 Y80.811 E1.7089
G1 X75.183 Y80.743 E1.7125
G1 X75.956 Y80.217 E1.7420
G1 X76.052 Y80.159 E1.7456
G1 X76.866 Y79.719 E1.7748
G1 X76.951 Y79.678 E1.7778
G1 X77.539 Y79.422 E1.7980
G1 X77.627 Y79.388 E1.8010
G1 X78.504 Y79.094 E1.8302
G1 X78.612 Y79.063 E1.8338
G1 X79.524 Y78.858 E1.8633
G1 X79.635 Y78.838 E1.8669
G1 X80.563 Y78.727 E1.8964
G1 X80.675 Y78.719 E1.9000
G1 X81.610 Y78.703 E1.9295
G1 X81.722 Y78.707 E1.9331
G1 X82.644 Y78.786 E1.9623
G1 X82.737 Y78.798 E1.9652
G1 X83.370 Y78.907 E1.9855
G1 X83.461 Y78.927 E1.9885
G1 X84.356 Y79.161 E2.0177
G1 X84.464 Y79.195 E2.0213
G1 X85.339 Y79.523 E2.0508
G1 X85.442 Y79.568 E2.0544
G1 X86.279 Y79.984 E2.0839
G1 X86.377 Y80.039 E2.0875
G1 X87.167 Y80.538 E2.1170
G1 X87.259 Y80.603 E2.1206
G1 X87.994 Y81.181 E2.1501
G1 X88.079 Y81.255 E2.1536
G1 X88.751 Y81.904 E2.1832
G1 X88.828 Y81.986 E2.1867
G1 X89.430 Y82.701 E2.2163
G1 X89.498 Y82.791 E2.2198
G1 X90.019 Y83.556 E2.2490
G1 X90.054 Y83.613 E2.2512
G1 X90.404 Y83.063 E2.2718
G1 X90.470 Y82.970 E2.2754
G1 X91.053 Y82.234 E2.3050
G1 X91.128 Y82.149 E2.3086
G1 X91.777 Y81.482 E2.3380
G1 X91.846 Y81.418 E2.3410
G1 X92.334 Y80.996 E2.3614
G1 X92.408 Y80.937 E2.3644
G1 X93.162 Y80.392 E2.3938
G1 X93.257 Y80.330 E2.3973
G1 X94.070 Y79.860 E2.4270
G1 X94.171 Y79.809 E2.4306
G1 X95.020 Y79.429 E2.4600
G1 X95.108 Y79.394 E2.4630
G1 X95.718 Y79.182 E2.4834
G1 X95.808 Y79.155 E2.4864
G1 X96.710 Y78.926 E2.5158
G1 X96.821 Y78.904 E2.5193
G1 X97.750 Y78.767 E2.5490
G1 X97.863 Y78.756 E2.5526
G1 X98.792 Y78.716 E2.5820
G1 X98.887 Y78.716 E2.5850
G1 X99.532 Y78.744 E2.6054
G1 X99.626 Y78.752 E2.6084
G1 X100.548 Y78.872 E2.6377
G1 X100.660 Y78.892 E2.6413
G1 X101.574 Y79.108 E2.6710
G1 X101.683 Y79.139 E2.6746
G1 X102.570 Y79.448 E2.7043
G1 X102.675 Y79.491 E2.7079
G1 X103.526 Y79.889 E2.7375
G1 X103.626 Y79.942 E2.7411
G1 X104.432 Y80.426 E2.7708
G1 X104.526 Y80.489 E2.7744
G1 X105.277 Y81.053 E2.8041
G1 X105.364 Y81.126 E2.8077
G1 X106.054 Y81.764 E2.8374
G1 X106.133 Y81.845 E2.8409
G1 X106.753 Y82.551 E2.8706
G1 X106.823 Y82.640 E2.8742
G1 X107.362 Y83.398 E2.9036
G1 X107.414 Y83.477 E2.9066
G1 X107.741 Y84.033 E2.9270
G1 X107.786 Y84.117 E2.9300
G1 X108.187 Y84.956 E2.9593
G1 X108.231 Y85.060 E2.9629
G1 X108.547 Y85.945 E2.9926
G1 X108.580 Y86.053 E2.9962
G1 X108.803 Y86.966 E3.0259
G1 X108.825 Y87.077 E3.0295
G1 X108.953 Y88.008 E3.0591
G1 X108.963 Y88.121 E3.0627
G1 X108.995 Y89.060 E3.0924
G1 X108.993 Y89.173 E3.0960
G1 X108.929 Y90.101 E3.1254
G1 X108.919 Y90.195 E3.1284
G1 X108.820 Y90.833 E3.1488
G1 X108.801 Y90.925 E3.1517
G1 X108.580 Y91.829 E3.1811
G1 X108.547 Y91.937 E3.1847
G1 X108.231 Y92.822 E3.2144
G1 X108.187 Y92.927 E3.2180
G1 X107.782 Y93.774 E3.2477
G1 X107.727 Y93.874 E3.2513
G1 X107.237 Y94.675 E3.2809
G1 X107.173 Y94.769 E3.2845
G1 X106.602 Y95.515 E3.3142
G1 X106.529 Y95.602 E3.3178
G1 X105.885 Y96.286 E3.3475
G1 X105.803 Y96.364 E3.3511
G92 E0.0000
G1 E-1.0000 F2400
; feature inner perimeter
G1 X86.611 Y93.540 F9000
G1 E0.0000 F2400
G92 E0.0000
G1 X86.111 Y94.057 E0.0227 F918
G1 X85.554 Y94.526 E0.0457
G1 X85.176 Y94.793 E0.0603
G1 X84.548 Y95.161 E0.0833
G1 X83.894 Y95.458 E0.1061
G1 X83.212 Y95.687 E0.1288
G1 X82.510 Y95.846 E0.1515
G1 X81.796 Y95.932 E0.1742
G1 X81.077 Y95.944 E0.1970
G1 X80.361 Y95.883 E0.2197
G1 X79.654 Y95.748 E0.2424
G1 X78.965 Y95.542 E0.2651
G1 X78.300 Y95.267 E0.2879
G1 X77.667 Y94.925 E0.3106
G1 X77.066 Y94.516 E0.3336
G1 X76.707 Y94.224 E0.3482
G1 X76.184 Y93.718 E0.3712
G1 X75.720 Y93.168 E0.3939
G1 X75.316 Y92.574 E0.4166
G1 X74.974 Y91.941 E0.4394
G1 X74.695 Y91.268 E0.4624
G1 X74.555 Y90.828 E0.4770
G1 X74.395 Y90.118 E0.5000
G1 X74.309 Y89.403 E0.5227
G1 X74.297 Y88.685 E0.5454
G1 X74.359 Y87.968 E0.5681
G1 X74.493 Y87.261 E0.5909
G1 X74.699 Y86.572 E0.6136
G1 X74.977 Y85.900 E0.6366
G1 X75.190 Y85.489 E0.6512
G1 X75.579 Y84.874 E0.6742
G1 X76.023 Y84.308 E0.6969
G1 X76.523 Y83.791 E0.7196
G1 X77.073 Y83.328 E0.7424
G1 X77.667 Y82.923 E0.7651
G1 X78.308 Y82.577 E0.7881
G1 X78.732 Y82.393 E0.8027
G1 X79.422 Y82.161 E0.8257
G1 X80.123 Y82.003 E0.8484
G1 X80.838 Y81.917 E0.8712
G1 X81.557 Y81.905 E0.8939
G1 X82.282 Y81.967 E0.9169
G1 X82.737 Y82.045 E0.9315
G1 X83.441 Y82.230 E0.9545
G1 X84.115 Y82.482 E0.9772
G1 X84.759 Y82.802 E0.9999
G1 X85.367 Y83.186 E1.0227
G1 X85.933 Y83.630 E1.0454
G1 X86.450 Y84.130 E1.0681
G1 X86.913 Y84.680 E1.0908
G1 X87.323 Y85.282 E1.1138
G1 X87.549 Y85.685 E1.1284
G1 X87.851 Y86.348 E1.1514
G1 X88.080 Y87.029 E1.1742
G1 X88.238 Y87.731 E1.1969
G1 X88.324 Y88.445 E1.2196
G1 X88.336 Y89.164 E1.2423
G1 X88.275 Y89.881 E1.2651
G1 X88.141 Y90.587 E1.2878
G1 X87.935 Y91.276 E1.3105
G1 X87.660 Y91.941 E1.3332
G1 X87.314 Y92.581 E1.3562
G1 X87.060 Y92.968 E1.3709
G1 X86.734 Y93.383 E1.3875
G1 X86.611 Y93.540 F918
G92 E0.0000
G1 E-1.0000 F2400
G1 X86.912 Y93.804 F9000
G1 E0.0000 F2400
G92 E0.0000
G1 X86.384 Y94.350 E0.0240 F918
G1 X85.799 Y94.843 E0.0482
G1 X85.393 Y95.130 E0.0639
G1 X84.732 Y95.516 E0.0881
G1 X84.040 Y95.831 E0.1121
G1 X83.320 Y96.073 E0.1361
G1 X82.578 Y96.241 E0.1601
G1 X81.823 Y96.331 E0.1842
G1 X81.063 Y96.344 E0.2082
G1 X80.306 Y96.279 E0.2322
G1 X79.559 Y96.137 E0.2562
G1 X78.831 Y95.920 E0.2803
G1 X78.128 Y95.629 E0.3043
G1 X77.459 Y95.268 E0.3283
G1 X76.827 Y94.837 E0.3525
G1 X76.441 Y94.524 E0.3682
G1 X75.891 Y93.992 E0.3924
G1 X75.401 Y93.410 E0.4164
G1 X74.973 Y92.782 E0.4404
G1 X74.612 Y92.113 E0.4644
G1 X74.319 Y91.406 E0.4886
G1 X74.169 Y90.932 E0.5043
G1 X74.001 Y90.186 E0.5285
G1 X73.910 Y89.431 E0.5525
G1 X73.897 Y88.671 E0.5765
G1 X73.962 Y87.913 E0.6005
G1 X74.104 Y87.166 E0.6246
G1 X74.321 Y86.438 E0.6486
G1 X74.614 Y85.731 E0.6728
G1 X74.843 Y85.290 E0.6885
G1 X75.251 Y84.643 E0.7126
G1 X75.721 Y84.045 E0.7367
G1 X76.249 Y83.498 E0.7607
G1 X76.831 Y83.009 E0.7847
G1 X77.459 Y82.581 E0.8087
G1 X78.133 Y82.217 E0.8329
G1 X78.588 Y82.019 E0.8486
G1 X79.314 Y81.775 E0.8728
G1 X80.055 Y81.608 E0.8968
G1 X80.810 Y81.517 E0.9208
G1 X81.570 Y81.504 E0.9448
G1 X82.333 Y81.570 E0.9690
G1 X82.822 Y81.654 E0.9847
G1 X83.563 Y81.848 E1.0089
G1 X84.275 Y82.115 E1.0329
G1 X84.956 Y82.453 E1.0570
G1 X85.598 Y82.859 E1.0810
G1 X86.196 Y83.329 E1.1050
G1 X86.743 Y83.857 E1.1290
G1 X87.232 Y84.438 E1.1530
G1 X87.663 Y85.071 E1.1772
G1 X87.906 Y85.504 E1.1929
G1 X88.223 Y86.201 E1.2171
G1 X88.466 Y86.921 E1.2411
G1 X88.633 Y87.663 E1.2651
G1 X88.724 Y88.418 E1.2892
G1 X88.737 Y89.178 E1.3132
G1 X88.672 Y89.935 E1.3372
G1 X88.530 Y90.682 E1.3612
G1 X88.312 Y91.410 E1.3852
G1 X88.021 Y92.113 E1.4093
G1 X87.658 Y92.786 E1.4335
G1 X87.385 Y93.202 E1.4491
G1 X87.036 Y93.646 E1.4670
G1 X86.912 Y93.804 F918
G92 E0.0000
G1 E-1.0000 F2400
; feature outer perimeter
G1 X87.214 Y94.067 F9000
G1 E0.0000 F2400
G92 E0.0000
G1 X86.658 Y94.643 E0.0253 F756
