; G-Code generated by Simplify3D(R) Version 4.1.1
; May 29, 2020 at 9:28:26 AM
; Settings Summary
;   processName,Process1
;   applyToModels,Aileron Servo Tray - PLA,Elev Control Horn - PLA,Main Landing Gear Strut - PLA, ABS, ASA, or PETG,Servo Tray - PLA,Tail Wheel Bracket - PLA, ABS, ASA, or PETG,Aileron Servo Tray - PLA(2)
;   profileName,Generic GCode 3DAeroventures PLA .2 layers (modified)
;   profileVersion,2020-05-20 12:25:51
;   baseProfile,Prusa Research Original Prusa i3 MK3 (modified)
;   printMaterial,PLA
;   printQuality,Medium
;   printExtruders,
;   extruderName,Primary Extruder
;   extruderToolheadNumber,0
;   extruderDiameter,0.4
;   extruderAutoWidth,0
;   extruderWidth,0.4
;   extrusionMultiplier,0.95
;   extruderUseRetract,1
;   extruderRetractionDistance,1
;   extruderExtraRestartDistance,0
;   extruderRetractionZLift,0
;   extruderRetractionSpeed,2400
;   extruderUseCoasting,1
;   extruderCoastingDistance,0.2
;   extruderUseWipe,1
;   extruderWipeDistance,2
;   primaryExtruder,0
;   layerHeight,0.2
;   topSolidLayers,4
;   bottomSolidLayers,4
;   perimeterOutlines,3
;   printPerimetersInsideOut,1
;   startPointOption,3
;   startPointOriginX,200
;   startPointOriginY,200
;   sequentialIslands,0
;   spiralVaseMode,0
;   firstLayerHeightPercentage,100
;   firstLayerWidthPercentage,100
;   firstLayerUnderspeed,0.3
;   useRaft,0
;   raftExtruder,0
;   raftTopLayers,3
;   raftBaseLayers,2
;   raftOffset,3
;   raftSeparationDistance,0.14
;   raftTopInfill,100
;   aboveRaftSpeedMultiplier,0.3
;   useSkirt,1
;   skirtExtruder,0
;   skirtLayers,1
;   skirtOutlines,1
;   skirtOffset,2
;   usePrimePillar,0
;   primePillarExtruder,999
;   primePillarWidth,12
;   primePillarLocation,7
;   primePillarSpeedMultiplier,1
;   useOozeShield,0
;   oozeShieldExtruder,999
;   oozeShieldOffset,2
;   oozeShieldOutlines,1
;   oozeShieldSidewallShape,1
;   oozeShieldSidewallAngle,30
;   oozeShieldSpeedMultiplier,1
;   infillExtruder,0
;   internalInfillPattern,Rectilinear
;   externalInfillPattern,Rectilinear
;   infillPercentage,50
;   outlineOverlapPercentage,10
;   infillExtrusionWidthPercentage,100
;   minInfillLength,5
;   infillLayerInterval,1
;   internalInfillAngles,45,-45
;   overlapInternalInfillAngles,0
;   externalInfillAngles,45,-45
;   generateSupport,0
;   supportExtruder,0
;   supportInfillPercentage,30
;   supportExtraInflation,0
;   supportBaseLayers,2
;   denseSupportExtruder,0
;   denseSupportLayers,3
;   denseSupportInfillPercentage,70
;   supportLayerInterval,1
;   supportHorizontalPartOffset,0.8
;   supportUpperSeparationLayers,1
;   supportLowerSeparationLayers,1
;   supportType,0
;   supportGridSpacing,4
;   maxOverhangAngle,45
;   supportAngles,0
;   temperatureName,Primary Extruder,Heated Bed
;   temperatureNumber,0,0
;   temperatureSetpointCount,1,1
;   temperatureSetpointLayers,1,1
;   temperatureSetpointTemperatures,220,70
;   temperatureStabilizeAtStartup,1,1
;   temperatureHeatedBed,0,1
;   fanLayers,1,2
;   fanSpeeds,0,30
;   blipFanToFullPower,1
;   adjustSpeedForCooling,1
;   minSpeedLayerTime,15
;   minCoolingSpeedSlowdown,10
;   increaseFanForCooling,0
;   minFanLayerTime,45
;   maxCoolingFanSpeed,100
;   increaseFanForBridging,0
;   bridgingFanSpeed,100
;   use5D,1
;   relativeEdistances,0
;   allowEaxisZeroing,1
;   independentExtruderAxes,0
;   includeM10123,0
;   stickySupport,1
;   applyToolheadOffsets,0
;   gcodeXoffset,0
;   gcodeYoffset,0
;   gcodeZoffset,0
;   overrideMachineDefinition,1
;   machineTypeOverride,0
;   strokeXoverride,180
;   strokeYoverride,180
;   strokeZoverride,180
;   originOffsetXoverride,0
;   originOffsetYoverride,0
;   originOffsetZoverride,0
;   homeXdirOverride,-1
;   homeYdirOverride,-1
;   homeZdirOverride,-1
;   flipXoverride,1
;   flipYoverride,-1
;   flipZoverride,1
;   toolheadOffsets,0,0|0,0|0,0|0,0|0,0|0,0
;   overrideFirmwareConfiguration,0
;   firmwareTypeOverride,RepRap (Marlin/Repetier/Sprinter)
;   GPXconfigOverride,r2
;   baudRateOverride,115200
;   overridePrinterModels,1
;   printerModelsOverride
;   startingGcode,G28
;   layerChangeGcode,
;   retractionGcode,
;   toolChangeGcode,
;   endingGcode,M104 S0 ; turn off extruder,M140 S0 ; turn off bed,G28 X0 ; home X axis,M84 ; disable motors,M107 ; turn off fan
;   exportFileFormat,gcode
;   celebration,0
;   celebrationSong,Funky Town
;   postProcessing,
;   defaultSpeed,3600
;   outlineUnderspeed,0.7
;   solidInfillUnderspeed,0.8
;   supportUnderspeed,0.8
;   rapidXYspeed,9000
;   rapidZspeed,1002
;   minBridgingArea,5
;   bridgingExtraInflation,0
;   bridgingExtrusionMultiplier,1
;   bridgingSpeedMultiplier,0.3
;   useFixedBridgingAngle,0
;   fixedBridgingAngle,0
;   applyBridgingToPerimeters,0
;   filamentDiameters,1.75|1.75|1.75|1.75|1.75|1.75
;   filamentPricesPerKg,26|46|46|46|46|46
;   filamentDensities,1.25|1.25|1.25|1.25|1.25|1.25
;   useMinPrintHeight,0
;   minPrintHeight,78
;   useMaxPrintHeight,0
;   maxPrintHeight,106
;   useDiaphragm,0
;   diaphragmLayerInterval,20
;   robustSlicing,1
;   mergeAllIntoSolid,0
;   onlyRetractWhenCrossingOutline,0
;   retractBetweenLayers,0
;   useRetractionMinTravel,0
;   retractionMinTravel,3
;   retractWhileWiping,1
;   onlyWipeOutlines,1
;   avoidCrossingOutline,0
;   maxMovementDetourFactor,3
;   toolChangeRetractionDistance,0
;   toolChangeExtraRestartDistance,0
;   toolChangeRetractionSpeed,360
;   externalThinWallType,0
;   internalThinWallType,1
;   thinWallAllowedOverlapPercentage,10
;   singleExtrusionMinLength,1
;   singleExtrusionMinPrintingWidthPercentage,50
;   singleExtrusionMaxPrintingWidthPercentage,100
;   singleExtrusionEndpointExtension,0
;   horizontalSizeCompensation,0
G90
M82
M106 S0
M140 S70
M190 S70
M104 S220 T0
M109 S220 T0
G28
; process Process1
; layer 1, Z = 0.200
T0
G92 E0.0000
G1 E-1.0000 F2400
; feature skirt
; tool H0.200 W0.400
G1 Z0.200 F1002
G1 X161.599 Y90.418 F9000
G1 E0.0000 F2400
G92 E0.0000
G1 X157.005 Y90.097 E0.1455 F1080
G1 X155.809 Y88.721 E0.2031
G1 X156.148 Y83.873 E0.3567
G1 X156.149 Y83.565 E0.3664
G1 X156.121 Y83.330 E0.3739
G1 X156.061 Y83.098 E0.3814
G1 X155.898 Y82.727 E0.3943
G1 X155.692 Y82.429 E0.4057
G1 X155.387 Y82.131 E0.4192
G1 X113.296 Y52.444 E2.0466
G1 X113.014 Y52.264 E2.0572
G1 X112.781 Y52.146 E2.0655
G1 X112.496 Y52.032 E2.0752
G1 X112.241 Y51.959 E2.0835
G1 X111.939 Y51.903 E2.0932
G1 X111.710 Y51.883 E2.1005
G1 X109.241 Y51.965 E2.1786
G1 X109.219 Y51.966 E2.1793
G1 X107.097 Y51.994 E2.2463
G1 X107.083 Y51.994 E2.2468
G1 X76.743 Y51.994 E3.2054
G1 X76.729 Y51.994 E3.2059
G1 X74.607 Y51.966 E3.2729
G1 X74.585 Y51.965 E3.2736
G1 X72.127 Y51.882 E3.3513
G1 X71.868 Y51.905 E3.3596
G1 X71.588 Y51.958 E3.3686
G1 X71.326 Y52.033 E3.3772
G1 X71.073 Y52.133 E3.3858
G1 X70.809 Y52.266 E3.3951
G1 X70.530 Y52.444 E3.4056
G1 X28.437 Y82.132 E5.0331
G1 X28.118 Y82.443 E5.0472
G1 X28.005 Y82.595 E5.0531
G1 X27.819 Y82.955 E5.0659
G1 X27.703 Y83.351 E5.0790
G1 X27.677 Y83.567 E5.0859
G1 X27.678 Y83.873 E5.0955
G1 X28.017 Y88.721 E5.2491
G1 X26.821 Y90.097 E5.3067
G1 X22.227 Y90.418 E5.4522
G1 X20.852 Y89.222 E5.5098
G1 X20.284 Y81.101 E5.7670
G1 X20.779 Y80.058 E5.8035
G1 X70.798 Y44.791 E7.7373
G1 X72.234 Y44.816 E7.7827
G1 X73.444 Y45.731 E7.8306
G1 X73.863 Y45.987 E7.8462
G1 X74.319 Y46.214 E7.8622
G1 X74.792 Y46.402 E7.8783
G1 X75.278 Y46.550 E7.8944
G1 X75.776 Y46.657 E7.9105
G1 X76.281 Y46.721 E7.9266
G1 X76.836 Y46.744 E7.9441
G1 X80.332 Y46.744 E8.0546
G1 X80.402 Y46.674 E8.0577
G1 X83.424 Y46.674 E8.1532
G1 X83.494 Y46.744 E8.1563
G1 X100.332 Y46.744 E8.6883
G1 X100.402 Y46.674 E8.6915
G1 X103.424 Y46.674 E8.7870
G1 X103.494 Y46.744 E8.7901
G1 X106.990 Y46.744 E8.9006
G1 X107.545 Y46.721 E8.9181
G1 X108.050 Y46.657 E8.9342
G1 X108.548 Y46.550 E8.9503
G1 X109.034 Y46.402 E8.9663
G1 X109.507 Y46.214 E8.9824
G1 X109.963 Y45.987 E8.9985
G1 X110.382 Y45.731 E9.0140
G1 X111.592 Y44.816 E9.0620
G1 X113.028 Y44.791 E9.1073
G1 X163.047 Y80.058 E11.0411
G1 X163.542 Y81.101 E11.0776
G1 X162.974 Y89.222 E11.3349
G1 X161.599 Y90.418 E11.3924
G92 E0.0000
G1 E-1.0000 F2400
G1 X117.765 Y112.675 F9000
G1 E0.0000 F2400
G92 E0.0000
G1 X117.316 Y113.008 E0.0176 F1080
G1 X116.902 Y113.199 E0.0321
G1 X116.351 Y113.326 E0.0499
G1 X116.104 Y113.354 E0.0578
G1 X108.580 Y113.354 E0.2955
G1 X108.298 Y113.382 E0.3045
G1 X108.068 Y113.454 E0.3121
G1 X108.012 Y113.483 E0.3141
G1 X107.964 Y113.515 E0.3159
G1 X107.766 Y113.702 E0.3245
G1 X107.702 Y113.786 E0.3279
G1 X107.269 Y114.467 E0.3533
G1 X107.142 Y114.630 E0.3599
G1 X106.538 Y115.272 E0.3877
G1 X106.408 Y115.390 E0.3933
G1 X105.953 Y115.741 E0.4114
G1 X105.849 Y115.812 E0.4154
G1 X105.373 Y116.099 E0.4330
G1 X105.224 Y116.174 E0.4382
G1 X104.420 Y116.505 E0.4657
G1 X104.245 Y116.560 E0.4715
G1 X103.543 Y116.720 E0.4942
G1 X103.402 Y116.742 E0.4988
G1 X102.825 Y116.796 E0.5171
G1 X102.722 Y116.801 E0.5203
G1 X96.060 Y116.804 E0.7308
G1 X95.493 Y116.237 E0.7562
G1 X95.493 Y118.784 E0.8366
G1 X94.205 Y120.073 E0.8942
G1 X82.572 Y120.074 E1.2618
G1 X82.039 Y119.541 E1.2856
G1 X81.372 Y120.208 E1.3154
G1 X69.739 Y120.209 E1.6830
G1 X68.450 Y118.921 E1.7406
G1 X68.448 Y89.398 E2.6734
G1 X69.016 Y88.830 E2.6988
G1 X68.029 Y87.844 E2.7429
G1 X68.029 Y57.211 E3.7108
G1 X69.317 Y55.922 E3.7683
G1 X114.285 Y55.922 E5.1892
G1 X115.574 Y57.211 E5.2468
G1 X115.574 Y87.844 E6.2147
G1 X114.285 Y89.132 E6.2723
G1 X110.487 Y89.132 E6.3923
G1 X110.694 Y89.637 E6.4095
G1 X110.753 Y89.826 E6.4158
G1 X110.869 Y90.373 E6.4334
G1 X110.891 Y90.536 E6.4386
G1 X110.913 Y90.902 E6.4502
G1 X110.915 Y90.968 E6.4523
G1 X110.915 Y95.543 E6.5969
G1 X110.580 Y96.351 E6.6245
G1 X109.734 Y97.198 E6.6623
G1 X109.773 Y97.230 E6.6639
G1 X110.203 Y97.657 E6.6831
G1 X110.313 Y97.784 E6.6884
G1 X110.665 Y98.259 E6.7071
G1 X110.755 Y98.402 E6.7124
G1 X111.030 Y98.925 E6.7311
G1 X111.097 Y99.080 E6.7364
G1 X111.289 Y99.639 E6.7551
G1 X111.332 Y99.802 E6.7604
G1 X111.435 Y100.374 E6.7788
G1 X111.451 Y100.521 E6.7835
G1 X111.472 Y100.986 E6.7982
G1 X111.470 Y101.121 E6.8024
G1 X111.423 Y101.708 E6.8210
G1 X111.396 Y101.879 E6.8265
G1 X111.258 Y102.456 E6.8453
G1 X111.215 Y102.594 E6.8498
G1 X111.060 Y102.999 E6.8635
G1 X110.999 Y103.130 E6.8681
G1 X110.716 Y103.651 E6.8868
G1 X110.622 Y103.796 E6.8923
G1 X110.243 Y104.290 E6.9119
G1 X110.106 Y104.438 E6.9183
G1 X109.526 Y104.960 E6.9430
G1 X109.364 Y105.081 E6.9494
G1 X108.834 Y105.406 E6.9690
G1 X108.680 Y105.485 E6.9745
G1 X108.131 Y105.712 E6.9932
G1 X107.995 Y105.758 E6.9978
G1 X107.562 Y105.874 E7.0120
G1 X107.392 Y105.906 E7.0174
G1 X106.672 Y105.981 E7.0403
G1 X106.557 Y105.987 E7.0439
G1 X106.369 Y105.987 E7.0499
G1 X106.857 Y106.450 E7.0711
G1 X106.959 Y106.561 E7.0759
G1 X107.313 Y107.003 E7.0938
G1 X107.386 Y107.106 E7.0978
G1 X107.730 Y107.653 E7.1182
G1 X107.873 Y107.813 E7.1250
G1 X108.054 Y107.946 E7.1321
G1 X108.113 Y107.976 E7.1342
G1 X108.205 Y108.010 E7.1373
G1 X108.306 Y108.033 E7.1406
G1 X108.559 Y108.054 E7.1486
G1 X116.185 Y108.055 E7.3895
G1 X116.516 Y108.106 E7.4001
G1 X117.152 Y108.306 E7.4212
G1 X117.640 Y108.617 E7.4395
G1 X118.209 Y109.235 E7.4660
G1 X118.508 Y109.984 E7.4915
G1 X118.530 Y111.220 E7.5306
G1 X118.376 Y111.810 E7.5498
G1 X118.059 Y112.347 E7.5695
G1 X117.765 Y112.675 E7.5834
G92 E0.0000
G1 E-1.0000 F2400
; feature inner perimeter
G1 X24.691 Y87.038 F9000
G1 E0.0000 F2400
G92 E0.0000
G1 X23.910 Y87.092 E0.0247 F918
G1 X23.555 Y82.016 E0.1855
G1 X24.853 Y81.101 E0.2357
G1 X25.066 Y81.280 E0.2445
G1 X24.843 Y81.748 E0.2609
G1 X24.714 Y82.107 E0.2729
G1 X24.557 Y82.718 E0.2929
G1 X24.476 Y83.377 E0.3138
G1 X24.479 Y83.992 E0.3333
G1 X24.678 Y86.838 E0.4234
G1 X24.691 Y87.038 F918
G92 E0.0000
G1 E-1.0000 F2400
G1 X71.703 Y48.707 F9000
G1 E0.0000 F2400
G92 E0.0000
G1 X71.430 Y48.732 E0.0087 F918
G1 X71.191 Y48.777 E0.0163
G1 X71.078 Y48.509 E0.0255
G1 X71.455 Y48.243 E0.0401
G1 X71.649 Y48.385 E0.0477
G1 X71.762 Y48.454 E0.0519
G1 X71.748 Y48.513 E0.0538
G1 X71.703 Y48.707 F918
G92 E0.0000
G1 E-1.0000 F2400
G1 X112.638 Y48.778 F9000
G1 E0.0000 F2400
G92 E0.0000
G1 X112.372 Y48.729 E0.0085 F918
G1 X112.124 Y48.707 E0.0164
G1 X112.065 Y48.453 E0.0247
G1 X112.178 Y48.385 E0.0288
G1 X112.371 Y48.243 E0.0364
G1 X112.751 Y48.511 E0.0511
G1 X112.716 Y48.594 E0.0539
G1 X112.638 Y48.778 F918
G92 E0.0000
G1 E-1.0000 F2400
G1 X159.916 Y87.092 F9000
G1 E0.0000 F2400
G92 E0.0000
G1 X159.135 Y87.038 E0.0247 F918
G1 X159.347 Y83.992 E0.1212
G1 X159.350 Y83.378 E0.1406
G1 X159.272 Y82.736 E0.1610
G1 X159.100 Y82.067 E0.1829
G1 X158.874 Y81.498 E0.2022
G1 X158.768 Y81.291 E0.2096
G1 X158.981 Y81.106 E0.2185
G1 X160.271 Y82.016 E0.2684
G1 X159.930 Y86.893 E0.4228
G1 X159.916 Y87.092 F918
G92 E0.0000
G1 E-1.0000 F2400
G1 X160.287 Y87.519 F9000
G1 E0.0000 F2400
G92 E0.0000
G1 X158.708 Y87.409 E0.0500 F918
G1 X158.947 Y83.977 E0.1587
G1 X158.950 Y83.401 E0.1769
G1 X158.878 Y82.810 E0.1957
G1 X158.719 Y82.191 E0.2159
G1 X158.509 Y81.664 E0.2339
G1 X158.348 Y81.350 E0.2450
G1 X158.035 Y80.864 E0.2633
G1 X157.835 Y80.610 E0.2735
G1 X157.437 Y80.193 E0.2917
G1 X157.169 Y79.961 E0.3029
G1 X114.855 Y50.117 E1.9390
G1 X114.405 Y49.831 E1.9558
G1 X113.938 Y49.592 E1.9724
G1 X113.402 Y49.379 E1.9906
G1 X112.885 Y49.230 E2.0076
G1 X112.318 Y49.126 E2.0258
G1 X111.795 Y49.079 E2.0424
G1 X111.266 Y49.082 E2.0591
G1 X110.616 Y49.108 E2.0797
G1 X110.544 Y48.826 E2.0889
G1 X111.319 Y48.439 E2.1163
G1 X111.955 Y48.052 E2.1398
G1 X112.367 Y47.751 E2.1559
G1 X160.685 Y81.819 E4.0240
G1 X160.301 Y87.320 E4.1982
G1 X160.287 Y87.519 F918
G92 E0.0000
G1 E-1.0000 F2400
G1 X73.210 Y49.108 F9000
G1 E0.0000 F2400
G92 E0.0000
G1 X72.560 Y49.082 E0.0206 F918
G1 X72.042 Y49.079 E0.0369
G1 X71.485 Y49.128 E0.0546
G1 X70.940 Y49.231 E0.0721
G1 X70.425 Y49.379 E0.0891
G1 X69.926 Y49.575 E0.1060
G1 X69.422 Y49.831 E0.1239
G1 X68.971 Y50.117 E0.1407
G1 X26.658 Y79.961 E1.7768
G1 X26.403 Y80.179 E1.7874
G1 X25.997 Y80.602 E1.8059
G1 X25.632 Y81.093 E1.8253
G1 X25.460 Y81.382 E1.8359
G1 X25.213 Y81.903 E1.8541
G1 X25.096 Y82.225 E1.8649
G1 X24.951 Y82.793 E1.8834
G1 X24.876 Y83.401 E1.9028
G1 X24.879 Y83.977 E1.9210
G1 X25.118 Y87.409 E2.0297
G1 X23.539 Y87.519 E2.0797
G1 X23.141 Y81.819 E2.2603
G1 X71.459 Y47.751 E4.1283
G1 X71.871 Y48.052 E4.1445
G1 X72.507 Y48.439 E4.1680
G1 X73.282 Y48.826 E4.1954
G1 X73.260 Y48.914 E4.1982
G1 X73.210 Y49.108 F918
G92 E0.0000
G1 E-1.0000 F2400
; feature outer perimeter
G1 X160.658 Y87.946 F9000
G1 E0.0000 F2400
G92 E0.0000
G1 X158.281 Y87.780 E0.0753 F756
G1 X158.547 Y83.962 E0.1962
G1 X158.550 Y83.425 E0.2132
G1 X158.484 Y82.885 E0.2304
G1 X158.338 Y82.315 E0.2490
G1 X158.144 Y81.829 E0.2655
G1 X158.001 Y81.549 E0.2754
G1 X157.709 Y81.097 E0.2924
G1 X157.533 Y80.872 E0.3015
G1 X157.161 Y80.483 E0.3185
G1 X156.923 Y80.277 E0.3284
G1 X114.632 Y50.450 E1.9636
G1 X114.206 Y50.179 E1.9796
G1 X113.772 Y49.957 E1.9950
G1 X113.273 Y49.758 E2.0120
G1 X112.793 Y49.620 E2.0277
G1 X112.264 Y49.523 E2.0447
G1 X111.779 Y49.479 E2.0601
G1 X111.275 Y49.482 E2.0760
G1 X109.173 Y49.566 E2.1425
G1 X107.074 Y49.594 E2.2088
G1 X76.752 Y49.594 E3.1669
G1 X74.653 Y49.566 E3.2332
G1 X72.551 Y49.482 E3.2997
G1 X72.058 Y49.479 E3.3153
G1 X71.539 Y49.525 E3.3317
G1 X71.033 Y49.620 E3.3480
G1 X70.554 Y49.758 E3.3638
G1 X70.090 Y49.940 E3.3795
G1 X69.620 Y50.179 E3.3962
G1 X69.194 Y50.450 E3.4121
G1 X26.904 Y80.277 E5.0473
G1 X26.678 Y80.470 E5.0567
G1 X26.303 Y80.860 E5.0738
G1 X25.966 Y81.316 E5.0917
G1 X25.813 Y81.571 E5.1011
G1 X25.582 Y82.057 E5.1181
