; G-Code generated by Simplify3D(R) Version 4.1.1
; May 29, 2020 at 9:33:13 AM
; Settings Summary
;   processName,Process1
;   applyToModels,Tail Wheel - TPE
;   profileName,3DAeroventures 95A TPE Profile
;   profileVersion,2020-05-29 09:08:16
;   baseProfile,Prusa Research Original Prusa i3 MK3(2)
;   printMaterial,PolyFlex
;   printQuality,Medium
;   printExtruders,
;   extruderName,Primary Extruder
;   extruderToolheadNumber,0
;   extruderDiameter,0.4
;   extruderAutoWidth,0
;   extruderWidth,0.4
;   extrusionMultiplier,1
;   extruderUseRetract,0
;   extruderRetractionDistance,3.9
;   extruderExtraRestartDistance,0
;   extruderRetractionZLift,0.04
;   extruderRetractionSpeed,2400
;   extruderUseCoasting,0
;   extruderCoastingDistance,2
;   extruderUseWipe,0
;   extruderWipeDistance,2
;   primaryExtruder,0
;   layerHeight,0.2
;   topSolidLayers,4
;   bottomSolidLayers,3
;   perimeterOutlines,2
;   printPerimetersInsideOut,1
;   startPointOption,2
;   startPointOriginX,0
;   startPointOriginY,0
;   sequentialIslands,0
;   spiralVaseMode,0
;   firstLayerHeightPercentage,150
;   firstLayerWidthPercentage,100
;   firstLayerUnderspeed,0.5
;   useRaft,0
;   raftExtruder,0
;   raftTopLayers,3
;   raftBaseLayers,2
;   raftOffset,3
;   raftSeparationDistance,0.14
;   raftTopInfill,100
;   aboveRaftSpeedMultiplier,0.3
;   useSkirt,1
;   skirtExtruder,0
;   skirtLayers,1
;   skirtOutlines,2
;   skirtOffset,4
;   usePrimePillar,0
;   primePillarExtruder,999
;   primePillarWidth,12
;   primePillarLocation,7
;   primePillarSpeedMultiplier,1
;   useOozeShield,0
;   oozeShieldExtruder,999
;   oozeShieldOffset,2
;   oozeShieldOutlines,1
;   oozeShieldSidewallShape,1
;   oozeShieldSidewallAngle,30
;   oozeShieldSpeedMultiplier,1
;   infillExtruder,0
;   internalInfillPattern,Rectilinear
;   externalInfillPattern,Rectilinear
;   infillPercentage,10
;   outlineOverlapPercentage,50
;   infillExtrusionWidthPercentage,100
;   minInfillLength,1
;   infillLayerInterval,1
;   internalInfillAngles,45,-45
;   overlapInternalInfillAngles,0
;   externalInfillAngles,45,-45
;   generateSupport,0
;   supportExtruder,0
;   supportInfillPercentage,30
;   supportExtraInflation,0
;   supportBaseLayers,1
;   denseSupportExtruder,0
;   denseSupportLayers,0
;   denseSupportInfillPercentage,70
;   supportLayerInterval,1
;   supportHorizontalPartOffset,0.3
;   supportUpperSeparationLayers,1
;   supportLowerSeparationLayers,1
;   supportType,0
;   supportGridSpacing,4
;   maxOverhangAngle,45
;   supportAngles,0
;   temperatureName,Primary Extruder,Heated Bed
;   temperatureNumber,0,0
;   temperatureSetpointCount,1,1
;   temperatureSetpointLayers,1,1
;   temperatureSetpointTemperatures,230,40
;   temperatureStabilizeAtStartup,1,1
;   temperatureHeatedBed,0,1
;   fanLayers,1
;   fanSpeeds,50
;   blipFanToFullPower,0
;   adjustSpeedForCooling,1
;   minSpeedLayerTime,10
;   minCoolingSpeedSlowdown,10
;   increaseFanForCooling,0
;   minFanLayerTime,45
;   maxCoolingFanSpeed,100
;   increaseFanForBridging,0
;   bridgingFanSpeed,100
;   use5D,1
;   relativeEdistances,0
;   allowEaxisZeroing,1
;   independentExtruderAxes,0
;   includeM10123,0
;   stickySupport,1
;   applyToolheadOffsets,0
;   gcodeXoffset,0
;   gcodeYoffset,0
;   gcodeZoffset,0
;   overrideMachineDefinition,1
;   machineTypeOverride,0
;   strokeXoverride,180
;   strokeYoverride,180
;   strokeZoverride,180
;   originOffsetXoverride,0
;   originOffsetYoverride,0
;   originOffsetZoverride,0
;   homeXdirOverride,-1
;   homeYdirOverride,-1
;   homeZdirOverride,-1
;   flipXoverride,1
;   flipYoverride,-1
;   flipZoverride,1
;   toolheadOffsets,0,0|0,0|0,0|0,0|0,0|0,0
;   overrideFirmwareConfiguration,0
;   firmwareTypeOverride,RepRap (Marlin/Repetier/Sprinter)
;   GPXconfigOverride,r2
;   baudRateOverride,115200
;   overridePrinterModels,1
;   printerModelsOverride
;   startingGcode,G28
;   layerChangeGcode,
;   retractionGcode,
;   toolChangeGcode,
;   endingGcode,M104 S0 ; turn off extruder,M140 S0 ; turn off bed,G28 X0 ; home X axis,M84 ; disable motors,M107 ; turn off fan
;   exportFileFormat,gcode
;   celebration,0
;   celebrationSong,Funky Town
;   postProcessing,
;   defaultSpeed,1500
;   outlineUnderspeed,1
;   solidInfillUnderspeed,1
;   supportUnderspeed,1
;   rapidXYspeed,7200
;   rapidZspeed,1002
;   minBridgingArea,50
;   bridgingExtraInflation,0
;   bridgingExtrusionMultiplier,0.95
;   bridgingSpeedMultiplier,0.4
;   useFixedBridgingAngle,0
;   fixedBridgingAngle,0
;   applyBridgingToPerimeters,0
;   filamentDiameters,1.75|1.75|1.75|1.75|1.75|1.75
;   filamentPricesPerKg,40|46|46|46|46|46
;   filamentDensities,1.12|1.25|1.25|1.25|1.25|1.25
;   useMinPrintHeight,0
;   minPrintHeight,0
;   useMaxPrintHeight,0
;   maxPrintHeight,0
;   useDiaphragm,0
;   diaphragmLayerInterval,20
;   robustSlicing,1
;   mergeAllIntoSolid,0
;   onlyRetractWhenCrossingOutline,0
;   retractBetweenLayers,0
;   useRetractionMinTravel,0
;   retractionMinTravel,3
;   retractWhileWiping,0
;   onlyWipeOutlines,0
;   avoidCrossingOutline,1
;   maxMovementDetourFactor,999
;   toolChangeRetractionDistance,12
;   toolChangeExtraRestartDistance,-0.5
;   toolChangeRetractionSpeed,600
;   externalThinWallType,0
;   internalThinWallType,1
;   thinWallAllowedOverlapPercentage,20
;   singleExtrusionMinLength,1
;   singleExtrusionMinPrintingWidthPercentage,50
;   singleExtrusionMaxPrintingWidthPercentage,190
;   singleExtrusionEndpointExtension,0.2
;   horizontalSizeCompensation,0
G90
M82
M106 S128
M140 S40
M190 S40
M104 S230 T0
M109 S230 T0
G28
; process Process1
; layer 1, Z = 0.300
T0
; feature skirt
; tool H0.300 W0.400
G1 Z0.300 F1002
G1 X83.828 Y83.350 F7200
G92 E0.0000
G1 X84.745 Y82.546 E0.0609 F750
G1 X85.099 Y82.292 E0.0826
G1 X86.150 Y81.676 E0.1433
G1 X86.453 Y81.527 E0.1602
G1 X87.130 Y81.254 E0.1966
G1 X87.342 Y81.180 E0.2078
G1 X87.963 Y80.998 E0.2401
G1 X88.187 Y80.944 E0.2516
G1 X88.877 Y80.815 E0.2866
G1 X89.122 Y80.782 E0.2989
G1 X89.893 Y80.722 E0.3376
G1 X90.239 Y80.721 E0.3548
G1 X91.411 Y80.806 E0.4134
G1 X91.728 Y80.851 E0.4294
G1 X92.357 Y80.986 E0.4615
G1 X92.568 Y81.041 E0.4724
G1 X93.237 Y81.253 E0.5074
G1 X93.468 Y81.340 E0.5197
G1 X94.160 Y81.643 E0.5574
G1 X94.443 Y81.792 E0.5733
G1 X95.347 Y82.349 E0.6263
G1 X95.598 Y82.528 E0.6417
G1 X96.153 Y82.983 E0.6775
G1 X96.329 Y83.143 E0.6894
G1 X96.809 Y83.627 E0.7234
G1 X96.959 Y83.794 E0.7346
G1 X97.368 Y84.296 E0.7669
G1 X97.504 Y84.482 E0.7784
G1 X97.890 Y85.067 E0.8134
G1 X98.015 Y85.281 E0.8257
G1 X98.341 Y85.915 E0.8613
G1 X98.433 Y86.117 E0.8724
G1 X98.653 Y86.671 E0.9021
G1 X98.725 Y86.879 E0.9131
G1 X98.918 Y87.543 E0.9476
G1 X98.969 Y87.759 E0.9586
G1 X99.079 Y88.343 E0.9883
G1 X99.110 Y88.559 E0.9992
G1 X99.174 Y89.257 E1.0342
G1 X99.183 Y89.504 E1.0465
G1 X99.171 Y90.272 E1.0848
G1 X99.139 Y90.614 E1.1019
G1 X98.937 Y91.827 E1.1633
G1 X98.826 Y92.244 E1.1848
G1 X98.422 Y93.344 E1.2433
G1 X98.292 Y93.633 E1.2591
G1 X97.966 Y94.245 E1.2937
G1 X97.847 Y94.442 E1.3052
G1 X97.457 Y95.024 E1.3401
G1 X97.308 Y95.222 E1.3525
G1 X96.850 Y95.768 E1.3880
G1 X96.699 Y95.931 E1.3991
G1 X96.274 Y96.349 E1.4288
G1 X96.109 Y96.496 E1.4399
G1 X95.572 Y96.930 E1.4743
G1 X95.393 Y97.061 E1.4854
G1 X94.897 Y97.389 E1.5151
G1 X94.709 Y97.501 E1.5260
G1 X94.091 Y97.829 E1.5609
G1 X93.867 Y97.934 E1.5732
G1 X93.154 Y98.219 E1.6115
G1 X92.826 Y98.323 E1.6287
G1 X91.629 Y98.606 E1.6901
G1 X91.202 Y98.665 E1.7116
G1 X90.031 Y98.718 E1.7700
G1 X89.714 Y98.710 E1.7859
G1 X89.024 Y98.646 E1.8204
G1 X88.796 Y98.613 E1.8319
G1 X88.109 Y98.479 E1.8669
G1 X87.869 Y98.418 E1.8792
G1 X87.129 Y98.189 E1.9179
G1 X86.808 Y98.062 E1.9351
G1 X85.694 Y97.523 E1.9968
G1 X85.317 Y97.293 E2.0189
G1 X84.288 Y96.523 E2.0830
G1 X83.961 Y96.225 E2.1050
G1 X83.131 Y95.309 E2.1667
G1 X82.920 Y95.038 E2.1838
G1 X82.504 Y94.412 E2.2214
G1 X82.390 Y94.222 E2.2324
G1 X82.110 Y93.697 E2.2621
G1 X82.016 Y93.498 E2.2731
G1 X81.745 Y92.849 E2.3082
G1 X81.662 Y92.616 E2.3205
G1 X81.463 Y91.942 E2.3556
G1 X81.411 Y91.729 E2.3665
G1 X81.297 Y91.143 E2.3963
G1 X81.264 Y90.918 E2.4076
G1 X81.192 Y90.145 E2.4464
G1 X81.185 Y89.799 E2.4636
G1 X81.255 Y88.578 E2.5247
G1 X81.321 Y88.146 E2.5464
G1 X81.631 Y86.912 E2.6099
G1 X81.778 Y86.498 E2.6318
G1 X82.304 Y85.374 E2.6938
G1 X82.479 Y85.064 E2.7115
G1 X82.938 Y84.382 E2.7525
G1 X83.093 Y84.178 E2.7653
G1 X83.589 Y83.593 E2.8036
G1 X83.828 Y83.350 E2.8206
G1 X84.102 Y83.641 F7200
G92 E0.0000
G1 X84.995 Y82.860 E0.0592 F750
G1 X85.317 Y82.627 E0.0790
G1 X86.339 Y82.029 E0.1381
G1 X86.616 Y81.893 E0.1535
G1 X87.271 Y81.629 E0.1887
G1 X87.464 Y81.562 E0.1989
G1 X88.066 Y81.385 E0.2302
G1 X88.271 Y81.336 E0.2407
G1 X88.940 Y81.210 E0.2747
G1 X89.164 Y81.180 E0.2859
G1 X89.909 Y81.122 E0.3233
G1 X90.225 Y81.121 E0.3390
G1 X91.369 Y81.204 E0.3962
G1 X91.658 Y81.245 E0.4108
G1 X92.264 Y81.375 E0.4417
G1 X92.457 Y81.426 E0.4517
G1 X93.106 Y81.631 E0.4856
G1 X93.317 Y81.710 E0.4969
G1 X93.986 Y82.004 E0.5333
G1 X94.245 Y82.139 E0.5479
G1 X95.125 Y82.682 E0.5995
G1 X95.355 Y82.846 E0.6136
G1 X95.892 Y83.286 E0.6482
G1 X96.052 Y83.432 E0.6590
G1 X96.518 Y83.902 E0.6920
G1 X96.655 Y84.054 E0.7023
G1 X97.051 Y84.541 E0.7336
G1 X97.175 Y84.711 E0.7441
G1 X97.550 Y85.279 E0.7780
G1 X97.664 Y85.474 E0.7893
G1 X97.981 Y86.089 E0.8238
G1 X98.065 Y86.274 E0.8339
G1 X98.278 Y86.810 E0.8627
G1 X98.343 Y87.000 E0.8728
G1 X98.531 Y87.645 E0.9063
G1 X98.578 Y87.842 E0.9164
G1 X98.685 Y88.408 E0.9451
G1 X98.712 Y88.605 E0.9550
G1 X98.774 Y89.283 E0.9890
G1 X98.783 Y89.508 E1.0002
G1 X98.771 Y90.250 E1.0373
G1 X98.742 Y90.563 E1.0529
G1 X98.545 Y91.743 E1.1126
G1 X98.445 Y92.124 E1.1323
G1 X98.051 Y93.193 E1.1891
G1 X97.933 Y93.457 E1.2035
G1 X97.617 Y94.047 E1.2369
G1 X97.509 Y94.228 E1.2474
G1 X97.131 Y94.792 E1.2813
G1 X96.995 Y94.973 E1.2926
G1 X96.550 Y95.504 E1.3272
G1 X96.412 Y95.653 E1.3373
G1 X96.001 Y96.057 E1.3661
G1 X95.850 Y96.191 E1.3761
G1 X95.328 Y96.613 E1.4096
G1 X95.164 Y96.733 E1.4197
G1 X94.684 Y97.050 E1.4484
G1 X94.513 Y97.152 E1.4584
G1 X93.912 Y97.471 E1.4923
G1 X93.708 Y97.566 E1.5036
G1 X93.019 Y97.842 E1.5406
G1 X92.720 Y97.937 E1.5563
G1 X91.555 Y98.212 E1.6160
G1 X91.165 Y98.267 E1.6356
G1 X90.027 Y98.318 E1.6924
G1 X89.738 Y98.311 E1.7069
G1 X89.071 Y98.248 E1.7403
G1 X88.863 Y98.218 E1.7508
G1 X88.196 Y98.088 E1.7847
G1 X87.977 Y98.033 E1.7959
G1 X87.262 Y97.811 E1.8333
G1 X86.968 Y97.695 E1.8490
G1 X85.886 Y97.171 E1.9090
G1 X85.541 Y96.962 E1.9292
G1 X84.543 Y96.214 E1.9914
G1 X84.245 Y95.943 E2.0115
G1 X83.438 Y95.052 E2.0715
G1 X83.245 Y94.804 E2.0871
G1 X82.842 Y94.198 E2.1234
G1 X82.739 Y94.025 E2.1335
G1 X82.467 Y93.517 E2.1622
G1 X82.381 Y93.336 E2.1722
G1 X82.118 Y92.705 E2.2063
G1 X82.043 Y92.493 E2.2176
G1 X81.849 Y91.838 E2.2516
G1 X81.802 Y91.643 E2.2616
G1 X81.691 Y91.076 E2.2905
G1 X81.662 Y90.871 E2.3008
G1 X81.591 Y90.122 E2.3383
G1 X81.586 Y89.806 E2.3541
G1 X81.653 Y88.619 E2.4134
G1 X81.713 Y88.225 E2.4333
G1 X82.014 Y87.028 E2.4949
G1 X82.149 Y86.650 E2.5149
G1 X82.660 Y85.557 E2.5751
G1 X82.820 Y85.274 E2.5913
G1 X83.264 Y84.614 E2.6310
G1 X83.405 Y84.428 E2.6426
G1 X83.884 Y83.863 E2.6796
G1 X84.102 Y83.641 E2.6951
; feature inner perimeter
G1 X87.425 Y87.109 F7200
G92 E0.0000
G1 X87.654 Y86.887 E0.0159 F750
G1 X87.963 Y86.639 E0.0357
G1 X88.319 Y86.411 E0.0568
G1 X88.579 Y86.277 E0.0714
G1 X88.943 Y86.130 E0.0910
G1 X89.289 Y86.028 E0.1090
G1 X89.682 Y85.954 E0.1289
G1 X90.097 Y85.922 E0.1497
G1 X90.414 Y85.928 E0.1655
G1 X90.823 Y85.975 E0.1860
G1 X91.133 Y86.041 E0.2018
G1 X91.521 Y86.164 E0.2221
G1 X91.898 Y86.329 E0.2427
G1 X92.166 Y86.478 E0.2580
G1 X92.443 Y86.665 E0.2746
G1 X92.741 Y86.910 E0.2939
G1 X93.015 Y87.186 E0.3133
G1 X93.243 Y87.466 E0.3313
G1 X93.463 Y87.800 E0.3512
G1 X93.653 Y88.170 E0.3720
G1 X93.770 Y88.464 E0.3878
G1 X93.885 Y88.860 E0.4084
G1 X93.944 Y89.171 E0.4242
G1 X93.981 Y89.576 E0.4445
G1 X93.974 Y89.988 E0.4650
G1 X93.941 Y90.289 E0.4801
G1 X93.854 Y90.707 E0.5014
G1 X93.767 Y90.986 E0.5160
G1 X93.616 Y91.350 E0.5356
G1 X93.447 Y91.667 E0.5536
G1 X93.224 Y91.999 E0.5735
G1 X92.956 Y92.319 E0.5943
G1 X92.731 Y92.540 E0.6101
G1 X92.410 Y92.800 E0.6307
G1 X92.146 Y92.974 E0.6465
G1 X91.787 Y93.165 E0.6668
G1 X91.404 Y93.318 E0.6873
G1 X91.114 Y93.404 E0.7024
G1 X90.695 Y93.485 E0.7237
G1 X90.404 Y93.513 E0.7383
G1 X90.010 Y93.515 E0.7580
G1 X89.652 Y93.482 E0.7759
G1 X89.260 Y93.405 E0.7958
G1 X88.861 Y93.282 E0.8166
G1 X88.570 Y93.159 E0.8324
G1 X88.207 Y92.964 E0.8530
G1 X87.943 Y92.788 E0.8688
G1 X87.627 Y92.529 E0.8892
G1 X87.339 Y92.238 E0.9096
G1 X87.139 Y91.992 E0.9254
G1 X86.911 Y91.649 E0.9460
G1 X86.762 Y91.370 E0.9618
G1 X86.605 Y90.992 E0.9822
G1 X86.489 Y90.600 E1.0026
G1 X86.428 Y90.290 E1.0184
G1 X86.388 Y89.863 E1.0397
G1 X86.394 Y89.474 E1.0592
G1 X86.428 Y89.150 E1.0754
G1 X86.510 Y88.754 E1.0956
G1 X86.603 Y88.451 E1.1114
G1 X86.762 Y88.071 E1.1319
G1 X86.911 Y87.793 E1.1477
G1 X87.163 Y87.418 E1.1702
G1 X87.425 Y87.109 E1.1904
; feature outer perimeter
G1 X87.133 Y86.835 F7200
G92 E0.0000
G1 X87.389 Y86.587 E0.0178 F750
G1 X87.729 Y86.313 E0.0396
G1 X88.119 Y86.064 E0.0627
G1 X88.413 Y85.913 E0.0792
G1 X88.812 Y85.751 E0.1007
G1 X89.196 Y85.639 E0.1206
G1 X89.630 Y85.557 E0.1426
G1 X90.086 Y85.522 E0.1654
G1 X90.441 Y85.528 E0.1832
G1 X90.888 Y85.580 E0.2056
G1 X91.235 Y85.654 E0.2234
G1 X91.662 Y85.789 E0.2457
G1 X92.076 Y85.971 E0.2682
G1 X92.375 Y86.137 E0.2853
G1 X92.682 Y86.344 E0.3038
G1 X93.011 Y86.613 E0.3250
G1 X93.313 Y86.919 E0.3464
G1 X93.565 Y87.229 E0.3664
G1 X93.808 Y87.597 E0.3884
G1 X94.018 Y88.004 E0.4112
G1 X94.149 Y88.334 E0.4289
G1 X94.275 Y88.767 E0.4514
G1 X94.341 Y89.116 E0.4691
G1 X94.381 Y89.561 E0.4914
G1 X94.374 Y90.013 E0.5140
G1 X94.337 Y90.352 E0.5310
G1 X94.241 Y90.807 E0.5542
G1 X94.144 Y91.122 E0.5707
G1 X93.978 Y91.521 E0.5922
G1 X93.790 Y91.874 E0.6121
G1 X93.545 Y92.240 E0.6341
G1 X93.250 Y92.591 E0.6570
G1 X92.997 Y92.839 E0.6747
G1 X92.647 Y93.123 E0.6972
G1 X92.350 Y93.318 E0.7149
G1 X91.956 Y93.528 E0.7372
G1 X91.536 Y93.697 E0.7597
G1 X91.209 Y93.793 E0.7768
G1 X90.752 Y93.881 E0.8000
G1 X90.424 Y93.913 E0.8164
G1 X89.993 Y93.915 E0.8379
G1 X89.594 Y93.878 E0.8579
G1 X89.162 Y93.794 E0.8799
G1 X88.725 Y93.658 E0.9027
G1 X88.397 Y93.521 E0.9204
G1 X88.000 Y93.307 E0.9429
G1 X87.705 Y93.110 E0.9606
G1 X87.357 Y92.825 E0.9831
G1 X87.041 Y92.505 E1.0055
G1 X86.817 Y92.230 E1.0232
G1 X86.568 Y91.854 E1.0457
G1 X86.400 Y91.541 E1.0634
G1 X86.227 Y91.126 E1.0858
G1 X86.100 Y90.695 E1.1083
G1 X86.032 Y90.347 E1.1260
G1 X85.988 Y89.879 E1.1494
G1 X85.994 Y89.450 E1.1708
G1 X86.033 Y89.088 E1.1890
G1 X86.123 Y88.655 E1.2110
G1 X86.227 Y88.315 E1.2288
G1 X86.400 Y87.899 E1.2513
G1 X86.567 Y87.587 E1.2689
G1 X86.843 Y87.177 E1.2936
G1 X87.133 Y86.835 E1.3159
; feature inner perimeter
G1 X88.682 Y88.288 F7200
G92 E0.0000
G1 X88.507 Y88.497 E0.0136 F750
G1 X88.309 Y88.827 E0.0328
G1 X88.173 Y89.200 E0.0526
G1 X88.112 Y89.592 E0.0724
G1 X88.113 Y89.852 E0.0854
G1 X88.146 Y90.119 E0.0988
G1 X88.256 Y90.492 E0.1182
G1 X88.437 Y90.844 E0.1379
G1 X88.681 Y91.154 E0.1576
G1 X88.979 Y91.413 E0.1773
G1 X89.322 Y91.610 E0.1970
G1 X89.695 Y91.739 E0.2167
G1 X90.086 Y91.796 E0.2365
G1 X90.480 Y91.777 E0.2562
G1 X90.864 Y91.684 E0.2759
G1 X91.224 Y91.519 E0.2956
G1 X91.544 Y91.291 E0.3152
G1 X91.732 Y91.104 E0.3284
G1 X91.901 Y90.890 E0.3420
G1 X92.088 Y90.553 E0.3613
G1 X92.211 Y90.178 E0.3810
G1 X92.261 Y89.789 E0.4006
G1 X92.236 Y89.392 E0.4204
G1 X92.137 Y89.010 E0.4401
