; G-Code generated by Simplify3D(R) Version 4.1.1
; May 29, 2020 at 9:13:07 AM
; Settings Summary
;   processName,Process1
;   applyToModels,Tire
;   profileName,3DAeroventures 95A TPE Profile
;   profileVersion,2020-05-29 09:08:16
;   baseProfile,Prusa Research Original Prusa i3 MK3(2)
;   printMaterial,PolyFlex
;   printQuality,Medium
;   printExtruders,
;   extruderName,Primary Extruder
;   extruderToolheadNumber,0
;   extruderDiameter,0.4
;   extruderAutoWidth,0
;   extruderWidth,0.4
;   extrusionMultiplier,1
;   extruderUseRetract,0
;   extruderRetractionDistance,3.9
;   extruderExtraRestartDistance,0
;   extruderRetractionZLift,0.04
;   extruderRetractionSpeed,2400
;   extruderUseCoasting,0
;   extruderCoastingDistance,2
;   extruderUseWipe,0
;   extruderWipeDistance,2
;   primaryExtruder,0
;   layerHeight,0.2
;   topSolidLayers,4
;   bottomSolidLayers,3
;   perimeterOutlines,2
;   printPerimetersInsideOut,1
;   startPointOption,2
;   startPointOriginX,0
;   startPointOriginY,0
;   sequentialIslands,0
;   spiralVaseMode,0
;   firstLayerHeightPercentage,150
;   firstLayerWidthPercentage,100
;   firstLayerUnderspeed,0.5
;   useRaft,0
;   raftExtruder,0
;   raftTopLayers,3
;   raftBaseLayers,2
;   raftOffset,3
;   raftSeparationDistance,0.14
;   raftTopInfill,100
;   aboveRaftSpeedMultiplier,0.3
;   useSkirt,1
;   skirtExtruder,0
;   skirtLayers,1
;   skirtOutlines,2
;   skirtOffset,4
;   usePrimePillar,0
;   primePillarExtruder,999
;   primePillarWidth,12
;   primePillarLocation,7
;   primePillarSpeedMultiplier,1
;   useOozeShield,0
;   oozeShieldExtruder,999
;   oozeShieldOffset,2
;   oozeShieldOutlines,1
;   oozeShieldSidewallShape,1
;   oozeShieldSidewallAngle,30
;   oozeShieldSpeedMultiplier,1
;   infillExtruder,0
;   internalInfillPattern,Rectilinear
;   externalInfillPattern,Rectilinear
;   infillPercentage,10
;   outlineOverlapPercentage,50
;   infillExtrusionWidthPercentage,100
;   minInfillLength,1
;   infillLayerInterval,1
;   internalInfillAngles,45,-45
;   overlapInternalInfillAngles,0
;   externalInfillAngles,45,-45
;   generateSupport,0
;   supportExtruder,0
;   supportInfillPercentage,30
;   supportExtraInflation,0
;   supportBaseLayers,1
;   denseSupportExtruder,0
;   denseSupportLayers,0
;   denseSupportInfillPercentage,70
;   supportLayerInterval,1
;   supportHorizontalPartOffset,0.3
;   supportUpperSeparationLayers,1
;   supportLowerSeparationLayers,1
;   supportType,0
;   supportGridSpacing,4
;   maxOverhangAngle,45
;   supportAngles,0
;   temperatureName,Primary Extruder,Heated Bed
;   temperatureNumber,0,0
;   temperatureSetpointCount,1,1
;   temperatureSetpointLayers,1,1
;   temperatureSetpointTemperatures,230,40
;   temperatureStabilizeAtStartup,1,1
;   temperatureHeatedBed,0,1
;   fanLayers,1
;   fanSpeeds,50
;   blipFanToFullPower,0
;   adjustSpeedForCooling,1
;   minSpeedLayerTime,10
;   minCoolingSpeedSlowdown,10
;   increaseFanForCooling,0
;   minFanLayerTime,45
;   maxCoolingFanSpeed,100
;   increaseFanForBridging,0
;   bridgingFanSpeed,100
;   use5D,1
;   relativeEdistances,0
;   allowEaxisZeroing,1
;   independentExtruderAxes,0
;   includeM10123,0
;   stickySupport,1
;   applyToolheadOffsets,0
;   gcodeXoffset,0
;   gcodeYoffset,0
;   gcodeZoffset,0
;   overrideMachineDefinition,1
;   machineTypeOverride,0
;   strokeXoverride,180
;   strokeYoverride,180
;   strokeZoverride,180
;   originOffsetXoverride,0
;   originOffsetYoverride,0
;   originOffsetZoverride,0
;   homeXdirOverride,-1
;   homeYdirOverride,-1
;   homeZdirOverride,-1
;   flipXoverride,1
;   flipYoverride,-1
;   flipZoverride,1
;   toolheadOffsets,0,0|0,0|0,0|0,0|0,0|0,0
;   overrideFirmwareConfiguration,0
;   firmwareTypeOverride,RepRap (Marlin/Repetier/Sprinter)
;   GPXconfigOverride,r2
;   baudRateOverride,115200
;   overridePrinterModels,1
;   printerModelsOverride
;   startingGcode,G28
;   layerChangeGcode,
;   retractionGcode,
;   toolChangeGcode,
;   endingGcode,M104 S0 ; turn off extruder,M140 S0 ; turn off bed,G28 X0 ; home X axis,M84 ; disable motors,M107 ; turn off fan
;   exportFileFormat,gcode
;   celebration,0
;   celebrationSong,Funky Town
;   postProcessing,
;   defaultSpeed,1500
;   outlineUnderspeed,1
;   solidInfillUnderspeed,1
;   supportUnderspeed,1
;   rapidXYspeed,7200
;   rapidZspeed,1002
;   minBridgingArea,50
;   bridgingExtraInflation,0
;   bridgingExtrusionMultiplier,0.95
;   bridgingSpeedMultiplier,0.4
;   useFixedBridgingAngle,0
;   fixedBridgingAngle,0
;   applyBridgingToPerimeters,0
;   filamentDiameters,1.75|1.75|1.75|1.75|1.75|1.75
;   filamentPricesPerKg,40|46|46|46|46|46
;   filamentDensities,1.12|1.25|1.25|1.25|1.25|1.25
;   useMinPrintHeight,0
;   minPrintHeight,0
;   useMaxPrintHeight,0
;   maxPrintHeight,0
;   useDiaphragm,0
;   diaphragmLayerInterval,20
;   robustSlicing,1
;   mergeAllIntoSolid,0
;   onlyRetractWhenCrossingOutline,0
;   retractBetweenLayers,0
;   useRetractionMinTravel,0
;   retractionMinTravel,3
;   retractWhileWiping,0
;   onlyWipeOutlines,0
;   avoidCrossingOutline,1
;   maxMovementDetourFactor,999
;   toolChangeRetractionDistance,12
;   toolChangeExtraRestartDistance,-0.5
;   toolChangeRetractionSpeed,600
;   externalThinWallType,0
;   internalThinWallType,1
;   thinWallAllowedOverlapPercentage,20
;   singleExtrusionMinLength,1
;   singleExtrusionMinPrintingWidthPercentage,50
;   singleExtrusionMaxPrintingWidthPercentage,190
;   singleExtrusionEndpointExtension,0.2
;   horizontalSizeCompensation,0
G90
M82
M106 S128
M140 S40
M190 S40
M104 S230 T0
M109 S230 T0
G28
; process Process1
; layer 1, Z = 0.300
T0
; feature skirt
; tool H0.300 W0.400
G1 Z0.300 F1002
G1 X73.494 Y33.786 F7200
G92 E0.0000
G1 X74.009 Y32.656 E0.0620 F750
G1 X74.111 Y32.458 E0.0731
G1 X74.948 Y31.011 E0.1565
G1 X75.090 Y30.795 E0.1694
G1 X76.078 Y29.459 E0.2522
G1 X76.217 Y29.288 E0.2633
G1 X77.048 Y28.365 E0.3252
G1 X77.202 Y28.209 E0.3362
G1 X78.416 Y27.094 E0.4184
G1 X78.613 Y26.933 E0.4311
G1 X79.905 Y25.986 E0.5110
G1 X80.046 Y25.891 E0.5195
G1 X80.635 Y25.523 E0.5542
G1 X80.758 Y25.451 E0.5612
G1 X81.770 Y24.903 E0.6187
G1 X81.924 Y24.827 E0.6272
G1 X82.918 Y24.380 E0.6816
G1 X83.082 Y24.314 E0.6904
G1 X84.229 Y23.902 E0.7512
G1 X84.437 Y23.838 E0.7621
G1 X86.027 Y23.431 E0.8440
G1 X86.277 Y23.381 E0.8567
G1 X87.891 Y23.154 E0.9380
G1 X88.106 Y23.134 E0.9488
G1 X89.297 Y23.079 E1.0083
G1 X89.438 Y23.076 E1.0153
G1 X90.114 Y23.086 E1.0491
G1 X90.287 Y23.096 E1.0577
G1 X91.902 Y23.241 E1.1386
G1 X92.154 Y23.278 E1.1513
G1 X93.751 Y23.603 E1.2326
G1 X93.966 Y23.658 E1.2437
G1 X95.207 Y24.037 E1.3084
G1 X95.415 Y24.112 E1.3194
G1 X96.900 Y24.728 E1.3996
G1 X97.097 Y24.822 E1.4105
G1 X98.180 Y25.396 E1.4717
G1 X98.366 Y25.507 E1.4825
G1 X99.733 Y26.407 E1.5641
G1 X99.937 Y26.558 E1.5768
G1 X101.195 Y27.602 E1.6583
G1 X101.354 Y27.747 E1.6691
G1 X102.222 Y28.617 E1.7304
G1 X102.369 Y28.779 E1.7413
G1 X103.389 Y30.017 E1.8214
G1 X103.521 Y30.194 E1.8324
G1 X104.245 Y31.269 E1.8970
G1 X104.360 Y31.458 E1.9081
G1 X105.120 Y32.858 E1.9875
G1 X105.214 Y33.054 E1.9984
G1 X105.700 Y34.196 E2.0603
G1 X105.776 Y34.401 E2.0712
G1 X106.274 Y35.969 E2.1533
G1 X106.338 Y36.215 E2.1660
G1 X106.656 Y37.814 E2.2473
G1 X106.689 Y38.033 E2.2584
G1 X106.819 Y39.324 E2.3231
G1 X106.831 Y39.545 E2.3341
G1 X106.837 Y41.153 E2.4144
G1 X106.828 Y41.371 E2.4252
G1 X106.717 Y42.591 E2.4864
G1 X106.687 Y42.805 E2.4972
G1 X106.389 Y44.397 E2.5779
G1 X106.339 Y44.608 E2.5888
G1 X106.005 Y45.773 E2.6492
G1 X105.936 Y45.978 E2.6600
G1 X105.332 Y47.517 E2.7425
G1 X105.225 Y47.752 E2.7554
G1 X104.441 Y49.236 E2.8391
G1 X104.327 Y49.428 E2.8503
G1 X103.644 Y50.465 E2.9122
G1 X103.517 Y50.638 E2.9229
G1 X102.522 Y51.878 E3.0022
G1 X102.379 Y52.041 E3.0131
G1 X101.514 Y52.931 E3.0750
G1 X101.355 Y53.080 E3.0859
G1 X100.101 Y54.147 E3.1680
G1 X99.898 Y54.301 E3.1807
G1 X98.548 Y55.213 E3.2620
G1 X98.358 Y55.328 E3.2730
G1 X97.219 Y55.948 E3.3378
G1 X97.020 Y56.044 E3.3488
G1 X95.522 Y56.679 E3.4299
G1 X95.283 Y56.766 E3.4426
G1 X93.705 Y57.238 E3.5248
G1 X93.494 Y57.291 E3.5357
G1 X92.303 Y57.528 E3.5963
G1 X92.087 Y57.561 E3.6071
G1 X90.481 Y57.725 E3.6877
G1 X90.265 Y57.737 E3.6985
G1 X89.035 Y57.747 E3.7599
G1 X88.813 Y57.738 E3.7710
G1 X87.159 Y57.592 E3.8538
G1 X86.938 Y57.561 E3.8649
G1 X85.718 Y57.332 E3.9269
G1 X85.509 Y57.283 E3.9376
G1 X83.980 Y56.845 E4.0169
G1 X83.774 Y56.776 E4.0277
G1 X82.620 Y56.323 E4.0896
G1 X82.420 Y56.234 E4.1005
G1 X80.951 Y55.491 E4.1826
G1 X80.731 Y55.363 E4.1953
G1 X79.367 Y54.472 E4.2766
G1 X79.187 Y54.341 E4.2877
G1 X78.175 Y53.531 E4.3524
G1 X78.010 Y53.384 E4.3634
G1 X76.857 Y52.262 E4.4437
G1 X76.707 Y52.102 E4.4546
G1 X75.915 Y51.169 E4.5157
G1 X75.783 Y50.998 E4.5265
G1 X74.855 Y49.671 E4.6073
G1 X74.739 Y49.487 E4.6181
G1 X74.142 Y48.434 E4.6785
G1 X74.044 Y48.240 E4.6893
G1 X73.368 Y46.731 E4.7718
G1 X73.276 Y46.490 E4.7847
G1 X72.765 Y44.891 E4.8684
G1 X72.708 Y44.675 E4.8796
G1 X72.447 Y43.462 E4.9415
G1 X72.411 Y43.251 E4.9522
G1 X72.223 Y41.672 E5.0315
G1 X72.208 Y41.455 E5.0424
G1 X72.178 Y40.237 E5.1031
G1 X72.181 Y40.063 E5.1118
G1 X72.237 Y38.973 E5.1663
G1 X72.253 Y38.797 E5.1751
G1 X72.409 Y37.588 E5.2359
G1 X72.447 Y37.375 E5.2467
G1 X72.808 Y35.780 E5.3283
G1 X72.877 Y35.535 E5.3410
G1 X73.413 Y33.988 E5.4227
G1 X73.494 Y33.786 E5.4335
G1 X73.862 Y33.944 F7200
G92 E0.0000
G1 X74.369 Y32.831 E0.0610 F750
G1 X74.462 Y32.650 E0.0711
G1 X75.289 Y31.221 E0.1535
G1 X75.418 Y31.024 E0.1653
G1 X76.393 Y29.705 E0.2471
G1 X76.521 Y29.549 E0.2572
G1 X77.339 Y28.640 E0.3182
G1 X77.480 Y28.497 E0.3282
G1 X78.679 Y27.396 E0.4094
G1 X78.858 Y27.249 E0.4210
G1 X80.135 Y26.313 E0.5000
G1 X80.264 Y26.226 E0.5077
G1 X80.842 Y25.865 E0.5417
G1 X80.954 Y25.800 E0.5482
G1 X81.954 Y25.258 E0.6049
G1 X82.095 Y25.189 E0.6128
G1 X83.075 Y24.748 E0.6664
G1 X83.224 Y24.688 E0.6744
G1 X84.355 Y24.281 E0.7344
G1 X84.546 Y24.223 E0.7443
G1 X86.116 Y23.821 E0.8252
G1 X86.344 Y23.776 E0.8367
G1 X87.938 Y23.551 E0.9171
G1 X88.134 Y23.533 E0.9269
G1 X89.310 Y23.478 E0.9856
G1 X89.438 Y23.476 E0.9920
G1 X90.101 Y23.486 E1.0251
G1 X90.258 Y23.495 E1.0329
G1 X91.855 Y23.639 E1.1129
G1 X92.085 Y23.672 E1.1245
G1 X93.662 Y23.993 E1.2048
G1 X93.859 Y24.043 E1.2149
G1 X95.081 Y24.417 E1.2787
G1 X95.271 Y24.485 E1.2888
G1 X96.738 Y25.094 E1.3680
G1 X96.918 Y25.179 E1.3780
G1 X97.984 Y25.745 E1.4382
G1 X98.154 Y25.846 E1.4480
G1 X99.504 Y26.735 E1.5287
G1 X99.690 Y26.873 E1.5403
G1 X100.932 Y27.904 E1.6208
G1 X101.078 Y28.036 E1.6306
G1 X101.932 Y28.893 E1.6909
G1 X102.066 Y29.041 E1.7009
G1 X103.074 Y30.264 E1.7800
G1 X103.194 Y30.426 E1.7900
G1 X103.908 Y31.485 E1.8538
G1 X104.013 Y31.657 E1.8638
G1 X104.763 Y33.041 E1.9423
G1 X104.850 Y33.220 E1.9523
G1 X105.328 Y34.344 E2.0132
G1 X105.398 Y34.531 E2.0232
G1 X105.889 Y36.079 E2.1042
G1 X105.947 Y36.304 E2.1158
G1 X106.262 Y37.882 E2.1961
G1 X106.292 Y38.083 E2.2062
G1 X106.420 Y39.355 E2.2700
G1 X106.431 Y39.556 E2.2801
G1 X106.437 Y41.145 E2.3593
G1 X106.429 Y41.344 E2.3693
G1 X106.319 Y42.546 E2.4295
G1 X106.292 Y42.741 E2.4393
G1 X105.998 Y44.314 E2.5191
G1 X105.952 Y44.507 E2.5290
G1 X105.624 Y45.653 E2.5885
G1 X105.560 Y45.841 E2.5984
G1 X104.964 Y47.361 E2.6798
G1 X104.866 Y47.575 E2.6916
G1 X104.092 Y49.041 E2.7743
G1 X103.988 Y49.216 E2.7845
G1 X103.315 Y50.237 E2.8455
G1 X103.200 Y50.395 E2.8552
G1 X102.216 Y51.620 E2.9336
G1 X102.085 Y51.769 E2.9435
G1 X101.234 Y52.645 E3.0045
G1 X101.088 Y52.782 E3.0144
G1 X99.850 Y53.835 E3.0955
G1 X99.665 Y53.975 E3.1071
G1 X98.332 Y54.876 E3.1874
G1 X98.159 Y54.981 E3.1975
G1 X97.036 Y55.592 E3.2612
G1 X96.854 Y55.679 E3.2713
G1 X95.376 Y56.307 E3.3514
G1 X95.158 Y56.386 E3.3630
G1 X93.599 Y56.853 E3.4442
G1 X93.407 Y56.900 E3.4541
G1 X92.234 Y57.134 E3.5137
G1 X92.037 Y57.164 E3.5236
G1 X90.449 Y57.326 E3.6033
G1 X90.253 Y57.337 E3.6131
G1 X89.041 Y57.347 E3.6736
G1 X88.838 Y57.339 E3.6837
G1 X87.204 Y57.194 E3.7656
G1 X87.002 Y57.166 E3.7757
G1 X85.801 Y56.941 E3.8367
G1 X85.610 Y56.896 E3.8465
G1 X84.100 Y56.463 E3.9248
G1 X83.912 Y56.400 E3.9348
G1 X82.774 Y55.954 E3.9957
G1 X82.592 Y55.873 E4.0057
G1 X81.142 Y55.139 E4.0868
G1 X80.940 Y55.023 E4.0983
G1 X79.594 Y54.142 E4.1786
G1 X79.430 Y54.023 E4.1887
G1 X78.433 Y53.224 E4.2524
G1 X78.282 Y53.091 E4.2625
G1 X77.142 Y51.982 E4.3418
G1 X77.006 Y51.836 E4.3518
G1 X76.226 Y50.917 E4.4119
G1 X76.105 Y50.761 E4.4218
G1 X75.188 Y49.449 E4.5016
G1 X75.082 Y49.281 E4.5115
G1 X74.495 Y48.245 E4.5710
G1 X74.405 Y48.068 E4.5809
G1 X73.738 Y46.577 E4.6623
G1 X73.653 Y46.357 E4.6741
G1 X73.149 Y44.779 E4.7568
G1 X73.097 Y44.582 E4.7669
G1 X72.840 Y43.387 E4.8279
G1 X72.808 Y43.194 E4.8377
G1 X72.621 Y41.634 E4.9161
G1 X72.607 Y41.436 E4.9260
G1 X72.578 Y40.235 E4.9859
G1 X72.580 Y40.076 E4.9938
G1 X72.636 Y39.002 E5.0475
G1 X72.650 Y38.841 E5.0556
G1 X72.804 Y37.649 E5.1155
G1 X72.839 Y37.454 E5.1254
G1 X73.195 Y35.879 E5.2060
G1 X73.259 Y35.655 E5.2176
G1 X73.788 Y34.128 E5.2982
G1 X73.862 Y33.944 E5.3081
; feature inner perimeter
G1 X77.910 Y35.670 F7200
G1 X77.913 Y35.662
G1 X78.282 Y35.819
G92 E0.0000
G1 X78.479 Y35.362 E0.0248 F750
G1 X78.682 Y34.941 E0.0481
G1 X79.108 Y34.168 E0.0922
G1 X79.367 Y33.755 E0.1165
G1 X79.637 Y33.362 E0.1403
G1 X80.176 Y32.662 E0.1843
G1 X80.488 Y32.301 E0.2081
G1 X80.821 Y31.945 E0.2325
G1 X81.459 Y31.336 E0.2765
G1 X81.814 Y31.032 E0.2998
G1 X82.206 Y30.725 E0.3246
G1 X82.886 Y30.248 E0.3661
G1 X83.314 Y29.981 E0.3912
G1 X84.152 Y29.526 E0.4388
G1 X84.952 Y29.167 E0.4826
G1 X85.392 Y28.999 E0.5060
G1 X85.860 Y28.841 E0.5307
G1 X86.660 Y28.618 E0.5721
G1 X87.162 Y28.507 E0.5978
G1 X87.657 Y28.420 E0.6229
G1 X88.482 Y28.321 E0.6643
G1 X88.964 Y28.289 E0.6884
G1 X89.443 Y28.277 E0.7123
G1 X89.934 Y28.284 E0.7368
G1 X90.814 Y28.347 E0.7808
G1 X91.274 Y28.405 E0.8040
G1 X91.768 Y28.488 E0.8290
G1 X92.579 Y28.670 E0.8704
G1 X93.066 Y28.808 E0.8957
G1 X93.551 Y28.968 E0.9211
G1 X94.324 Y29.271 E0.9626
G1 X94.777 Y29.476 E0.9874
G1 X95.186 Y29.683 E1.0102
G1 X95.621 Y29.925 E1.0351
G1 X96.324 Y30.367 E1.0765
G1 X96.740 Y30.661 E1.1019
G1 X97.141 Y30.972 E1.1272
G1 X97.769 Y31.515 E1.1687
G1 X98.129 Y31.863 E1.1936
G1 X98.446 Y32.194 E1.2165
G1 X98.773 Y32.565 E1.2412
G1 X99.287 Y33.216 E1.2826
G1 X99.584 Y33.636 E1.3082
G1 X99.856 Y34.060 E1.3333
G1 X100.266 Y34.782 E1.3748
G1 X100.482 Y35.214 E1.3989
G1 X100.679 Y35.651 E1.4228
G1 X100.862 Y36.105 E1.4472
G1 X101.146 Y36.941 E1.4913
G1 X101.270 Y37.388 E1.5144
G1 X101.384 Y37.876 E1.5394
G1 X101.530 Y38.694 E1.5809
G1 X101.592 Y39.197 E1.6061
G1 X101.632 Y39.705 E1.6316
G1 X101.652 Y40.536 E1.6730
G1 X101.637 Y41.033 E1.6978
G1 X101.606 Y41.490 E1.7207
G1 X101.551 Y41.984 E1.7455
G1 X101.415 Y42.804 E1.7869
G1 X101.306 Y43.297 E1.8122
G1 X101.043 Y44.213 E1.8597
G1 X100.739 Y45.035 E1.9034
G1 X100.551 Y45.468 E1.9270
G1 X100.337 Y45.912 E1.9516
G1 X99.909 Y46.684 E1.9956
G1 X99.663 Y47.074 E2.0186
G1 X99.378 Y47.489 E2.0438
G1 X98.870 Y48.148 E2.0852
G1 X98.556 Y48.514 E2.1093
G1 X98.229 Y48.865 E2.1332
G1 X97.881 Y49.209 E2.1577
G1 X97.219 Y49.794 E2.2017
G1 X96.855 Y50.082 E2.2249
G1 X96.450 Y50.376 E2.2498
G1 X95.752 Y50.827 E2.2913
G1 X95.313 Y51.079 E2.3166
G1 X94.859 Y51.312 E2.3420
G1 X94.102 Y51.652 E2.3834
G1 X93.637 Y51.831 E2.4083
G1 X93.195 Y51.982 E2.4316
G1 X92.350 Y52.217 E2.4753
G1 X91.411 Y52.404 E2.5231
G1 X90.915 Y52.471 E2.5481
G1 X90.087 Y52.539 E2.5895
G1 X89.586 Y52.553 E2.6145
G1 X89.128 Y52.547 E2.6374
G1 X88.635 Y52.520 E2.6620
G1 X87.758 Y52.425 E2.7060
