; G-Code generated by Simplify3D(R) Version 4.1.1
; May 28, 2020 at 10:46:33 PM
; Settings Summary
;   processName,Process1
;   applyToModels,Aileron R1
;   profileName,3DAeroventures LW-PLA Generic Gcode (modified)
;   profileVersion,2020-05-28 22:34:53
;   baseProfile,Prusa Research Original Prusa i3 MK3 (modified)
;   printMaterial,PLA
;   printQuality,Medium
;   printExtruders,
;   extruderName,Primary Extruder
;   extruderToolheadNumber,0
;   extruderDiameter,0.4
;   extruderAutoWidth,0
;   extruderWidth,0.4
;   extrusionMultiplier,0.4
;   extruderUseRetract,1
;   extruderRetractionDistance,1
;   extruderExtraRestartDistance,0
;   extruderRetractionZLift,0
;   extruderRetractionSpeed,2400
;   extruderUseCoasting,1
;   extruderCoastingDistance,0.2
;   extruderUseWipe,1
;   extruderWipeDistance,2
;   primaryExtruder,0
;   layerHeight,0.25
;   topSolidLayers,4
;   bottomSolidLayers,6
;   perimeterOutlines,1
;   printPerimetersInsideOut,0
;   startPointOption,3
;   startPointOriginX,0
;   startPointOriginY,20
;   sequentialIslands,0
;   spiralVaseMode,0
;   firstLayerHeightPercentage,100
;   firstLayerWidthPercentage,100
;   firstLayerUnderspeed,0.3
;   useRaft,0
;   raftExtruder,0
;   raftTopLayers,3
;   raftBaseLayers,2
;   raftOffset,3
;   raftSeparationDistance,0.14
;   raftTopInfill,100
;   aboveRaftSpeedMultiplier,0.3
;   useSkirt,1
;   skirtExtruder,0
;   skirtLayers,1
;   skirtOutlines,1
;   skirtOffset,2
;   usePrimePillar,0
;   primePillarExtruder,999
;   primePillarWidth,12
;   primePillarLocation,7
;   primePillarSpeedMultiplier,1
;   useOozeShield,0
;   oozeShieldExtruder,999
;   oozeShieldOffset,2
;   oozeShieldOutlines,1
;   oozeShieldSidewallShape,1
;   oozeShieldSidewallAngle,30
;   oozeShieldSpeedMultiplier,1
;   infillExtruder,0
;   internalInfillPattern,Rectilinear
;   externalInfillPattern,Rectilinear
;   infillPercentage,0
;   outlineOverlapPercentage,20
;   infillExtrusionWidthPercentage,100
;   minInfillLength,5
;   infillLayerInterval,1
;   internalInfillAngles,45,-45
;   overlapInternalInfillAngles,0
;   externalInfillAngles,45,-45
;   generateSupport,0
;   supportExtruder,0
;   supportInfillPercentage,30
;   supportExtraInflation,0
;   supportBaseLayers,0
;   denseSupportExtruder,0
;   denseSupportLayers,3
;   denseSupportInfillPercentage,70
;   supportLayerInterval,1
;   supportHorizontalPartOffset,0.8
;   supportUpperSeparationLayers,1
;   supportLowerSeparationLayers,1
;   supportType,0
;   supportGridSpacing,3
;   maxOverhangAngle,45
;   supportAngles,0
;   temperatureName,Primary Extruder,Heated Bed
;   temperatureNumber,0,0
;   temperatureSetpointCount,1,1
;   temperatureSetpointLayers,1,1
;   temperatureSetpointTemperatures,250,60
;   temperatureStabilizeAtStartup,1,1
;   temperatureHeatedBed,0,1
;   fanLayers,1,2
;   fanSpeeds,0,25
;   blipFanToFullPower,1
;   adjustSpeedForCooling,1
;   minSpeedLayerTime,15
;   minCoolingSpeedSlowdown,10
;   increaseFanForCooling,0
;   minFanLayerTime,45
;   maxCoolingFanSpeed,100
;   increaseFanForBridging,0
;   bridgingFanSpeed,100
;   use5D,1
;   relativeEdistances,0
;   allowEaxisZeroing,1
;   independentExtruderAxes,0
;   includeM10123,0
;   stickySupport,1
;   applyToolheadOffsets,0
;   gcodeXoffset,0
;   gcodeYoffset,0
;   gcodeZoffset,0
;   overrideMachineDefinition,1
;   machineTypeOverride,0
;   strokeXoverride,180
;   strokeYoverride,180
;   strokeZoverride,180
;   originOffsetXoverride,0
;   originOffsetYoverride,0
;   originOffsetZoverride,0
;   homeXdirOverride,-1
;   homeYdirOverride,-1
;   homeZdirOverride,-1
;   flipXoverride,1
;   flipYoverride,-1
;   flipZoverride,1
;   toolheadOffsets,0,0|0,0|0,0|0,0|0,0|0,0
;   overrideFirmwareConfiguration,0
;   firmwareTypeOverride,RepRap (Marlin/Repetier/Sprinter)
;   GPXconfigOverride,r2
;   baudRateOverride,115200
;   overridePrinterModels,1
;   printerModelsOverride
;   startingGcode,G28
;   layerChangeGcode,
;   retractionGcode,
;   toolChangeGcode,
;   endingGcode,M104 S0 ; turn off extruder,M140 S0 ; turn off bed,G28 X0 ; home X axis,M84 ; disable motors,M107 ; turn off fan
;   exportFileFormat,gcode
;   celebration,0
;   celebrationSong,Funky Town
;   postProcessing,
;   defaultSpeed,2400
;   outlineUnderspeed,0.7
;   solidInfillUnderspeed,0.8
;   supportUnderspeed,0.8
;   rapidXYspeed,12000
;   rapidZspeed,1002
;   minBridgingArea,5
;   bridgingExtraInflation,0
;   bridgingExtrusionMultiplier,1
;   bridgingSpeedMultiplier,0.3
;   useFixedBridgingAngle,0
;   fixedBridgingAngle,0
;   applyBridgingToPerimeters,0
;   filamentDiameters,1.75|1.75|1.75|1.75|1.75|1.75
;   filamentPricesPerKg,70|46|46|46|46|46
;   filamentDensities,1.25|1.25|1.25|1.25|1.25|1.25
;   useMinPrintHeight,0
;   minPrintHeight,106
;   useMaxPrintHeight,0
;   maxPrintHeight,0
;   useDiaphragm,0
;   diaphragmLayerInterval,20
;   robustSlicing,1
;   mergeAllIntoSolid,0
;   onlyRetractWhenCrossingOutline,0
;   retractBetweenLayers,0
;   useRetractionMinTravel,0
;   retractionMinTravel,3
;   retractWhileWiping,0
;   onlyWipeOutlines,1
;   avoidCrossingOutline,0
;   maxMovementDetourFactor,3
;   toolChangeRetractionDistance,0
;   toolChangeExtraRestartDistance,0
;   toolChangeRetractionSpeed,360
;   externalThinWallType,0
;   internalThinWallType,1
;   thinWallAllowedOverlapPercentage,10
;   singleExtrusionMinLength,1
;   singleExtrusionMinPrintingWidthPercentage,50
;   singleExtrusionMaxPrintingWidthPercentage,200
;   singleExtrusionEndpointExtension,0.2
;   horizontalSizeCompensation,0
G90
M82
M106 S0
M140 S60
M190 S60
M104 S250 T0
M109 S250 T0
G28
; process Process1
; layer 1, Z = 0.250
T0
G92 E0.0000
G1 E-1.0000 F2400
; feature skirt
; tool H0.250 W0.400
G1 Z0.250 F1002
G1 X70.530 Y26.153 F12000
G1 E0.0000 F2400
G92 E0.0000
G1 X70.688 Y25.331 E0.0139 F720
G1 X70.898 Y24.866 E0.0224
G1 X71.318 Y24.316 E0.0339
G1 X71.611 Y24.049 E0.0405
G1 X72.076 Y23.759 E0.0496
G1 X72.389 Y23.625 E0.0553
G1 X72.841 Y23.510 E0.0630
G1 X73.073 Y23.476 E0.0669
G1 X84.144 Y23.069 E0.2512
G1 X84.594 Y23.006 E0.2587
G1 X85.067 Y22.902 E0.2668
G1 X85.529 Y22.764 E0.2748
G1 X85.997 Y22.583 E0.2831
G1 X86.448 Y22.367 E0.2915
G1 X86.841 Y22.142 E0.2990
G1 X87.235 Y21.876 E0.3069
G1 X87.692 Y21.508 E0.3167
G1 X87.977 Y21.243 E0.3231
G1 X88.309 Y20.887 E0.3312
G1 X88.611 Y20.508 E0.3393
G1 X88.884 Y20.108 E0.3473
G1 X89.126 Y19.688 E0.3554
G1 X89.335 Y19.251 E0.3635
G1 X89.511 Y18.800 E0.3715
G1 X89.652 Y18.336 E0.3796
G1 X89.758 Y17.860 E0.3877
G1 X89.883 Y17.019 E0.4018
G1 X89.909 Y16.898 E0.4039
G1 X90.002 Y16.547 E0.4099
G1 X90.058 Y16.387 E0.4127
G1 X90.301 Y15.837 E0.4227
G1 X90.381 Y15.687 E0.4256
G1 X90.589 Y15.362 E0.4320
G1 X90.691 Y15.226 E0.4348
G1 X91.107 Y14.755 E0.4453
G1 X91.274 Y14.601 E0.4490
G1 X91.778 Y14.224 E0.4595
G1 X91.922 Y14.134 E0.4623
G1 X92.262 Y13.953 E0.4687
G1 X92.418 Y13.885 E0.4716
G1 X93.013 Y13.679 E0.4820
G1 X93.234 Y13.628 E0.4858
G1 X93.886 Y13.544 E0.4967
G1 X94.112 Y13.539 E0.5005
G1 X94.768 Y13.590 E0.5114
G1 X94.991 Y13.631 E0.5152
G1 X95.595 Y13.807 E0.5257
G1 X95.754 Y13.867 E0.5285
G1 X96.100 Y14.029 E0.5348
G1 X96.241 Y14.109 E0.5375
G1 X96.712 Y14.421 E0.5470
G1 X96.880 Y14.558 E0.5505
G1 X97.388 Y15.061 E0.5624
G1 X97.541 Y15.252 E0.5665
G1 X97.884 Y15.791 E0.5771
G1 X97.964 Y15.941 E0.5800
G1 X98.119 Y16.295 E0.5864
G1 X98.175 Y16.455 E0.5892
G1 X98.328 Y17.036 E0.5992
G1 X98.359 Y17.203 E0.6020
G1 X98.393 Y17.531 E0.6075
G1 X98.397 Y17.587 E0.6084
G1 X98.567 Y20.835 E0.6625
G1 X98.568 Y20.943 E0.6643
G1 X98.541 Y21.523 E0.6740
G1 X98.496 Y21.790 E0.6785
G1 X98.250 Y22.611 E0.6927
G1 X98.141 Y22.858 E0.6972
G1 X97.818 Y23.401 E0.7077
G1 X97.694 Y23.570 E0.7112
G1 X97.603 Y23.673 E0.7135
G1 X98.234 Y24.195 E0.7271
G1 X98.389 Y24.352 E0.7308
G1 X98.906 Y24.993 E0.7445
G1 X99.026 Y25.179 E0.7482
G1 X99.405 Y25.910 E0.7619
G1 X99.486 Y26.116 E0.7655
G1 X99.703 Y26.881 E0.7788
G1 X99.736 Y27.044 E0.7815
G1 X99.789 Y27.466 E0.7886
G1 X99.797 Y27.547 E0.7900
G1 X99.833 Y28.246 E0.8016
G1 X99.832 Y28.366 E0.8036
G1 X99.797 Y28.984 E0.8139
G1 X99.777 Y29.136 E0.8164
G1 X99.676 Y29.642 E0.8250
G1 X99.628 Y29.811 E0.8279
G1 X99.349 Y30.562 E0.8413
G1 X99.253 Y30.758 E0.8449
G1 X98.837 Y31.429 E0.8580
G1 X98.720 Y31.586 E0.8613
G1 X98.279 Y32.076 E0.8722
G1 X98.169 Y32.182 E0.8748
G1 X97.779 Y32.510 E0.8832
G1 X97.647 Y32.605 E0.8859
G1 X97.033 Y32.983 E0.8979
G1 X96.837 Y33.078 E0.9016
G1 X96.022 Y33.379 E0.9160
G1 X95.819 Y33.433 E0.9195
G1 X95.142 Y33.544 E0.9309
G1 X94.948 Y33.559 E0.9341
G1 X94.196 Y33.549 E0.9467
G1 X94.034 Y33.535 E0.9494
G1 X93.625 Y33.468 E0.9563
G1 X93.569 Y33.458 E0.9572
G1 X72.592 Y28.942 E1.3140
G1 X72.369 Y28.868 E1.3180
G1 X71.917 Y28.663 E1.3262
G1 X71.591 Y28.437 E1.3328
G1 X71.102 Y27.948 E1.3443
G1 X70.833 Y27.514 E1.3528
G1 X70.567 Y26.720 E1.3667
G1 X70.530 Y26.153 E1.3762
G92 E0.0000
G1 E-1.0000 F2400
; feature outer perimeter
G1 X72.947 Y26.205 F12000
G1 E0.0000 F2400
G92 E0.0000
G1 X72.984 Y26.082 E0.0021 F504
G1 X73.022 Y26.020 E0.0033
G1 X73.073 Y25.966 E0.0046
G1 X73.177 Y25.901 E0.0066
G1 X73.300 Y25.870 E0.0087
G1 X83.775 Y25.503 E0.1830
G1 X84.359 Y25.463 E0.1928
G1 X85.018 Y25.370 E0.2038
G1 X85.669 Y25.227 E0.2149
G1 X86.308 Y25.036 E0.2260
G1 X86.949 Y24.788 E0.2374
G1 X87.563 Y24.494 E0.2488
G1 X88.110 Y24.181 E0.2592
G1 X88.663 Y23.808 E0.2703
G1 X89.263 Y23.324 E0.2832
G1 X89.674 Y22.943 E0.2925
G1 X90.128 Y22.455 E0.3035
G1 X90.543 Y21.935 E0.3146
G1 X90.919 Y21.384 E0.3257
G1 X91.251 Y20.807 E0.3368
G1 X91.539 Y20.206 E0.3479
G1 X91.781 Y19.585 E0.3589
G1 X91.975 Y18.948 E0.3700
G1 X92.120 Y18.298 E0.3811
G1 X92.246 Y17.445 E0.3954
G1 X92.297 Y17.257 E0.3987
G1 X92.366 Y17.075 E0.4019
G1 X92.454 Y16.900 E0.4052
G1 X92.559 Y16.735 E0.4084
G1 X92.681 Y16.583 E0.4117
G1 X92.817 Y16.443 E0.4149
G1 X92.968 Y16.318 E0.4182
G1 X93.130 Y16.210 E0.4214
G1 X93.302 Y16.118 E0.4247
G1 X93.483 Y16.045 E0.4279
G1 X93.671 Y15.990 E0.4312
G1 X93.863 Y15.956 E0.4344
G1 X94.058 Y15.941 E0.4377
G1 X94.253 Y15.946 E0.4409
G1 X94.447 Y15.971 E0.4442
G1 X94.637 Y16.017 E0.4474
G1 X94.821 Y16.081 E0.4506
G1 X94.994 Y16.162 E0.4538
G1 X95.285 Y16.354 E0.4596
G1 X95.467 Y16.516 E0.4637
G1 X95.594 Y16.661 E0.4669
G1 X95.707 Y16.820 E0.4701
G1 X95.804 Y16.990 E0.4734
G1 X95.882 Y17.169 E0.4766
G1 X95.941 Y17.355 E0.4799
G1 X95.981 Y17.546 E0.4831
G1 X96.002 Y17.746 E0.4864
G1 X96.167 Y20.896 E0.5389
G1 X96.151 Y21.259 E0.5450
G1 X96.078 Y21.561 E0.5501
G1 X96.001 Y21.762 E0.5537
G1 X95.818 Y22.068 E0.5596
G1 X94.822 Y23.189 E0.5846
G1 X94.570 Y23.533 E0.5917
G1 X94.393 Y23.911 E0.5986
G1 X94.324 Y24.142 E0.6026
G1 X94.277 Y24.421 E0.6073
G1 X94.300 Y24.627 E0.6108
G1 X94.383 Y24.816 E0.6142
G1 X94.472 Y24.930 E0.6166
G1 X94.579 Y25.021 E0.6189
G1 X94.710 Y25.094 E0.6214
G1 X95.412 Y25.244 E0.6334
G1 X95.674 Y25.336 E0.6380
G1 X95.930 Y25.457 E0.6427
G1 X96.170 Y25.601 E0.6473
G1 X96.395 Y25.769 E0.6520
G1 X96.603 Y25.959 E0.6567
G1 X96.790 Y26.169 E0.6614
G1 X96.955 Y26.397 E0.6661
G1 X97.097 Y26.640 E0.6707
G1 X97.213 Y26.896 E0.6754
G1 X97.304 Y27.163 E0.6801
G1 X97.367 Y27.436 E0.6848
G1 X97.402 Y27.718 E0.6895
G1 X97.432 Y28.299 E0.6992
G1 X97.406 Y28.756 E0.7068
G1 X97.342 Y29.076 E0.7122
G1 X97.258 Y29.342 E0.7168
G1 X97.145 Y29.605 E0.7216
G1 X97.044 Y29.792 E0.7251
G1 X96.858 Y30.068 E0.7307
G1 X96.756 Y30.193 E0.7334
G1 X96.557 Y30.401 E0.7381
G1 X96.306 Y30.613 E0.7436
G1 X96.028 Y30.795 E0.7491
G1 X95.885 Y30.872 E0.7518
G1 X95.626 Y30.986 E0.7565
G1 X95.312 Y31.084 E0.7620
G1 X94.860 Y31.158 E0.7696
G1 X94.613 Y31.168 E0.7737
G1 X94.328 Y31.151 E0.7785
G1 X94.041 Y31.105 E0.7833
G1 X73.233 Y26.625 E1.1373
G1 X73.113 Y26.570 E1.1395
G1 X73.056 Y26.524 E1.1407
G1 X73.010 Y26.467 E1.1419
G1 X72.979 Y26.399 E1.1432
G1 X72.957 Y26.350 F504
G1 X72.944 Y26.278
G1 X72.947 Y26.205
G92 E0.0000
G1 E-1.0000 F2400
G1 X72.984 Y26.082 F504
G1 X73.022 Y26.020
G1 X73.073 Y25.966
G1 X73.177 Y25.901
G1 X73.300 Y25.870
G1 X74.775 Y25.818
G1 X93.524 Y27.834 F12000
G1 E0.0000 F2400
G92 E0.0000
G1 X93.595 Y28.166 E0.0056 F504
G1 X93.704 Y28.380 E0.0097
G1 X93.928 Y28.629 E0.0152
G1 X94.125 Y28.757 E0.0191
G1 X94.338 Y28.838 E0.0229
G1 X94.513 Y28.871 E0.0259
G1 X94.738 Y28.871 E0.0296
G1 X94.913 Y28.838 E0.0326
G1 X95.125 Y28.757 E0.0364
G1 X95.318 Y28.632 E0.0402
G1 X95.481 Y28.469 E0.0440
G1 X95.606 Y28.276 E0.0478
G1 X95.691 Y28.056 E0.0518
G1 X95.726 Y27.723 E0.0573
G1 X95.689 Y27.491 E0.0612
G1 X95.606 Y27.276 E0.0651
G1 X95.481 Y27.083 E0.0689
G1 X95.314 Y26.916 E0.0728
G1 X95.025 Y26.749 E0.0784
G1 X94.797 Y26.688 E0.0823
G1 X94.568 Y26.676 E0.0861
G1 X94.340 Y26.712 E0.0899
G1 X94.125 Y26.795 E0.0938
G1 X93.932 Y26.920 E0.0976
G1 X93.770 Y27.083 E0.1014
G1 X93.644 Y27.276 E0.1052
G1 X93.560 Y27.496 E0.1092
G1 X93.545 Y27.635 E0.1115
G1 X93.524 Y27.834 F504
G92 E0.0000
G1 E-1.0000 F2400
G1 X93.595 Y28.166 F504
G1 X93.704 Y28.380
G1 X93.928 Y28.629
G1 X94.125 Y28.757
G1 X94.338 Y28.838
G1 X94.513 Y28.871
G1 X94.738 Y28.871
G1 X94.913 Y28.838
G1 X94.951 Y28.824
G1 X93.154 Y17.885 F12000
G1 E0.0000 F2400
G92 E0.0000
G1 X93.186 Y18.086 E0.0034 F504
G1 X93.257 Y18.272 E0.0067
G1 X93.365 Y18.439 E0.0100
G1 X93.510 Y18.583 E0.0134
G1 X93.759 Y18.727 E0.0182
G1 X93.956 Y18.779 E0.0216
G1 X94.154 Y18.790 E0.0249
G1 X94.351 Y18.759 E0.0282
G1 X94.536 Y18.688 E0.0315
G1 X94.703 Y18.579 E0.0348
G1 X94.844 Y18.439 E0.0381
G1 X94.952 Y18.272 E0.0414
G1 X95.025 Y18.081 E0.0448
G1 X95.055 Y17.796 E0.0496
G1 X95.023 Y17.594 E0.0530
G1 X94.952 Y17.408 E0.0563
G1 X94.844 Y17.242 E0.0596
G1 X94.699 Y17.097 E0.0630
G1 X94.451 Y16.954 E0.0678
G1 X94.253 Y16.901 E0.0712
G1 X94.055 Y16.890 E0.0745
G1 X93.858 Y16.921 E0.0778
G1 X93.667 Y16.995 E0.0812
G1 X93.424 Y17.175 E0.0862
G1 X93.259 Y17.404 E0.0909
G1 X93.184 Y17.599 E0.0944
G1 X93.175 Y17.686 E0.0958
G1 X93.154 Y17.885 F504
G92 E0.0000
G1 E-1.0000 F2400
G1 X93.186 Y18.086 F504
G1 X93.257 Y18.272
G1 X93.365 Y18.439
G1 X93.510 Y18.583
G1 X93.759 Y18.727
G1 X93.956 Y18.779
G1 X94.154 Y18.790
G1 X94.351 Y18.759
G1 X94.536 Y18.688
G1 X94.625 Y18.630
; feature solid layer
G1 X94.243 Y19.100 F12000
G1 E0.0000 F2400
G92 E0.0000
G1 X95.836 Y20.693 E0.0375 F576
G1 X95.805 Y20.096 E0.0474
G1 X94.683 Y18.974 E0.0738
G1 X94.906 Y18.829 E0.0782
G1 X95.005 Y18.730 E0.0805
G1 X95.774 Y19.499 E0.0986
G1 X95.742 Y18.902 E0.1086
G1 X95.244 Y18.404 E0.1203
G1 X95.339 Y18.157 E0.1247
G1 X95.360 Y17.954 E0.1281
G1 X95.711 Y18.305 E0.1363
G1 X95.683 Y17.771 E0.1452
G1 X95.676 Y17.705 E0.1463
G1 X95.383 Y17.411 E0.1532
G1 X95.242 Y17.270 F576
G92 E0.0000
G1 E-1.0000 F2400
G1 X73.856 Y26.432 F12000
G1 E0.0000 F2400
G92 E0.0000
G1 X73.604 Y26.179 E0.0059 F576
G1 X74.151 Y26.160 E0.0150
G1 X74.577 Y26.587 E0.0251
G1 X75.298 Y26.742 E0.0373
G1 X74.697 Y26.141 E0.0515
G1 X75.244 Y26.122 E0.0605
G1 X76.019 Y26.897 E0.0788
G1 X76.740 Y27.052 E0.0910
G1 X75.790 Y26.103 E0.1134
G1 X76.337 Y26.084 E0.1225
G1 X77.461 Y27.208 E0.1489
G1 X78.182 Y27.363 E0.1612
G1 X76.883 Y26.064 E0.1917
G1 X77.430 Y26.045 E0.2008
G1 X78.902 Y27.518 E0.2354
G1 X79.623 Y27.673 E0.2477
G1 X77.976 Y26.026 E0.2864
G1 X78.523 Y26.007 E0.2955
G1 X80.344 Y27.828 E0.3384
G1 X81.065 Y27.984 E0.3506
G1 X79.069 Y25.988 E0.3976
G1 X79.616 Y25.969 E0.4067
G1 X81.786 Y28.139 E0.4577
G1 X82.507 Y28.294 E0.4700
G1 X80.162 Y25.949 E0.5251
G1 X80.709 Y25.930 E0.5342
G1 X83.228 Y28.449 E0.5934
G1 X83.949 Y28.604 E0.6057
G1 X81.255 Y25.911 E0.6690
G1 X81.802 Y25.892 E0.6781
G1 X84.670 Y28.760 E0.7456
