; G-Code generated by Simplify3D(R) Version 4.1.1
; May 28, 2020 at 10:51:12 PM
; Settings Summary
;   processName,Process1
;   applyToModels,Canopy - LW-PLA
;   profileName,3DAeroventures LW-PLA Generic Gcode (modified)
;   profileVersion,2020-05-28 22:34:53
;   baseProfile,Prusa Research Original Prusa i3 MK3 (modified)
;   printMaterial,PLA
;   printQuality,Medium
;   printExtruders,
;   extruderName,Primary Extruder
;   extruderToolheadNumber,0
;   extruderDiameter,0.4
;   extruderAutoWidth,0
;   extruderWidth,0.4
;   extrusionMultiplier,0.4
;   extruderUseRetract,1
;   extruderRetractionDistance,1
;   extruderExtraRestartDistance,0
;   extruderRetractionZLift,0
;   extruderRetractionSpeed,2400
;   extruderUseCoasting,1
;   extruderCoastingDistance,0.2
;   extruderUseWipe,1
;   extruderWipeDistance,2
;   primaryExtruder,0
;   layerHeight,0.25
;   topSolidLayers,3
;   bottomSolidLayers,3
;   perimeterOutlines,3
;   printPerimetersInsideOut,0
;   startPointOption,3
;   startPointOriginX,90
;   startPointOriginY,180
;   sequentialIslands,0
;   spiralVaseMode,0
;   firstLayerHeightPercentage,100
;   firstLayerWidthPercentage,100
;   firstLayerUnderspeed,0.3
;   useRaft,0
;   raftExtruder,0
;   raftTopLayers,3
;   raftBaseLayers,2
;   raftOffset,3
;   raftSeparationDistance,0.14
;   raftTopInfill,100
;   aboveRaftSpeedMultiplier,0.3
;   useSkirt,1
;   skirtExtruder,0
;   skirtLayers,1
;   skirtOutlines,1
;   skirtOffset,2
;   usePrimePillar,0
;   primePillarExtruder,999
;   primePillarWidth,12
;   primePillarLocation,7
;   primePillarSpeedMultiplier,1
;   useOozeShield,0
;   oozeShieldExtruder,999
;   oozeShieldOffset,2
;   oozeShieldOutlines,1
;   oozeShieldSidewallShape,1
;   oozeShieldSidewallAngle,30
;   oozeShieldSpeedMultiplier,1
;   infillExtruder,0
;   internalInfillPattern,Rectilinear
;   externalInfillPattern,Rectilinear
;   infillPercentage,20
;   outlineOverlapPercentage,20
;   infillExtrusionWidthPercentage,100
;   minInfillLength,5
;   infillLayerInterval,1
;   internalInfillAngles,45,-45
;   overlapInternalInfillAngles,0
;   externalInfillAngles,45,-45
;   generateSupport,1
;   supportExtruder,0
;   supportInfillPercentage,30
;   supportExtraInflation,0
;   supportBaseLayers,0
;   denseSupportExtruder,0
;   denseSupportLayers,3
;   denseSupportInfillPercentage,70
;   supportLayerInterval,1
;   supportHorizontalPartOffset,0.8
;   supportUpperSeparationLayers,1
;   supportLowerSeparationLayers,1
;   supportType,0
;   supportGridSpacing,3
;   maxOverhangAngle,45
;   supportAngles,0
;   temperatureName,Primary Extruder,Heated Bed
;   temperatureNumber,0,0
;   temperatureSetpointCount,1,1
;   temperatureSetpointLayers,1,1
;   temperatureSetpointTemperatures,250,60
;   temperatureStabilizeAtStartup,1,1
;   temperatureHeatedBed,0,1
;   fanLayers,1,2
;   fanSpeeds,0,25
;   blipFanToFullPower,1
;   adjustSpeedForCooling,1
;   minSpeedLayerTime,15
;   minCoolingSpeedSlowdown,10
;   increaseFanForCooling,0
;   minFanLayerTime,45
;   maxCoolingFanSpeed,100
;   increaseFanForBridging,0
;   bridgingFanSpeed,100
;   use5D,1
;   relativeEdistances,0
;   allowEaxisZeroing,1
;   independentExtruderAxes,0
;   includeM10123,0
;   stickySupport,1
;   applyToolheadOffsets,0
;   gcodeXoffset,0
;   gcodeYoffset,0
;   gcodeZoffset,0
;   overrideMachineDefinition,1
;   machineTypeOverride,0
;   strokeXoverride,180
;   strokeYoverride,180
;   strokeZoverride,180
;   originOffsetXoverride,0
;   originOffsetYoverride,0
;   originOffsetZoverride,0
;   homeXdirOverride,-1
;   homeYdirOverride,-1
;   homeZdirOverride,-1
;   flipXoverride,1
;   flipYoverride,-1
;   flipZoverride,1
;   toolheadOffsets,0,0|0,0|0,0|0,0|0,0|0,0
;   overrideFirmwareConfiguration,0
;   firmwareTypeOverride,RepRap (Marlin/Repetier/Sprinter)
;   GPXconfigOverride,r2
;   baudRateOverride,115200
;   overridePrinterModels,1
;   printerModelsOverride
;   startingGcode,G28
;   layerChangeGcode,
;   retractionGcode,
;   toolChangeGcode,
;   endingGcode,M104 S0 ; turn off extruder,M140 S0 ; turn off bed,G28 X0 ; home X axis,M84 ; disable motors,M107 ; turn off fan
;   exportFileFormat,gcode
;   celebration,0
;   celebrationSong,Funky Town
;   postProcessing,
;   defaultSpeed,2400
;   outlineUnderspeed,0.7
;   solidInfillUnderspeed,0.8
;   supportUnderspeed,0.8
;   rapidXYspeed,12000
;   rapidZspeed,1002
;   minBridgingArea,5
;   bridgingExtraInflation,0
;   bridgingExtrusionMultiplier,1
;   bridgingSpeedMultiplier,0.3
;   useFixedBridgingAngle,0
;   fixedBridgingAngle,0
;   applyBridgingToPerimeters,0
;   filamentDiameters,1.75|1.75|1.75|1.75|1.75|1.75
;   filamentPricesPerKg,70|46|46|46|46|46
;   filamentDensities,1.25|1.25|1.25|1.25|1.25|1.25
;   useMinPrintHeight,0
;   minPrintHeight,106
;   useMaxPrintHeight,0
;   maxPrintHeight,0
;   useDiaphragm,0
;   diaphragmLayerInterval,20
;   robustSlicing,1
;   mergeAllIntoSolid,0
;   onlyRetractWhenCrossingOutline,0
;   retractBetweenLayers,0
;   useRetractionMinTravel,0
;   retractionMinTravel,3
;   retractWhileWiping,0
;   onlyWipeOutlines,1
;   avoidCrossingOutline,0
;   maxMovementDetourFactor,3
;   toolChangeRetractionDistance,0
;   toolChangeExtraRestartDistance,0
;   toolChangeRetractionSpeed,360
;   externalThinWallType,0
;   internalThinWallType,1
;   thinWallAllowedOverlapPercentage,10
;   singleExtrusionMinLength,1
;   singleExtrusionMinPrintingWidthPercentage,50
;   singleExtrusionMaxPrintingWidthPercentage,200
;   singleExtrusionEndpointExtension,0.2
;   horizontalSizeCompensation,0
G90
M82
M106 S0
M140 S60
M190 S60
M104 S250 T0
M109 S250 T0
G28
; process Process1
; layer 1, Z = 0.250
T0
G92 E0.0000
G1 E-1.0000 F2400
; feature skirt
; tool H0.250 W0.400
G1 Z0.250 F1002
G1 X105.152 Y111.070 F12000
G1 E0.0000 F2400
G92 E0.0000
G1 X105.152 Y103.808 E0.1208 F720
G1 X105.225 Y103.735 E0.1225
G1 X105.225 Y101.497 E0.1597
G1 X105.268 Y101.454 E0.1607
G1 X105.268 Y99.475 E0.1936
G1 X105.135 Y99.342 E0.1968
G1 X105.151 Y90.124 E0.3501
G1 X105.097 Y90.069 E0.3513
G1 X105.097 Y85.613 E0.4254
G1 X104.969 Y85.485 E0.4284
G1 X104.969 Y78.223 E0.5492
G1 X105.169 Y78.023 E0.5539
G1 X105.164 Y78.016 E0.5541
G1 X104.543 Y77.245 E0.5705
G1 X103.762 Y76.375 E0.5900
G1 X103.181 Y75.780 E0.6038
G1 X102.451 Y75.101 E0.6204
G1 X101.689 Y74.458 E0.6370
G1 X100.898 Y73.852 E0.6535
G1 X100.084 Y73.288 E0.6700
G1 X99.089 Y72.677 E0.6894
G1 X98.362 Y72.271 E0.7033
G1 X97.470 Y71.827 E0.7198
G1 X96.557 Y71.426 E0.7364
G1 X95.633 Y71.072 E0.7529
G1 X94.521 Y70.713 E0.7723
G1 X93.719 Y70.491 E0.7862
G1 X92.746 Y70.272 E0.8027
G1 X91.765 Y70.099 E0.8193
G1 X90.776 Y69.974 E0.8359
G1 X89.782 Y69.896 E0.8525
G1 X88.800 Y69.866 E0.8688
G1 X87.817 Y69.896 E0.8851
G1 X86.824 Y69.974 E0.9017
G1 X85.835 Y70.099 E0.9183
G1 X84.853 Y70.272 E0.9349
G1 X83.888 Y70.490 E0.9513
G1 X82.763 Y70.809 E0.9708
G1 X81.973 Y71.069 E0.9846
G1 X81.042 Y71.426 E1.0012
G1 X80.129 Y71.827 E1.0178
G1 X79.237 Y72.271 E1.0343
G1 X78.367 Y72.757 E1.0509
G1 X77.521 Y73.285 E1.0675
G1 X76.701 Y73.852 E1.0841
G1 X75.916 Y74.454 E1.1005
G1 X75.028 Y75.214 E1.1200
G1 X74.419 Y75.780 E1.1338
G1 X73.722 Y76.493 E1.1504
G1 X73.061 Y77.239 E1.1670
G1 X72.436 Y78.016 E1.1835
G1 X71.884 Y78.773 E1.1991
G1 X72.342 Y79.231 E1.2099
G1 X72.342 Y85.360 E1.3118
G1 X72.297 Y85.405 E1.3129
G1 X72.297 Y89.865 E1.3870
G1 X72.251 Y89.911 E1.3881
G1 X72.251 Y94.430 E1.4633
G1 X72.204 Y94.477 E1.4644
G1 X72.204 Y99.055 E1.5405
G1 X72.096 Y99.163 E1.5431
G1 X72.096 Y103.738 E1.6191
G1 X72.053 Y103.780 E1.6201
G1 X72.052 Y111.308 E1.7453
G1 X70.763 Y112.597 E1.7756
G1 X63.501 Y112.597 E1.8964
G1 X62.212 Y111.308 E1.9267
G1 X62.214 Y100.780 E2.1018
G1 X62.256 Y100.738 E2.1028
G1 X62.256 Y96.475 E2.1737
G1 X62.364 Y96.367 E2.1762
G1 X62.364 Y91.792 E2.2523
G1 X62.411 Y91.745 E2.2534
G1 X62.411 Y87.167 E2.3295
G1 X62.457 Y87.121 E2.3306
G1 X62.457 Y82.603 E2.4058
G1 X62.502 Y82.558 E2.4068
G1 X62.502 Y79.235 E2.4621
G1 X63.263 Y78.473 E2.4800
G1 X63.271 Y77.948 E2.4887
G1 X63.273 Y77.893 E2.4897
G1 X63.319 Y77.187 E2.5014
G1 X63.325 Y77.127 E2.5024
G1 X63.452 Y76.070 E2.5201
G1 X63.462 Y76.004 E2.5212
G1 X63.615 Y75.159 E2.5355
G1 X63.630 Y75.089 E2.5367
G1 X63.913 Y73.950 E2.5562
G1 X63.934 Y73.877 E2.5575
G1 X64.231 Y72.958 E2.5735
G1 X64.254 Y72.895 E2.5746
G1 X64.588 Y72.043 E2.5899
G1 X64.614 Y71.980 E2.5910
G1 X64.981 Y71.193 E2.6054
G1 X65.012 Y71.131 E2.6066
G1 X65.475 Y70.280 E2.6227
G1 X65.516 Y70.211 E2.6240
G1 X66.412 Y68.816 E2.6516
G1 X66.443 Y68.770 E2.6525
G1 X67.093 Y67.861 E2.6711
G1 X67.121 Y67.823 E2.6719
G1 X67.810 Y66.943 E2.6905
G1 X67.853 Y66.892 E2.6916
G1 X69.167 Y65.407 E2.7246
G1 X69.214 Y65.357 E2.7257
G1 X69.989 Y64.585 E2.7439
G1 X70.023 Y64.552 E2.7447
G1 X70.786 Y63.855 E2.7619
G1 X70.822 Y63.823 E2.7627
G1 X71.657 Y63.126 E2.7808
G1 X71.711 Y63.084 E2.7819
G1 X73.178 Y62.004 E2.8122
G1 X73.235 Y61.965 E2.8134
G1 X74.147 Y61.377 E2.8314
G1 X74.190 Y61.351 E2.8322
G1 X75.090 Y60.828 E2.8495
G1 X75.149 Y60.796 E2.8507
G1 X76.782 Y59.975 E2.8811
G1 X76.842 Y59.947 E2.8822
G1 X77.829 Y59.523 E2.9000
G1 X77.886 Y59.500 E2.9011
G1 X79.491 Y58.914 E2.9295
G1 X79.550 Y58.895 E2.9305
G1 X80.677 Y58.554 E2.9501
G1 X80.735 Y58.538 E2.9511
G1 X82.431 Y58.126 E2.9801
G1 X82.489 Y58.114 E2.9811
G1 X83.655 Y57.896 E3.0008
G1 X83.701 Y57.888 E3.0016
G1 X84.879 Y57.719 E3.0214
G1 X84.924 Y57.713 E3.0221
G1 X86.119 Y57.590 E3.0421
G1 X86.162 Y57.587 E3.0428
G1 X87.339 Y57.513 E3.0624
G1 X87.394 Y57.511 E3.0634
G1 X89.411 Y57.486 E3.0969
G1 X89.480 Y57.487 E3.0981
G1 X91.417 Y57.585 E3.1303
G1 X91.473 Y57.590 E3.1312
G1 X92.676 Y57.713 E3.1513
G1 X92.720 Y57.719 E3.1521
G1 X93.899 Y57.888 E3.1719
G1 X93.944 Y57.896 E3.1727
G1 X95.111 Y58.114 E3.1924
G1 X95.168 Y58.126 E3.1934
G1 X96.864 Y58.538 E3.2224
G1 X96.923 Y58.554 E3.2234
G1 X98.043 Y58.893 E3.2429
G1 X98.090 Y58.908 E3.2437
G1 X99.154 Y59.282 E3.2625
G1 X99.211 Y59.304 E3.2635
G1 X100.731 Y59.935 E3.2908
G1 X100.788 Y59.961 E3.2919
G1 X101.791 Y60.445 E3.3104
G1 X101.850 Y60.476 E3.3115
G1 X103.388 Y61.338 E3.3408
G1 X103.445 Y61.373 E3.3419
G1 X104.357 Y61.960 E3.3600
G1 X104.399 Y61.988 E3.3608
G1 X105.285 Y62.619 E3.3789
G1 X105.339 Y62.660 E3.3800
G1 X106.757 Y63.806 E3.4103
G1 X106.807 Y63.849 E3.4114
G1 X107.576 Y64.552 E3.4288
G1 X107.611 Y64.585 E3.4296
G1 X108.377 Y65.349 E3.4476
G1 X108.409 Y65.382 E3.4483
G1 X109.058 Y66.085 E3.4642
G1 X109.088 Y66.119 E3.4650
G1 X109.800 Y66.957 E3.4833
G1 X109.828 Y66.992 E3.4840
G1 X110.479 Y67.824 E3.5016
G1 X110.507 Y67.862 E3.5024
G1 X111.153 Y68.765 E3.5208
G1 X111.177 Y68.801 E3.5216
G1 X111.818 Y69.775 E3.5409
G1 X111.855 Y69.836 E3.5421
G1 X112.549 Y71.056 E3.5655
G1 X112.589 Y71.134 E3.5669
G1 X112.983 Y71.976 E3.5824
G1 X113.010 Y72.039 E3.5835
G1 X113.325 Y72.837 E3.5978
G1 X113.346 Y72.896 E3.5989
G1 X113.628 Y73.751 E3.6138
G1 X113.646 Y73.811 E3.6149
G1 X113.866 Y74.633 E3.6290
G1 X113.881 Y74.693 E3.6300
G1 X114.066 Y75.582 E3.6451
G1 X114.077 Y75.641 E3.6461
G1 X114.205 Y76.484 E3.6603
G1 X114.213 Y76.542 E3.6613
G1 X114.297 Y77.404 E3.6757
G1 X114.302 Y77.483 E3.6770
G1 X114.334 Y78.760 E3.6983
G1 X114.809 Y79.235 E3.7094
G1 X114.809 Y82.678 E3.7667
G1 X114.937 Y82.806 E3.7697
G1 X114.937 Y87.370 E3.8456
G1 X114.995 Y87.429 E3.8470
G1 X114.978 Y96.690 E4.0010
G1 X115.108 Y96.819 E4.0040
G1 X115.108 Y104.081 E4.1248
G1 X115.065 Y104.124 E4.1258
G1 X115.065 Y108.760 E4.2029
G1 X114.992 Y108.833 E4.2046
G1 X114.992 Y111.070 E4.2418
G1 X113.703 Y112.359 E4.2721
G1 X106.441 Y112.359 E4.3929
G1 X105.152 Y111.070 E4.4232
G92 E0.0000
G1 E-1.0000 F2400
; feature outer perimeter
G1 X108.365 Y79.143 F12000
G1 E0.0000 F2400
G92 E0.0000
G1 X108.366 Y78.429 E0.0119 F504
G1 X107.724 Y77.454 E0.0313
G1 X107.069 Y76.556 E0.0498
G1 X106.372 Y75.689 E0.0683
G1 X105.514 Y74.734 E0.0896
G1 X104.858 Y74.062 E0.1052
G1 X104.044 Y73.305 E0.1237
G1 X103.194 Y72.587 E0.1422
G1 X102.311 Y71.911 E0.1607
G1 X101.397 Y71.278 E0.1792
G1 X100.303 Y70.606 E0.2006
G1 X99.483 Y70.148 E0.2162
G1 X98.488 Y69.652 E0.2347
G1 X97.470 Y69.205 E0.2532
G1 X96.431 Y68.807 E0.2717
G1 X95.209 Y68.414 E0.2930
G1 X94.304 Y68.163 E0.3086
G1 X93.219 Y67.918 E0.3271
G1 X92.124 Y67.725 E0.3456
G1 X91.021 Y67.585 E0.3641
G1 X89.912 Y67.498 E0.3826
G1 X88.800 Y67.465 E0.4011
G1 X87.687 Y67.498 E0.4196
G1 X86.579 Y67.585 E0.4381
G1 X85.475 Y67.725 E0.4566
G1 X84.380 Y67.918 E0.4751
G1 X83.295 Y68.163 E0.4936
G1 X82.060 Y68.514 E0.5149
G1 X81.168 Y68.807 E0.5306
G1 X80.130 Y69.205 E0.5491
G1 X79.112 Y69.652 E0.5675
G1 X78.116 Y70.148 E0.5860
G1 X77.146 Y70.690 E0.6045
G1 X76.202 Y71.278 E0.6230
G1 X75.288 Y71.911 E0.6415
G1 X74.405 Y72.588 E0.6600
G1 X73.429 Y73.423 E0.6814
G1 X72.742 Y74.062 E0.6970
G1 X71.965 Y74.858 E0.7155
G1 X71.227 Y75.690 E0.7340
G1 X70.530 Y76.556 E0.7524
G1 X69.875 Y77.454 E0.7709
G1 X69.234 Y78.429 E0.7903
G1 X69.234 Y79.143 E0.8022
G1 X65.654 Y79.145 E0.8618
G1 X65.671 Y78.016 E0.8805
G1 X65.712 Y77.378 E0.8912
G1 X65.830 Y76.394 E0.9076
G1 X65.969 Y75.628 E0.9206
G1 X66.231 Y74.573 E0.9387
G1 X66.503 Y73.734 E0.9533
G1 X66.808 Y72.956 E0.9672
G1 X67.139 Y72.243 E0.9803
G1 X67.562 Y71.466 E0.9950
G1 X67.808 Y71.060 E1.0029
G1 X68.413 Y70.141 E1.0212
G1 X69.029 Y69.280 E1.0388
G1 X69.677 Y68.452 E1.0563
G1 X70.323 Y67.693 E1.0729
G1 X70.936 Y67.030 E1.0879
G1 X71.663 Y66.305 E1.1050
G1 X72.383 Y65.647 E1.1212
G1 X73.167 Y64.991 E1.1382
G1 X73.772 Y64.525 E1.1509
G1 X74.567 Y63.962 E1.1671
G1 X75.421 Y63.411 E1.1840
G1 X76.264 Y62.921 E1.2002
G1 X76.886 Y62.590 E1.2119
G1 X77.824 Y62.137 E1.2292
G1 X78.744 Y61.742 E1.2459
G1 X79.729 Y61.369 E1.2634
G1 X80.277 Y61.182 E1.2730
G1 X81.339 Y60.861 E1.2915
G1 X81.873 Y60.719 E1.3007
G1 X82.963 Y60.467 E1.3193
G1 X84.070 Y60.260 E1.3380
G1 X85.195 Y60.098 E1.3569
G1 X86.339 Y59.981 E1.3760
G1 X87.459 Y59.910 E1.3947
G1 X88.199 Y59.886 E1.4070
G1 X89.400 Y59.886 E1.4270
G1 X90.141 Y59.910 E1.4393
G1 X91.260 Y59.981 E1.4580
G1 X92.404 Y60.098 E1.4771
G1 X93.530 Y60.260 E1.4960
G1 X94.637 Y60.467 E1.5147
G1 X95.683 Y60.708 E1.5326
G1 X96.261 Y60.861 E1.5425
G1 X97.321 Y61.182 E1.5609
G1 X98.326 Y61.535 E1.5787
G1 X98.959 Y61.784 E1.5900
G1 X99.775 Y62.137 E1.6048
G1 X100.713 Y62.590 E1.6221
G1 X101.297 Y62.900 E1.6331
G1 X102.178 Y63.411 E1.6500
G1 X103.032 Y63.962 E1.6669
G1 X103.863 Y64.552 E1.6839
G1 X104.432 Y64.991 E1.6958
G1 X105.216 Y65.646 E1.7128
G1 X105.936 Y66.305 E1.7290
G1 X106.663 Y67.030 E1.7461
G1 X107.276 Y67.693 E1.7611
G1 X107.953 Y68.490 E1.7785
G1 X108.571 Y69.280 E1.7952
G1 X109.186 Y70.141 E1.8128
G1 X109.791 Y71.061 E1.8311
G1 X110.037 Y71.466 E1.8390
G1 X110.436 Y72.196 E1.8528
G1 X110.792 Y72.956 E1.8668
G1 X111.079 Y73.683 E1.8798
G1 X111.337 Y74.468 E1.8935
G1 X111.539 Y75.219 E1.9065
G1 X111.710 Y76.038 E1.9204
G1 X111.827 Y76.811 E1.9334
G1 X111.904 Y77.593 E1.9464
G1 X111.942 Y78.445 E1.9606
G1 X111.947 Y79.145 E1.9723
G1 X108.565 Y79.143 E2.0285
G1 X108.365 Y79.143 F504
G92 E0.0000
G1 E-1.0000 F2400
G1 X108.366 Y78.429 F504
G1 X107.724 Y77.454
G1 X107.654 Y77.358
; feature inner perimeter
G1 X108.765 Y78.743 F12000
G1 E0.0000 F2400
G92 E0.0000
G1 X108.766 Y78.310 E0.0072 F612
G1 X108.053 Y77.227 E0.0288
G1 X107.387 Y76.312 E0.0476
G1 X106.677 Y75.430 E0.0664
G1 X105.806 Y74.461 E0.0881
G1 X105.137 Y73.776 E0.1040
G1 X104.309 Y73.005 E0.1228
G1 X103.445 Y72.276 E0.1416
G1 X102.547 Y71.588 E0.1604
G1 X101.615 Y70.943 E0.1793
G1 X100.505 Y70.261 E0.2009
G1 X100.202 Y70.091 E0.2067
G1 X100.298 Y69.808 E0.2117
G1 X100.499 Y69.836 E0.2151
