; G-Code generated by Simplify3D(R) Version 4.1.1
; May 28, 2020 at 11:17:11 PM
; Settings Summary
;   processName,Process1
;   applyToModels,Elev R
;   profileName,3DAeroventures LW-PLA Generic Gcode (modified)
;   profileVersion,2020-05-28 22:34:53
;   baseProfile,Prusa Research Original Prusa i3 MK3 (modified)
;   printMaterial,PLA
;   printQuality,Medium
;   printExtruders,
;   extruderName,Primary Extruder
;   extruderToolheadNumber,0
;   extruderDiameter,0.4
;   extruderAutoWidth,0
;   extruderWidth,0.4
;   extrusionMultiplier,0.4
;   extruderUseRetract,1
;   extruderRetractionDistance,1
;   extruderExtraRestartDistance,0
;   extruderRetractionZLift,0
;   extruderRetractionSpeed,2400
;   extruderUseCoasting,1
;   extruderCoastingDistance,0.2
;   extruderUseWipe,1
;   extruderWipeDistance,2
;   primaryExtruder,0
;   layerHeight,0.25
;   topSolidLayers,5
;   bottomSolidLayers,4
;   perimeterOutlines,1
;   printPerimetersInsideOut,0
;   startPointOption,3
;   startPointOriginX,180
;   startPointOriginY,30
;   sequentialIslands,0
;   spiralVaseMode,0
;   firstLayerHeightPercentage,100
;   firstLayerWidthPercentage,100
;   firstLayerUnderspeed,0.3
;   useRaft,0
;   raftExtruder,0
;   raftTopLayers,3
;   raftBaseLayers,2
;   raftOffset,3
;   raftSeparationDistance,0.14
;   raftTopInfill,100
;   aboveRaftSpeedMultiplier,0.3
;   useSkirt,1
;   skirtExtruder,0
;   skirtLayers,1
;   skirtOutlines,1
;   skirtOffset,2
;   usePrimePillar,0
;   primePillarExtruder,999
;   primePillarWidth,12
;   primePillarLocation,7
;   primePillarSpeedMultiplier,1
;   useOozeShield,0
;   oozeShieldExtruder,999
;   oozeShieldOffset,2
;   oozeShieldOutlines,1
;   oozeShieldSidewallShape,1
;   oozeShieldSidewallAngle,30
;   oozeShieldSpeedMultiplier,1
;   infillExtruder,0
;   internalInfillPattern,Rectilinear
;   externalInfillPattern,Rectilinear
;   infillPercentage,0
;   outlineOverlapPercentage,20
;   infillExtrusionWidthPercentage,100
;   minInfillLength,5
;   infillLayerInterval,1
;   internalInfillAngles,45,-45
;   overlapInternalInfillAngles,0
;   externalInfillAngles,45,-45
;   generateSupport,0
;   supportExtruder,0
;   supportInfillPercentage,30
;   supportExtraInflation,0
;   supportBaseLayers,0
;   denseSupportExtruder,0
;   denseSupportLayers,3
;   denseSupportInfillPercentage,70
;   supportLayerInterval,1
;   supportHorizontalPartOffset,0.8
;   supportUpperSeparationLayers,1
;   supportLowerSeparationLayers,1
;   supportType,0
;   supportGridSpacing,3
;   maxOverhangAngle,45
;   supportAngles,0
;   temperatureName,Primary Extruder,Heated Bed
;   temperatureNumber,0,0
;   temperatureSetpointCount,1,1
;   temperatureSetpointLayers,1,1
;   temperatureSetpointTemperatures,250,60
;   temperatureStabilizeAtStartup,1,1
;   temperatureHeatedBed,0,1
;   fanLayers,1,2
;   fanSpeeds,0,25
;   blipFanToFullPower,1
;   adjustSpeedForCooling,1
;   minSpeedLayerTime,15
;   minCoolingSpeedSlowdown,10
;   increaseFanForCooling,0
;   minFanLayerTime,45
;   maxCoolingFanSpeed,100
;   increaseFanForBridging,0
;   bridgingFanSpeed,100
;   use5D,1
;   relativeEdistances,0
;   allowEaxisZeroing,1
;   independentExtruderAxes,0
;   includeM10123,0
;   stickySupport,1
;   applyToolheadOffsets,0
;   gcodeXoffset,0
;   gcodeYoffset,0
;   gcodeZoffset,0
;   overrideMachineDefinition,1
;   machineTypeOverride,0
;   strokeXoverride,180
;   strokeYoverride,180
;   strokeZoverride,180
;   originOffsetXoverride,0
;   originOffsetYoverride,0
;   originOffsetZoverride,0
;   homeXdirOverride,-1
;   homeYdirOverride,-1
;   homeZdirOverride,-1
;   flipXoverride,1
;   flipYoverride,-1
;   flipZoverride,1
;   toolheadOffsets,0,0|0,0|0,0|0,0|0,0|0,0
;   overrideFirmwareConfiguration,0
;   firmwareTypeOverride,RepRap (Marlin/Repetier/Sprinter)
;   GPXconfigOverride,r2
;   baudRateOverride,115200
;   overridePrinterModels,1
;   printerModelsOverride
;   startingGcode,G28
;   layerChangeGcode,
;   retractionGcode,
;   toolChangeGcode,
;   endingGcode,M104 S0 ; turn off extruder,M140 S0 ; turn off bed,G28 X0 ; home X axis,M84 ; disable motors,M107 ; turn off fan
;   exportFileFormat,gcode
;   celebration,0
;   celebrationSong,Funky Town
;   postProcessing,
;   defaultSpeed,2400
;   outlineUnderspeed,0.7
;   solidInfillUnderspeed,0.8
;   supportUnderspeed,0.8
;   rapidXYspeed,12000
;   rapidZspeed,1002
;   minBridgingArea,5
;   bridgingExtraInflation,0
;   bridgingExtrusionMultiplier,1
;   bridgingSpeedMultiplier,0.3
;   useFixedBridgingAngle,0
;   fixedBridgingAngle,0
;   applyBridgingToPerimeters,0
;   filamentDiameters,1.75|1.75|1.75|1.75|1.75|1.75
;   filamentPricesPerKg,70|46|46|46|46|46
;   filamentDensities,1.25|1.25|1.25|1.25|1.25|1.25
;   useMinPrintHeight,0
;   minPrintHeight,106
;   useMaxPrintHeight,0
;   maxPrintHeight,0
;   useDiaphragm,0
;   diaphragmLayerInterval,20
;   robustSlicing,1
;   mergeAllIntoSolid,0
;   onlyRetractWhenCrossingOutline,0
;   retractBetweenLayers,0
;   useRetractionMinTravel,0
;   retractionMinTravel,3
;   retractWhileWiping,0
;   onlyWipeOutlines,1
;   avoidCrossingOutline,0
;   maxMovementDetourFactor,3
;   toolChangeRetractionDistance,0
;   toolChangeExtraRestartDistance,0
;   toolChangeRetractionSpeed,360
;   externalThinWallType,0
;   internalThinWallType,1
;   thinWallAllowedOverlapPercentage,10
;   singleExtrusionMinLength,1
;   singleExtrusionMinPrintingWidthPercentage,50
;   singleExtrusionMaxPrintingWidthPercentage,200
;   singleExtrusionEndpointExtension,0.2
;   horizontalSizeCompensation,0
G90
M82
M106 S0
M140 S60
M190 S60
M104 S250 T0
M109 S250 T0
G28
; process Process1
; layer 1, Z = 0.250
T0
G92 E0.0000
G1 E-1.0000 F2400
; feature skirt
; tool H0.250 W0.400
G1 Z0.250 F1002
G1 X103.981 Y33.976 F12000
G1 E0.0000 F2400
G92 E0.0000
G1 X103.894 Y34.786 E0.0135 F720
G1 X103.453 Y35.648 E0.0296
G1 X102.847 Y36.192 E0.0432
G1 X102.135 Y36.465 E0.0559
G1 X101.738 Y36.539 E0.0626
G1 X77.029 Y36.539 E0.4735
G1 X76.914 Y36.533 E0.4754
G1 X76.202 Y36.458 E0.4873
G1 X75.977 Y36.410 E0.4912
G1 X75.269 Y36.180 E0.5035
G1 X75.109 Y36.114 E0.5064
G1 X74.713 Y35.912 E0.5138
G1 X74.565 Y35.822 E0.5167
G1 X73.970 Y35.389 E0.5289
G1 X73.809 Y35.247 E0.5325
G1 X73.397 Y34.803 E0.5426
G1 X73.301 Y34.683 E0.5451
G1 X72.973 Y34.212 E0.5547
G1 X72.871 Y34.031 E0.5581
G1 X72.561 Y33.334 E0.5708
G1 X72.489 Y33.115 E0.5746
G1 X72.329 Y32.360 E0.5875
G1 X72.305 Y32.132 E0.5913
G1 X72.303 Y31.330 E0.6046
G1 X72.326 Y31.107 E0.6083
G1 X72.476 Y30.375 E0.6208
G1 X72.542 Y30.163 E0.6245
G1 X72.836 Y29.477 E0.6369
G1 X72.943 Y29.282 E0.6406
G1 X73.369 Y28.669 E0.6530
G1 X73.513 Y28.499 E0.6567
G1 X74.053 Y27.984 E0.6691
G1 X74.229 Y27.847 E0.6728
G1 X74.861 Y27.451 E0.6852
G1 X75.060 Y27.352 E0.6889
G1 X75.759 Y27.090 E0.7013
G1 X75.974 Y27.034 E0.7050
G1 X76.684 Y26.922 E0.7170
G1 X76.850 Y26.909 E0.7198
G1 X77.285 Y26.907 E0.7270
G1 X77.463 Y26.920 E0.7299
G1 X82.343 Y27.694 E0.8121
G1 X82.367 Y27.698 E0.8125
G1 X84.687 Y28.120 E0.8517
G1 X84.703 Y28.122 E0.8520
G1 X89.153 Y28.996 E0.9274
G1 X89.172 Y29.000 E0.9277
G1 X102.242 Y31.806 E1.1501
G1 X102.617 Y31.962 E1.1568
G1 X103.256 Y32.381 E1.1695
G1 X103.732 Y33.041 E1.1830
G1 X103.981 Y33.976 E1.1991
G92 E0.0000
G1 E-1.0000 F2400
; feature outer perimeter
G1 X101.547 Y34.127 F12000
G1 E0.0000 F2400
G92 E0.0000
G1 X101.543 Y34.132 E0.0001 F504
G1 X101.535 Y34.137 E0.0003
G1 X101.521 Y34.139 E0.0005
G1 X77.092 Y34.139 E0.4068
G1 X76.836 Y34.126 E0.4110
G1 X76.588 Y34.086 E0.4152
G1 X76.346 Y34.021 E0.4194
G1 X76.112 Y33.932 E0.4235
G1 X75.889 Y33.818 E0.4277
G1 X75.777 Y33.745 E0.4299
G1 X75.481 Y33.521 E0.4361
G1 X75.306 Y33.346 E0.4402
G1 X75.222 Y33.242 E0.4424
G1 X75.010 Y32.938 E0.4486
G1 X74.898 Y32.717 E0.4527
G1 X74.808 Y32.483 E0.4569
G1 X74.743 Y32.241 E0.4611
G1 X74.704 Y31.998 E0.4651
G1 X74.704 Y31.454 E0.4742
G1 X74.739 Y31.220 E0.4781
G1 X74.800 Y30.985 E0.4822
G1 X74.884 Y30.758 E0.4862
G1 X74.990 Y30.541 E0.4902
G1 X75.118 Y30.335 E0.4942
G1 X75.265 Y30.144 E0.4983
G1 X75.432 Y29.968 E0.5023
G1 X75.615 Y29.810 E0.5063
G1 X75.813 Y29.671 E0.5103
G1 X76.024 Y29.553 E0.5144
G1 X76.247 Y29.457 E0.5184
G1 X76.477 Y29.383 E0.5224
G1 X76.714 Y29.334 E0.5264
G1 X76.955 Y29.308 E0.5305
G1 X77.197 Y29.307 E0.5345
G1 X77.442 Y29.331 E0.5386
G1 X79.808 Y29.699 E0.5784
G1 X81.951 Y30.062 E0.6145
G1 X84.249 Y30.479 E0.6534
G1 X88.680 Y31.349 E0.7285
G1 X94.458 Y32.570 E0.8267
G1 X101.361 Y34.071 E0.9442
G1 X101.519 Y34.105 F504
G1 X101.546 Y34.118
G1 X101.547 Y34.127
G92 E0.0000
G1 E-1.0000 F2400
G1 X101.543 Y34.132 F504
G1 X101.535 Y34.137
G1 X101.521 Y34.139
G1 X99.551 Y34.139
G1 X78.066 Y31.613 F12000
G1 E0.0000 F2400
G92 E0.0000
G1 X78.018 Y31.388 E0.0038 F504
G1 X77.925 Y31.178 E0.0077
G1 X77.789 Y30.991 E0.0115
G1 X77.618 Y30.837 E0.0153
G1 X77.414 Y30.720 E0.0192
G1 X77.091 Y30.633 E0.0248
G1 X76.856 Y30.633 E0.0287
G1 X76.631 Y30.681 E0.0325
G1 X76.420 Y30.774 E0.0364
G1 X76.234 Y30.910 E0.0402
G1 X76.080 Y31.081 E0.0440
G1 X75.962 Y31.285 E0.0479
G1 X75.877 Y31.603 E0.0534
G1 X75.870 Y31.739 E0.0557
G1 X75.922 Y32.063 E0.0611
G1 X76.017 Y32.279 E0.0651
G1 X76.153 Y32.465 E0.0689
G1 X76.324 Y32.619 E0.0727
G1 X76.528 Y32.737 E0.0766
G1 X76.851 Y32.823 E0.0822
G1 X77.086 Y32.823 E0.0861
G1 X77.316 Y32.774 E0.0900
G1 X77.614 Y32.622 E0.0956
G1 X77.789 Y32.465 E0.0995
G1 X77.925 Y32.279 E0.1033
G1 X78.018 Y32.068 E0.1072
G1 X78.066 Y31.843 E0.1110
G1 X78.066 Y31.813 E0.1115
G1 X78.066 Y31.613 F504
G92 E0.0000
G1 E-1.0000 F2400
G1 X78.018 Y31.388 F504
G1 X77.925 Y31.178
G1 X77.789 Y30.991
G1 X77.618 Y30.837
G1 X77.414 Y30.720
G1 X77.091 Y30.633
G1 X76.856 Y30.633
G1 X76.631 Y30.681
G1 X76.591 Y30.699
; feature solid layer
G1 X97.982 Y33.664 F12000
G1 E0.0000 F2400
G92 E0.0000
G1 X98.138 Y33.819 E0.0037 F576
G1 X97.572 Y33.819 E0.0131
G1 X97.259 Y33.506 E0.0204
G1 X96.536 Y33.349 E0.0327
G1 X97.006 Y33.819 E0.0438
G1 X96.441 Y33.819 E0.0532
G1 X95.813 Y33.192 E0.0679
G1 X95.090 Y33.034 E0.0802
G1 X95.875 Y33.819 E0.0987
G1 X95.309 Y33.819 E0.1081
G1 X94.368 Y32.877 E0.1302
G1 X93.650 Y32.726 E0.1424
G1 X94.743 Y33.819 E0.1681
G1 X94.178 Y33.819 E0.1775
G1 X92.933 Y32.574 E0.2068
G1 X92.216 Y32.423 E0.2190
G1 X93.612 Y33.819 E0.2518
G1 X93.046 Y33.819 E0.2612
G1 X91.499 Y32.271 E0.2976
G1 X90.782 Y32.120 E0.3098
G1 X92.481 Y33.819 E0.3498
G1 X91.915 Y33.819 E0.3592
G1 X90.065 Y31.969 E0.4027
G1 X89.347 Y31.817 E0.4149
G1 X91.349 Y33.819 E0.4620
G1 X90.784 Y33.819 E0.4714
G1 X88.630 Y31.666 E0.5220
G1 X88.616 Y31.663 E0.5223
G1 X87.926 Y31.527 E0.5340
G1 X90.218 Y33.819 E0.5879
G1 X89.652 Y33.819 E0.5973
G1 X87.222 Y31.389 E0.6544
G1 X86.518 Y31.251 E0.6663
G1 X89.087 Y33.819 E0.7267
G1 X88.521 Y33.819 E0.7362
G1 X85.815 Y31.113 E0.7998
G1 X85.111 Y30.975 E0.8117
G1 X87.955 Y33.819 E0.8786
G1 X87.390 Y33.819 E0.8880
G1 X84.407 Y30.836 E0.9582
G1 X84.190 Y30.794 E0.9619
G1 X83.712 Y30.707 E0.9699
G1 X86.824 Y33.819 E1.0431
G1 X86.258 Y33.819 E1.0525
G1 X83.021 Y30.582 E1.1287
G1 X82.330 Y30.456 E1.1404
G1 X85.692 Y33.819 E1.2194
G1 X85.127 Y33.819 E1.2288
G1 X81.642 Y30.335 E1.3108
G1 X80.961 Y30.219 E1.3223
G1 X84.561 Y33.819 E1.4069
G1 X83.995 Y33.819 E1.4163
G1 X80.280 Y30.104 E1.5037
G1 X79.757 Y30.015 E1.5125
G1 X79.602 Y29.991 E1.5152
G1 X83.430 Y33.819 E1.6052
G1 X82.864 Y33.819 E1.6146
G1 X78.932 Y29.887 E1.7071
G1 X78.262 Y29.782 E1.7183
G1 X82.298 Y33.819 E1.8133
G1 X81.733 Y33.819 E1.8227
G1 X77.592 Y29.678 E1.9201
G1 X77.402 Y29.649 E1.9233
G1 X77.182 Y29.627 E1.9269
G1 X76.976 Y29.628 E1.9304
G1 X81.167 Y33.819 E2.0289
G1 X80.601 Y33.819 E2.0383
G1 X78.386 Y31.604 E2.0904
G1 X78.386 Y31.579 E2.0908
G1 X78.324 Y31.288 E2.0958
G1 X78.203 Y31.017 E2.1007
G1 X78.028 Y30.776 E2.1057
G1 X77.807 Y30.577 E2.1106
G1 X77.538 Y30.421 E2.1158
G1 X77.134 Y30.313 E2.1228
G1 X77.095 Y30.313 E2.1234
G1 X76.496 Y29.713 E2.1375
G1 X76.359 Y29.757 E2.1399
G1 X76.167 Y29.840 E2.1434
G1 X76.096 Y29.879 E2.1447
G1 X76.581 Y30.364 E2.1561
G1 X76.531 Y30.375 E2.1570
G1 X76.260 Y30.496 E2.1619
G1 X76.194 Y30.543 E2.1632
G1 X75.759 Y30.108 E2.1735
G1 X75.653 Y30.200 E2.1758
G1 X75.509 Y30.352 E2.1793
G1 X75.478 Y30.392 E2.1801
G1 X75.894 Y30.809 E2.1899
G1 X75.820 Y30.892 E2.1918
G1 X75.670 Y31.151 E2.1968
G1 X75.252 Y30.733 E2.2066
G1 X75.178 Y30.884 E2.2094
G1 X75.106 Y31.081 E2.2129
G1 X75.091 Y31.137 E2.2139
G1 X75.557 Y31.603 E2.2248
G1 X75.549 Y31.755 E2.2273
G1 X75.612 Y32.155 E2.2341
G1 X75.667 Y32.279 E2.2363
G1 X75.024 Y31.636 E2.2515
G1 X75.024 Y31.973 E2.2571
G1 X75.056 Y32.174 E2.2605
G1 X75.078 Y32.256 E2.2619
G1 X76.574 Y33.751 E2.2970
G1 X76.655 Y33.773 E2.2984
G1 X76.870 Y33.807 E2.3021
G1 X77.100 Y33.819 E2.3059
G1 X77.207 Y33.819 E2.3077
G1 X76.430 Y33.042 E2.3259
G1 X76.808 Y33.143 E2.3325
G1 X77.097 Y33.143 E2.3373
G1 X77.773 Y33.819 E2.3532
G1 X78.339 Y33.819 E2.3626
G1 X77.539 Y33.020 E2.3814
G1 X77.797 Y32.888 E2.3862
G1 X77.890 Y32.805 E2.3883
G1 X78.904 Y33.819 E2.4121
G1 X79.470 Y33.819 E2.4215
G1 X78.156 Y32.505 E2.4524
G1 X78.203 Y32.440 E2.4538
G1 X78.324 Y32.168 E2.4587
G1 X78.335 Y32.118 E2.4596
G1 X79.894 Y33.678 E2.4962
G1 X80.036 Y33.819 F576
G92 E0.0000
G1 E-1.0000 F2400
; layer 2, Z = 0.500
M106 S255
G4 P500
M106 S64
; feature outer perimeter
G1 Z0.500 F1002
G1 X101.722 Y34.125 F12000
G1 E0.0000 F2400
G92 E0.0000
G1 X101.704 Y34.205 E0.0014 F875
G1 X101.678 Y34.245 E0.0022
G1 X101.612 Y34.294 E0.0035
G1 X101.515 Y34.314 E0.0052
G1 X77.092 Y34.314 E0.4113
G1 X76.819 Y34.300 E0.4159
G1 X76.552 Y34.257 E0.4204
G1 X76.292 Y34.188 E0.4248
G1 X76.041 Y34.091 E0.4293
G1 X75.801 Y33.969 E0.4338
G1 X75.575 Y33.823 E0.4383
G1 X75.366 Y33.653 E0.4427
G1 X75.176 Y33.463 E0.4472
G1 X75.007 Y33.254 E0.4517
G1 X74.860 Y33.028 E0.4562
G1 X74.738 Y32.788 E0.4606
G1 X74.641 Y32.537 E0.4651
G1 X74.572 Y32.277 E0.4696
G1 X74.530 Y32.012 E0.4741
G1 X74.516 Y31.701 E0.4792
G1 X74.529 Y31.441 E0.4836
G1 X74.568 Y31.185 E0.4879
G1 X74.633 Y30.933 E0.4922
G1 X74.723 Y30.690 E0.4965
G1 X74.837 Y30.456 E0.5008
G1 X74.974 Y30.236 E0.5052
G1 X75.132 Y30.030 E0.5095
G1 X75.311 Y29.841 E0.5138
G1 X75.508 Y29.672 E0.5181
G1 X75.720 Y29.523 E0.5224
G1 X75.947 Y29.396 E0.5268
G1 X76.185 Y29.293 E0.5311
G1 X76.433 Y29.214 E0.5354
G1 X76.687 Y29.161 E0.5397
G1 X76.945 Y29.134 E0.5440
G1 X77.205 Y29.132 E0.5483
G1 X77.468 Y29.158 E0.5527
G1 X79.725 Y29.509 E0.5907
G1 X81.981 Y29.890 E0.6288
G1 X84.070 Y30.268 E0.6641
G1 X86.197 Y30.674 E0.7001
G1 X89.908 Y31.423 E0.7631
G1 X94.010 Y32.294 E0.8328
G1 X101.561 Y33.935 E0.9613
G1 X101.625 Y33.960 E0.9624
G1 X101.630 Y33.962 F875
G1 X101.676 Y33.999
G1 X101.705 Y34.044
G1 X101.722 Y34.125
G92 E0.0000
G1 E-1.0000 F2400
G1 X101.704 Y34.205 F875
G1 X101.678 Y34.245
G1 X101.612 Y34.294
G1 X101.515 Y34.314
G1 X99.826 Y34.314
G1 X78.072 Y31.728 F12000
G1 E0.0000 F2400
G92 E0.0000
G1 X78.048 Y31.499 E0.0038 F875
G1 X77.975 Y31.275 E0.0077
G1 X77.793 Y30.995 E0.0133
G1 X77.618 Y30.837 E0.0172
G1 X77.419 Y30.722 E0.0210
G1 X77.200 Y30.651 E0.0249
G1 X76.966 Y30.626 E0.0288
G1 X76.636 Y30.679 E0.0344
G1 X76.420 Y30.774 E0.0383
G1 X76.234 Y30.910 E0.0421
G1 X76.080 Y31.081 E0.0459
G1 X75.965 Y31.280 E0.0498
G1 X75.896 Y31.494 E0.0535
G1 X75.875 Y31.625 E0.0557
G1 X75.892 Y31.952 E0.0611
G1 X75.965 Y32.176 E0.0651
G1 X76.080 Y32.375 E0.0689
G1 X76.234 Y32.546 E0.0727
G1 X76.420 Y32.682 E0.0765
G1 X76.636 Y32.777 E0.0805
G1 X76.966 Y32.830 E0.0860
G1 X77.200 Y32.805 E0.0899
G1 X77.419 Y32.734 E0.0938
G1 X77.618 Y32.619 E0.0976
G1 X77.793 Y32.461 E0.1015
G1 X77.975 Y32.181 E0.1071
